;FLAVOR:Marlin
;TIME:2536
;Filament used: 2.70653m
;Layer height: 0.2
;Generated with Cura_SteamEngine 3.4.1
M190 S65
M104 S210
M109 S210
M82 ;absolute extrusion mode
G28 ;Home
G1 Z15.0 F6000 ;Move the platform down 15mm
;Prime the extruder
G92 E0
G1 F200 E3
G92 E0
G92 E0
G1 F2400 E-5
;LAYER_COUNT:141
;LAYER:0
M107
M204 S5000
M205 X30 Y30
G0 F3600 X127.971 Y114.496 Z0.2
M204 S500
M205 X20 Y20
;TYPE:SKIRT
G1 F2400 E0
G1 F3000 X128.503 Y114.017 E0.02381
G1 X129.085 Y113.602 E0.04758
G1 X129.71 Y113.253 E0.07139
G1 X130.37 Y112.977 E0.09519
G1 X131.056 Y112.776 E0.11896
G1 X131.761 Y112.653 E0.14277
G1 X132.509 Y112.609 E0.16769
G1 X167.491 Y112.61 E1.33119
G1 X168.205 Y112.65 E1.35498
G1 X168.911 Y112.769 E1.37879
G1 X169.598 Y112.967 E1.40257
G1 X170.259 Y113.24 E1.42636
G1 X170.886 Y113.585 E1.45016
G1 X171.47 Y113.997 E1.47393
G1 X172.005 Y114.473 E1.49775
G1 X172.483 Y115.005 E1.52154
G1 X172.898 Y115.587 E1.54531
G1 X173.247 Y116.211 E1.56909
G1 X173.523 Y116.871 E1.59288
G1 X173.724 Y117.557 E1.61666
G1 X173.847 Y118.262 E1.64046
G1 X173.891 Y119.01 E1.66538
G1 X173.891 Y180.991 E3.72688
G1 X173.851 Y181.705 E3.75067
G1 X173.732 Y182.41 E3.77445
G1 X173.534 Y183.098 E3.79826
G1 X173.261 Y183.759 E3.82204
G1 X172.917 Y184.386 E3.84583
G1 X172.504 Y184.97 E3.86962
G1 X172.029 Y185.504 E3.89339
G1 X171.497 Y185.983 E3.9172
G1 X170.915 Y186.398 E3.94098
G1 X170.29 Y186.747 E3.96478
G1 X169.63 Y187.023 E3.98858
G1 X168.944 Y187.224 E4.01235
G1 X168.239 Y187.347 E4.03616
G1 X167.491 Y187.391 E4.06108
G1 X132.509 Y187.391 E5.22458
G1 X131.795 Y187.351 E5.24837
G1 X131.09 Y187.232 E5.27215
G1 X130.402 Y187.034 E5.29596
G1 X129.741 Y186.761 E5.31975
G1 X129.114 Y186.417 E5.34353
G1 X128.53 Y186.004 E5.36732
G1 X127.996 Y185.529 E5.39109
G1 X127.517 Y184.997 E5.4149
G1 X127.102 Y184.415 E5.43868
G1 X126.753 Y183.79 E5.46249
G1 X126.477 Y183.13 E5.48628
G1 X126.276 Y182.444 E5.51006
G1 X126.153 Y181.739 E5.53386
G1 X126.109 Y180.991 E5.55878
G1 X126.109 Y119.009 E7.62031
G1 X126.149 Y118.295 E7.6441
G1 X126.268 Y117.59 E7.66788
G1 X126.466 Y116.902 E7.69169
G1 X126.739 Y116.241 E7.71547
G1 X127.083 Y115.614 E7.73926
G1 X127.496 Y115.03 E7.76305
G1 X127.971 Y114.496 E7.78682
M204 S5000
M205 X30 Y30
G0 F3600 X128.365 Y114.67
M204 S500
M205 X20 Y20
G1 F3000 X128.893 Y114.221 E7.80987
G1 X129.468 Y113.836 E7.83289
G1 X130.085 Y113.521 E7.85593
G1 X130.733 Y113.278 E7.87895
G1 X131.406 Y113.111 E7.90201
G1 X132.092 Y113.023 E7.92502
G1 X132.509 Y113.009 E7.93889
G1 X167.491 Y113.01 E9.1024
G1 X168.183 Y113.05 E9.12545
G1 X168.865 Y113.169 E9.14848
G1 X169.529 Y113.367 E9.17153
G1 X170.165 Y113.639 E9.19453
G1 X170.766 Y113.983 E9.21756
G1 X171.324 Y114.394 E9.24061
G1 X171.83 Y114.866 E9.26363
G1 X172.279 Y115.394 E9.28668
G1 X172.664 Y115.97 E9.30973
G1 X172.98 Y116.586 E9.33275
G1 X173.222 Y117.234 E9.35576
G1 X173.389 Y117.907 E9.37882
G1 X173.477 Y118.594 E9.40186
G1 X173.491 Y119.01 E9.4157
G1 X173.491 Y180.991 E11.4772
G1 X173.451 Y181.682 E11.50022
G1 X173.332 Y182.365 E11.52328
G1 X173.134 Y183.028 E11.54629
G1 X172.862 Y183.665 E11.56933
G1 X172.518 Y184.266 E11.59236
G1 X172.107 Y184.824 E11.61541
G1 X171.635 Y185.33 E11.63843
G1 X171.107 Y185.779 E11.66148
G1 X170.532 Y186.164 E11.6845
G1 X169.915 Y186.479 E11.70754
G1 X169.267 Y186.722 E11.73055
G1 X168.594 Y186.889 E11.75362
G1 X167.908 Y186.977 E11.77662
G1 X167.491 Y186.991 E11.7905
G1 X132.509 Y186.991 E12.954
G1 X131.818 Y186.951 E12.97703
G1 X131.135 Y186.832 E13.00008
G1 X130.472 Y186.634 E13.0231
G1 X129.835 Y186.362 E13.04614
G1 X129.234 Y186.018 E13.06917
G1 X128.676 Y185.607 E13.09222
G1 X128.17 Y185.135 E13.11523
G1 X127.721 Y184.607 E13.13829
G1 X127.336 Y184.032 E13.1613
G1 X127.021 Y183.415 E13.18434
G1 X126.778 Y182.767 E13.20736
G1 X126.611 Y182.094 E13.23042
G1 X126.523 Y181.408 E13.25343
G1 X126.509 Y180.991 E13.2673
G1 X126.509 Y119.009 E15.32883
G1 X126.549 Y118.318 E15.35186
G1 X126.668 Y117.635 E15.37491
G1 X126.866 Y116.972 E15.39793
G1 X127.138 Y116.335 E15.42097
G1 X127.482 Y115.734 E15.444
G1 X127.893 Y115.176 E15.46705
G1 X128.365 Y114.67 E15.49006
M204 S5000
M205 X30 Y30
G0 F3600 X128.758 Y114.851
M204 S500
M205 X20 Y20
G1 F3000 X129.28 Y114.433 E15.5123
G1 X129.849 Y114.081 E15.53456
G1 X130.456 Y113.799 E15.55682
G1 X131.092 Y113.591 E15.57908
G1 X131.748 Y113.461 E15.60132
G1 X132.509 Y113.409 E15.62669
G1 X167.491 Y113.41 E16.79019
G1 X168.159 Y113.45 E16.81245
G1 X168.817 Y113.569 E16.83469
G1 X169.457 Y113.766 E16.85696
G1 X170.068 Y114.038 E16.87921
G1 X170.643 Y114.381 E16.90148
G1 X171.172 Y114.79 E16.92372
G1 X171.649 Y115.259 E16.94597
G1 X172.067 Y115.782 E16.96824
G1 X172.419 Y116.35 E16.99046
G1 X172.701 Y116.957 E17.01272
G1 X172.909 Y117.593 E17.03498
G1 X173.039 Y118.249 E17.05722
G1 X173.091 Y119.01 E17.08259
G1 X173.091 Y180.991 E19.14409
G1 X173.051 Y181.659 E19.16634
G1 X172.932 Y182.317 E19.18859
G1 X172.735 Y182.957 E19.21086
G1 X172.463 Y183.568 E19.2331
G1 X172.12 Y184.142 E19.25534
G1 X171.711 Y184.672 E19.27761
G1 X171.242 Y185.149 E19.29986
G1 X170.72 Y185.567 E19.3221
G1 X170.151 Y185.919 E19.34435
G1 X169.544 Y186.201 E19.36661
G1 X168.908 Y186.409 E19.38887
G1 X168.252 Y186.539 E19.41111
G1 X167.491 Y186.591 E19.43648
G1 X132.509 Y186.591 E20.59999
G1 X131.841 Y186.551 E20.62225
G1 X131.183 Y186.432 E20.64449
G1 X130.543 Y186.235 E20.66676
G1 X129.932 Y185.963 E20.689
G1 X129.358 Y185.62 E20.71124
G1 X128.828 Y185.211 E20.73351
G1 X128.351 Y184.742 E20.75576
G1 X127.933 Y184.22 E20.778
G1 X127.581 Y183.651 E20.80026
G1 X127.299 Y183.044 E20.82252
G1 X127.091 Y182.408 E20.84477
G1 X126.961 Y181.752 E20.86702
G1 X126.909 Y180.991 E20.89239
G1 X126.909 Y119.009 E22.95392
G1 X126.949 Y118.341 E22.97617
G1 X127.068 Y117.683 E22.99841
G1 X127.265 Y117.043 E23.02069
G1 X127.537 Y116.432 E23.04293
G1 X127.88 Y115.858 E23.06517
G1 X128.289 Y115.328 E23.08744
G1 X128.758 Y114.851 E23.10969
M204 S5000
M205 X30 Y30
G0 F3600 X128.684 Y115.486
M204 S500
M205 X20 Y20
G1 F3000 X129.149 Y115.04 E23.13112
G1 X129.666 Y114.655 E23.15256
G1 X130.227 Y114.336 E23.17402
G1 X130.823 Y114.09 E23.19547
G1 X131.444 Y113.919 E23.21689
G1 X132.082 Y113.827 E23.23833
G1 X132.509 Y113.809 E23.25254
G1 X167.491 Y113.81 E24.41605
G1 X168.135 Y113.85 E24.43751
G1 X168.768 Y113.969 E24.45893
G1 X169.382 Y114.166 E24.48038
G1 X169.967 Y114.437 E24.50182
G1 X170.514 Y114.779 E24.52328
G1 X171.014 Y115.185 E24.5447
G1 X171.46 Y115.651 E24.56616
G1 X171.845 Y116.168 E24.5876
G1 X172.164 Y116.728 E24.60903
G1 X172.41 Y117.324 E24.63048
G1 X172.581 Y117.946 E24.65193
G1 X172.673 Y118.583 E24.67334
G1 X172.691 Y119.01 E24.68755
G1 X172.691 Y180.991 E26.74905
G1 X172.651 Y181.634 E26.77048
G1 X172.532 Y182.268 E26.79193
G1 X172.335 Y182.882 E26.81338
G1 X172.064 Y183.467 E26.83482
G1 X171.722 Y184.014 E26.85628
G1 X171.316 Y184.514 E26.8777
G1 X170.851 Y184.96 E26.89913
G1 X170.334 Y185.345 E26.92057
G1 X169.773 Y185.664 E26.94204
G1 X169.177 Y185.91 E26.96348
G1 X168.556 Y186.081 E26.9849
G1 X167.918 Y186.173 E27.00634
G1 X167.491 Y186.191 E27.02056
G1 X132.509 Y186.191 E28.18406
G1 X131.866 Y186.151 E28.20549
G1 X131.232 Y186.032 E28.22695
G1 X130.618 Y185.835 E28.24839
G1 X130.033 Y185.564 E28.26984
G1 X129.486 Y185.222 E28.29129
G1 X128.986 Y184.816 E28.31272
G1 X128.54 Y184.351 E28.33415
G1 X128.155 Y183.834 E28.35559
G1 X127.836 Y183.273 E28.37705
G1 X127.59 Y182.677 E28.3985
G1 X127.419 Y182.056 E28.41992
G1 X127.327 Y181.418 E28.44136
G1 X127.309 Y180.991 E28.45557
G1 X127.309 Y119.009 E30.5171
G1 X127.349 Y118.366 E30.53853
G1 X127.468 Y117.732 E30.55999
G1 X127.665 Y117.118 E30.58143
G1 X127.936 Y116.533 E30.60288
G1 X128.278 Y115.986 E30.62433
G1 X128.684 Y115.486 E30.64576
M204 S5000
M205 X30 Y30
G1 F2400 E25.64576
G0 F3600 X131.835 Y119.614
G0 X133.114 Y119.614
G0 X147.757 Y121.872
G0 X148.261 Y121.995
G0 X149.16 Y122.551
G0 X149.085 Y122.617
M204 S500
M205 X20 Y20
;TYPE:WALL-INNER
G1 F2400 E30.64576
G1 F3000 X148.684 Y122.263 E30.66355
G1 X148.247 Y122.032 E30.67999
G1 X147.753 Y121.911 E30.6969
G1 X147.247 Y121.911 E30.71373
G1 X146.753 Y122.032 E30.73065
G1 X146.305 Y122.268 E30.74749
G1 X145.924 Y122.604 E30.76439
G1 X145.637 Y123.023 E30.78128
G1 X145.457 Y123.496 E30.79811
G1 X145.396 Y124 E30.815
G1 X145.457 Y124.504 E30.83188
G1 X145.637 Y124.977 E30.84871
G1 X145.924 Y125.396 E30.86561
G1 X146.305 Y125.732 E30.8825
G1 X146.753 Y125.968 E30.89934
G1 X147.247 Y126.089 E30.91626
G1 X147.753 Y126.089 E30.93309
G1 X148.247 Y125.968 E30.95001
G1 X148.695 Y125.732 E30.96685
G1 X149.076 Y125.396 E30.98374
G1 X149.363 Y124.977 E31.00063
G1 X149.543 Y124.504 E31.01747
G1 X149.603 Y124.015 E31.03385
G1 X149.546 Y123.514 E31.05062
G1 X149.37 Y123.039 E31.06747
G1 X149.085 Y122.617 E31.08441
M204 S5000
M205 X30 Y30
G0 F3600 X149.16 Y122.551
G0 X155.243 Y121.872
G0 X155.757 Y121.872
G0 X156.261 Y121.995
G0 X157.16 Y122.551
G0 X157.085 Y122.617
M204 S500
M205 X20 Y20
G1 F3000 X156.684 Y122.263 E31.1022
G1 X156.247 Y122.032 E31.11864
G1 X155.753 Y121.911 E31.13556
G1 X155.247 Y121.911 E31.15239
G1 X154.753 Y122.032 E31.1693
G1 X154.305 Y122.268 E31.18614
G1 X153.924 Y122.604 E31.20304
G1 X153.637 Y123.023 E31.21993
G1 X153.457 Y123.496 E31.23676
G1 X153.396 Y124 E31.25365
G1 X153.457 Y124.504 E31.27054
G1 X153.637 Y124.977 E31.28737
G1 X153.924 Y125.396 E31.30426
G1 X154.305 Y125.732 E31.32116
G1 X154.753 Y125.968 E31.338
G1 X155.247 Y126.089 E31.35491
G1 X155.753 Y126.089 E31.37174
G1 X156.247 Y125.968 E31.38866
G1 X156.695 Y125.732 E31.4055
G1 X157.076 Y125.396 E31.4224
G1 X157.363 Y124.977 E31.43929
G1 X157.543 Y124.504 E31.45612
G1 X157.603 Y124.015 E31.47251
G1 X157.546 Y123.514 E31.48928
G1 X157.37 Y123.039 E31.50613
G1 X157.085 Y122.617 E31.52306
M204 S5000
M205 X30 Y30
G0 F3600 X157.16 Y122.551
G0 X157.541 Y123.409
G0 X166.83 Y180.33
G0 X166.9 Y180.4
M204 S500
M205 X20 Y20
G1 F3000 X133.1 Y180.4 E32.64726
G1 X133.1 Y119.6 E34.66947
G1 X166.9 Y119.6 E35.79366
G1 X166.9 Y180.4 E37.81588
M204 S5000
M205 X30 Y30
G0 F3600 X167.3 Y180.8
M204 S500
M205 X20 Y20
;TYPE:WALL-OUTER
G1 F3000 X132.7 Y180.8 E38.96668
G1 X132.7 Y119.2 E41.01551
G1 X167.3 Y119.2 E42.16631
G1 X167.3 Y180.8 E44.21513
M204 S5000
M205 X30 Y30
G0 F3600 X167.1 Y180.8
G0 X166.83 Y180.33
G0 X157.584 Y123.505
G0 X157.534 Y123.369
G0 X157.113 Y122.509
G0 X156.782 Y122.883
M204 S500
M205 X20 Y20
G1 F3000 X156.455 Y122.594 E44.22965
G1 X156.104 Y122.409 E44.24284
G1 X155.705 Y122.311 E44.25651
G1 X155.295 Y122.311 E44.27014
G1 X154.896 Y122.409 E44.28381
G1 X154.534 Y122.6 E44.29742
G1 X154.226 Y122.871 E44.31107
G1 X153.994 Y123.21 E44.32473
G1 X153.848 Y123.593 E44.33836
G1 X153.799 Y124 E44.352
G1 X153.848 Y124.407 E44.36563
G1 X153.994 Y124.79 E44.37927
G1 X154.226 Y125.129 E44.39293
G1 X154.534 Y125.4 E44.40657
G1 X154.896 Y125.591 E44.42019
G1 X155.295 Y125.689 E44.43385
G1 X155.705 Y125.689 E44.44749
G1 X156.104 Y125.591 E44.46115
G1 X156.466 Y125.4 E44.47477
G1 X156.774 Y125.129 E44.48841
G1 X157.006 Y124.79 E44.50207
G1 X157.152 Y124.407 E44.51571
G1 X157.2 Y124.013 E44.52891
G1 X157.154 Y123.607 E44.5425
G1 X157.012 Y123.223 E44.55612
G1 X156.782 Y122.883 E44.56977
M204 S5000
M205 X30 Y30
G0 F3600 X156.632 Y122.751
G0 X156.963 Y122.376
G0 X156.261 Y121.995
G0 X155.757 Y121.872
G0 X155.612 Y121.872
G0 X149.113 Y122.509
G0 X148.782 Y122.883
M204 S500
M205 X20 Y20
G1 F3000 X148.455 Y122.594 E44.58428
G1 X148.104 Y122.409 E44.59748
G1 X147.705 Y122.311 E44.61115
G1 X147.295 Y122.311 E44.62478
G1 X146.896 Y122.409 E44.63845
G1 X146.534 Y122.6 E44.65206
G1 X146.226 Y122.871 E44.66571
G1 X145.994 Y123.21 E44.67937
G1 X145.848 Y123.593 E44.693
G1 X145.799 Y124 E44.70664
G1 X145.848 Y124.407 E44.72027
G1 X145.994 Y124.79 E44.7339
G1 X146.226 Y125.129 E44.74757
G1 X146.534 Y125.4 E44.76121
G1 X146.896 Y125.591 E44.77482
G1 X147.295 Y125.689 E44.78849
G1 X147.705 Y125.689 E44.80213
G1 X148.104 Y125.591 E44.81579
G1 X148.466 Y125.4 E44.8294
G1 X148.774 Y125.129 E44.84305
G1 X149.006 Y124.79 E44.85671
G1 X149.152 Y124.407 E44.87035
G1 X149.2 Y124.013 E44.88355
G1 X149.154 Y123.607 E44.89714
G1 X149.012 Y123.223 E44.91075
G1 X148.782 Y122.883 E44.92441
M204 S5000
M205 X30 Y30
G0 F3600 X148.632 Y122.751
G0 X148.963 Y122.376
G0 X149.38 Y122.358
M204 S500
M205 X20 Y20
;TYPE:SKIN
G1 F3000 X148.908 Y121.94 E44.94538
G1 X148.387 Y121.665 E44.96497
G1 X147.8 Y121.521 E44.98507
G1 X147.2 Y121.521 E45.00503
G1 X146.614 Y121.665 E45.0251
G1 X146.083 Y121.944 E45.04505
G1 X145.63 Y122.343 E45.06513
G1 X145.289 Y122.841 E45.0852
G1 X145.075 Y123.402 E45.10517
G1 X145.004 Y124 E45.1252
G1 X145.075 Y124.598 E45.14523
G1 X145.289 Y125.159 E45.1652
G1 X145.63 Y125.657 E45.18528
G1 X146.083 Y126.056 E45.20535
G1 X146.614 Y126.335 E45.22531
G1 X147.2 Y126.479 E45.24538
G1 X147.8 Y126.479 E45.26533
G1 X148.386 Y126.335 E45.2854
G1 X148.917 Y126.056 E45.30535
G1 X149.37 Y125.657 E45.32543
G1 X149.711 Y125.159 E45.34551
G1 X149.925 Y124.598 E45.36548
G1 X149.995 Y124.017 E45.38494
G1 X149.928 Y123.423 E45.40482
G1 X149.719 Y122.859 E45.42483
G1 X149.38 Y122.358 E45.44495
M204 S5000
M205 X30 Y30
G0 F3600 X153.075 Y123.402
M204 S500
M205 X20 Y20
G1 F3000 X153.004 Y124 E45.46498
G1 X153.075 Y124.598 E45.485
G1 X153.289 Y125.159 E45.50497
G1 X153.63 Y125.657 E45.52505
G1 X154.083 Y126.056 E45.54513
G1 X154.614 Y126.335 E45.56508
G1 X155.2 Y126.479 E45.58515
G1 X155.8 Y126.479 E45.6051
G1 X156.386 Y126.335 E45.62517
G1 X156.917 Y126.056 E45.64513
G1 X157.37 Y125.657 E45.6652
G1 X157.711 Y125.159 E45.68528
G1 X157.925 Y124.598 E45.70525
G1 X157.995 Y124.017 E45.72471
G1 X157.928 Y123.423 E45.74459
G1 X157.719 Y122.859 E45.7646
G1 X157.38 Y122.358 E45.78472
G1 X156.908 Y121.94 E45.80569
G1 X156.387 Y121.665 E45.82528
G1 X155.8 Y121.521 E45.84539
G1 X155.2 Y121.521 E45.86534
G1 X154.614 Y121.665 E45.88541
G1 X154.083 Y121.944 E45.90536
G1 X153.63 Y122.343 E45.92544
G1 X153.289 Y122.841 E45.94551
G1 X153.075 Y123.402 E45.96549
M204 S5000
M205 X30 Y30
G0 F3600 X147.757 Y121.872
G0 X133.49 Y119.99
M204 S500
M205 X20 Y20
G1 F3000 X166.51 Y119.99 E47.06373
G1 X166.51 Y180.01 E49.06001
G1 X133.49 Y180.01 E50.15826
G1 X133.49 Y119.99 E52.15453
M204 S5000
M205 X30 Y30
G0 F3600 X150.11 Y163.61
M204 S500
M205 X20 Y20
G1 F3000 X149.89 Y163.61 E52.16185
G1 X149.89 Y142.85 E52.85233
G1 X150.11 Y142.798 E52.85985
G1 X150.11 Y163.61 E53.55206
M204 S5000
M205 X30 Y30
G0 F3600 X150.51 Y164.01
M204 S500
M205 X20 Y20
G1 F3000 X149.49 Y164.01 E53.58598
G1 X149.49 Y142.479 E54.30211
G1 X149.724 Y142.479 E54.30989
G1 X150.51 Y142.29 E54.33678
G1 X150.51 Y164.01 E55.05919
M204 S5000
M205 X30 Y30
G0 F3600 X150.91 Y164.41
M204 S500
M205 X20 Y20
G1 F3000 X149.09 Y164.41 E55.11972
G1 X149.09 Y142.079 E55.86245
G1 X149.677 Y142.079 E55.88198
G1 X150.91 Y141.782 E55.92416
G1 X150.91 Y164.41 E56.67677
M204 S5000
M205 X30 Y30
G0 F3600 X151.31 Y164.81
M204 S500
M205 X20 Y20
G1 F3000 X148.69 Y164.81 E56.76391
G1 X148.69 Y141.679 E57.53325
G1 X149.629 Y141.679 E57.56448
G1 X151.31 Y141.274 E57.62199
G1 X151.31 Y164.81 E58.4048
M204 S5000
M205 X30 Y30
G0 F3600 X151.71 Y165.21
M204 S500
M205 X20 Y20
G1 F3000 X148.29 Y165.21 E58.51855
G1 X148.29 Y141.279 E59.3145
G1 X149.581 Y141.279 E59.35744
G1 X151.5 Y140.816 E59.4231
G1 X151.71 Y140.866 E59.43028
G1 X151.71 Y165.21 E60.23996
M204 S5000
M205 X30 Y30
G0 F3600 X152.11 Y165.61
M204 S500
M205 X20 Y20
G1 F3000 X147.89 Y165.61 E60.38032
G1 X147.89 Y140.879 E61.20288
G1 X149.533 Y140.879 E61.25752
G1 X151.5 Y140.404 E61.32483
G1 X152.11 Y140.551 E61.3457
G1 X152.11 Y165.61 E62.17916
M204 S5000
M205 X30 Y30
G0 F3600 X152.51 Y166.01
M204 S500
M205 X20 Y20
G1 F3000 X147.49 Y166.01 E62.34613
G1 X147.49 Y140.479 E63.19529
G1 X149.485 Y140.479 E63.26165
G1 X151.5 Y139.992 E63.33059
G1 X152.51 Y140.236 E63.36515
G1 X152.51 Y166.01 E64.2224
M204 S5000
M205 X30 Y30
G0 F3600 X152.91 Y166.41
M204 S500
M205 X20 Y20
G1 F3000 X147.09 Y166.41 E64.41597
G1 X147.09 Y140.079 E65.29175
G1 X149.437 Y140.079 E65.36981
G1 X151.5 Y139.58 E65.4404
G1 X152.91 Y139.921 E65.48865
