;FLAVOR:Marlin
;TIME:860
;Filament used: 0.760811m
;Layer height: 0.2
;Generated with Cura_SteamEngine 3.4.1
M190 S65
M104 S210
M109 S210
M82 ;absolute extrusion mode
G28 ;Home
G1 Z15.0 F6000 ;Move the platform down 15mm
;Prime the extruder
G92 E0
G1 F200 E3
G92 E0
G92 E0
G1 F2400 E-5
;LAYER_COUNT:41
;LAYER:0
M107
M204 S5000
M205 X30 Y30
G0 F3600 X114.003 Y139.017 Z0.2
M204 S500
M205 X20 Y20
;TYPE:SKIRT
G1 F2400 E0
G1 F1800 X114.585 Y138.602 E0.02377
G1 X115.21 Y138.253 E0.04758
G1 X115.87 Y137.977 E0.07138
G1 X116.556 Y137.776 E0.09515
G1 X117.261 Y137.653 E0.11896
G1 X118.009 Y137.609 E0.14388
G1 X181.991 Y137.61 E2.27193
G1 X182.705 Y137.65 E2.29571
G1 X183.41 Y137.769 E2.31949
G1 X184.098 Y137.967 E2.3433
G1 X184.759 Y138.24 E2.36709
G1 X185.386 Y138.585 E2.39089
G1 X185.97 Y138.997 E2.41466
G1 X186.504 Y139.473 E2.43846
G1 X186.983 Y140.004 E2.46224
G1 X187.398 Y140.586 E2.48602
G1 X187.747 Y141.211 E2.50983
G1 X188.023 Y141.871 E2.53362
G1 X188.224 Y142.557 E2.55739
G1 X188.347 Y143.262 E2.5812
G1 X188.391 Y144.01 E2.60612
G1 X188.391 Y155.991 E3.00461
G1 X188.351 Y156.705 E3.02839
G1 X188.232 Y157.41 E3.05217
G1 X188.034 Y158.098 E3.07599
G1 X187.761 Y158.759 E3.09977
G1 X187.417 Y159.386 E3.12356
G1 X187.004 Y159.97 E3.14735
G1 X186.529 Y160.504 E3.17112
G1 X185.997 Y160.983 E3.19493
G1 X185.415 Y161.398 E3.2187
G1 X184.79 Y161.747 E3.24251
G1 X184.13 Y162.023 E3.26631
G1 X183.444 Y162.224 E3.29008
G1 X182.739 Y162.347 E3.31388
G1 X181.991 Y162.391 E3.33881
G1 X118.009 Y162.391 E5.46686
G1 X117.295 Y162.351 E5.49064
G1 X116.59 Y162.232 E5.51442
G1 X115.902 Y162.034 E5.53823
G1 X115.241 Y161.761 E5.56202
G1 X114.614 Y161.417 E5.58581
G1 X114.03 Y161.004 E5.6096
G1 X113.496 Y160.529 E5.63337
G1 X113.017 Y159.997 E5.65718
G1 X112.602 Y159.415 E5.68095
G1 X112.253 Y158.79 E5.70476
G1 X111.977 Y158.13 E5.72855
G1 X111.776 Y157.444 E5.75233
G1 X111.653 Y156.739 E5.77613
G1 X111.609 Y155.991 E5.80105
G1 X111.609 Y144.009 E6.19958
G1 X111.649 Y143.295 E6.22336
G1 X111.768 Y142.59 E6.24714
G1 X111.966 Y141.902 E6.27095
G1 X112.239 Y141.241 E6.29474
G1 X112.583 Y140.614 E6.31853
G1 X112.996 Y140.03 E6.34232
G1 X113.471 Y139.496 E6.36609
G1 X114.003 Y139.017 E6.3899
M204 S5000
M205 X30 Y30
G0 F3600 X114.393 Y139.221
M204 S500
M205 X20 Y20
G1 F1800 X114.968 Y138.836 E6.41291
G1 X115.585 Y138.521 E6.43595
G1 X116.233 Y138.278 E6.45897
G1 X116.906 Y138.111 E6.48204
G1 X117.592 Y138.023 E6.50504
G1 X118.009 Y138.009 E6.51892
G1 X181.991 Y138.01 E8.64697
G1 X182.682 Y138.05 E8.66999
G1 X183.365 Y138.169 E8.69305
G1 X184.029 Y138.367 E8.71609
G1 X184.665 Y138.639 E8.7391
G1 X185.266 Y138.983 E8.76213
G1 X185.824 Y139.394 E8.78518
G1 X186.33 Y139.866 E8.8082
G1 X186.779 Y140.394 E8.83125
G1 X187.164 Y140.97 E8.85429
G1 X187.479 Y141.586 E8.8773
G1 X187.722 Y142.234 E8.90032
G1 X187.889 Y142.907 E8.92338
G1 X187.977 Y143.594 E8.94642
G1 X187.991 Y144.01 E8.96026
G1 X187.991 Y155.991 E9.35875
G1 X187.951 Y156.682 E9.38178
G1 X187.832 Y157.365 E9.40483
G1 X187.634 Y158.028 E9.42785
G1 X187.362 Y158.665 E9.45089
G1 X187.018 Y159.266 E9.47392
G1 X186.607 Y159.824 E9.49697
G1 X186.135 Y160.33 E9.51998
G1 X185.607 Y160.779 E9.54304
G1 X185.032 Y161.164 E9.56605
G1 X184.415 Y161.479 E9.58909
G1 X183.767 Y161.722 E9.61211
G1 X183.094 Y161.889 E9.63517
G1 X182.408 Y161.977 E9.65818
G1 X181.991 Y161.991 E9.67205
G1 X118.009 Y161.991 E11.8001
G1 X117.318 Y161.951 E11.82313
G1 X116.635 Y161.832 E11.84618
G1 X115.972 Y161.634 E11.8692
G1 X115.335 Y161.362 E11.89224
G1 X114.734 Y161.018 E11.91527
G1 X114.176 Y160.607 E11.93832
G1 X113.67 Y160.135 E11.96133
G1 X113.221 Y159.607 E11.98439
G1 X112.836 Y159.032 E12.0074
G1 X112.521 Y158.415 E12.03044
G1 X112.278 Y157.767 E12.05346
G1 X112.111 Y157.094 E12.07652
G1 X112.023 Y156.408 E12.09953
G1 X112.009 Y155.991 E12.1134
G1 X112.009 Y144.009 E12.51193
G1 X112.049 Y143.318 E12.53495
G1 X112.168 Y142.635 E12.55801
G1 X112.366 Y141.972 E12.58102
G1 X112.638 Y141.335 E12.60406
G1 X112.982 Y140.734 E12.62709
G1 X113.393 Y140.176 E12.65014
G1 X113.865 Y139.67 E12.67316
G1 X114.393 Y139.221 E12.69621
M204 S5000
M205 X30 Y30
G0 F3600 X114.258 Y139.851
M204 S500
M205 X20 Y20
G1 F1800 X114.78 Y139.433 E12.71845
G1 X115.349 Y139.081 E12.7407
G1 X115.956 Y138.799 E12.76297
G1 X116.592 Y138.591 E12.78522
G1 X117.248 Y138.461 E12.80746
G1 X118.009 Y138.409 E12.83283
G1 X181.991 Y138.41 E14.96088
G1 X182.659 Y138.45 E14.98314
G1 X183.317 Y138.569 E15.00538
G1 X183.957 Y138.766 E15.02765
G1 X184.568 Y139.038 E15.0499
G1 X185.142 Y139.381 E15.07214
G1 X185.672 Y139.79 E15.09441
G1 X186.149 Y140.259 E15.11665
G1 X186.567 Y140.782 E15.13892
G1 X186.919 Y141.35 E15.16115
G1 X187.201 Y141.957 E15.18341
G1 X187.409 Y142.593 E15.20567
G1 X187.539 Y143.249 E15.22791
G1 X187.591 Y144.01 E15.25328
G1 X187.591 Y155.991 E15.65177
G1 X187.551 Y156.659 E15.67403
G1 X187.432 Y157.317 E15.69627
G1 X187.235 Y157.957 E15.71854
G1 X186.963 Y158.568 E15.74078
G1 X186.62 Y159.142 E15.76302
G1 X186.211 Y159.672 E15.78529
G1 X185.742 Y160.149 E15.80754
G1 X185.22 Y160.567 E15.82978
G1 X184.651 Y160.919 E15.85203
G1 X184.044 Y161.201 E15.8743
G1 X183.408 Y161.409 E15.89655
G1 X182.752 Y161.539 E15.91879
G1 X181.991 Y161.591 E15.94416
G1 X118.009 Y161.591 E18.07221
G1 X117.341 Y161.551 E18.09447
G1 X116.683 Y161.432 E18.11671
G1 X116.043 Y161.235 E18.13898
G1 X115.432 Y160.963 E18.16123
G1 X114.858 Y160.62 E18.18347
G1 X114.328 Y160.211 E18.20574
G1 X113.851 Y159.742 E18.22798
G1 X113.433 Y159.22 E18.25023
G1 X113.081 Y158.651 E18.27248
G1 X112.799 Y158.044 E18.29474
G1 X112.591 Y157.408 E18.317
G1 X112.461 Y156.752 E18.33924
G1 X112.409 Y155.991 E18.36461
G1 X112.409 Y144.009 E18.76313
G1 X112.449 Y143.341 E18.78539
G1 X112.568 Y142.683 E18.80763
G1 X112.765 Y142.043 E18.8299
G1 X113.037 Y141.432 E18.85215
G1 X113.38 Y140.858 E18.87439
G1 X113.789 Y140.328 E18.89665
G1 X114.258 Y139.851 E18.9189
M204 S5000
M205 X30 Y30
G0 F3600 X114.649 Y140.04
M204 S500
M205 X20 Y20
G1 F1800 X115.166 Y139.655 E18.94034
G1 X115.727 Y139.336 E18.96181
G1 X116.323 Y139.09 E18.98325
G1 X116.944 Y138.919 E19.00468
G1 X117.582 Y138.827 E19.02612
G1 X118.009 Y138.809 E19.04033
G1 X181.991 Y138.81 E21.16838
G1 X182.635 Y138.85 E21.18984
G1 X183.268 Y138.969 E21.21126
G1 X183.882 Y139.166 E21.23271
G1 X184.467 Y139.437 E21.25415
G1 X185.014 Y139.779 E21.27561
G1 X185.514 Y140.185 E21.29703
G1 X185.96 Y140.651 E21.31849
G1 X186.345 Y141.167 E21.3399
G1 X186.664 Y141.728 E21.36137
G1 X186.91 Y142.324 E21.38281
G1 X187.081 Y142.945 E21.40423
G1 X187.173 Y143.583 E21.42567
G1 X187.191 Y144.01 E21.43989
G1 X187.191 Y155.991 E21.83838
G1 X187.151 Y156.634 E21.8598
G1 X187.032 Y157.268 E21.88126
G1 X186.835 Y157.882 E21.90271
G1 X186.564 Y158.467 E21.92415
G1 X186.222 Y159.014 E21.94561
G1 X185.816 Y159.514 E21.96703
G1 X185.351 Y159.96 E21.98846
G1 X184.834 Y160.345 E22.0099
G1 X184.273 Y160.664 E22.03136
G1 X183.677 Y160.91 E22.05281
G1 X183.056 Y161.081 E22.07423
G1 X182.418 Y161.173 E22.09567
G1 X181.991 Y161.191 E22.10989
G1 X118.009 Y161.191 E24.23794
G1 X117.366 Y161.151 E24.25936
G1 X116.732 Y161.032 E24.28082
G1 X116.118 Y160.835 E24.30227
G1 X115.533 Y160.564 E24.32371
G1 X114.986 Y160.222 E24.34517
G1 X114.486 Y159.816 E24.36659
G1 X114.04 Y159.351 E24.38802
G1 X113.655 Y158.834 E24.40946
G1 X113.336 Y158.273 E24.43092
G1 X113.09 Y157.677 E24.45237
G1 X112.919 Y157.056 E24.47379
G1 X112.827 Y156.418 E24.49523
G1 X112.809 Y155.991 E24.50945
G1 X112.809 Y144.009 E24.90797
G1 X112.849 Y143.366 E24.9294
G1 X112.968 Y142.732 E24.95085
G1 X113.165 Y142.118 E24.9723
G1 X113.436 Y141.533 E24.99374
G1 X113.778 Y140.986 E25.0152
G1 X114.184 Y140.486 E25.03662
G1 X114.649 Y140.04 E25.05805
M204 S5000
M205 X30 Y30
G1 F2400 E20.05805
G0 F3600 X118.614 Y143.335
G0 X118.614 Y144.614
G0 X181.33 Y155.33
G0 X181.4 Y155.4
M204 S500
M205 X20 Y20
;TYPE:WALL-INNER
G1 F2400 E25.05805
G1 F1800 X118.6 Y155.4 E27.14679
G1 X118.6 Y144.6 E27.506
G1 X181.4 Y144.6 E29.59473
G1 X181.4 Y155.4 E29.95394
M204 S5000
M205 X30 Y30
G0 F3600 X181.8 Y155.8
M204 S500
M205 X20 Y20
;TYPE:WALL-OUTER
G1 F1800 X118.2 Y155.8 E32.06929
G1 X118.2 Y144.2 E32.4551
G1 X181.8 Y144.2 E34.57045
G1 X181.8 Y155.8 E34.95627
M204 S5000
M205 X30 Y30
G0 F3600 X181.6 Y155.8
G0 X181.33 Y155.33
G0 X181.01 Y155.01
M204 S500
M205 X20 Y20
;TYPE:SKIN
G1 F1800 X118.99 Y155.01 E37.01906
G1 X118.99 Y144.99 E37.35233
G1 X181.01 Y144.99 E39.41512
G1 X181.01 Y155.01 E39.74839
M204 S5000
M205 X30 Y30
G0 F3600 X176.21 Y150.21
M204 S500
M205 X20 Y20
G1 F1800 X123.79 Y150.21 E41.49188
G1 X123.79 Y149.79 E41.50585
G1 X176.21 Y149.79 E43.24935
G1 X176.21 Y150.21 E43.26332
M204 S5000
M205 X30 Y30
G0 F3600 X176.61 Y150.61
M204 S500
M205 X20 Y20
G1 F1800 X123.39 Y150.61 E45.03342
G1 X123.39 Y149.39 E45.074
G1 X176.61 Y149.39 E46.8441
G1 X176.61 Y150.61 E46.88468
M204 S5000
M205 X30 Y30
G0 F3600 X177.01 Y151.01
M204 S500
M205 X20 Y20
G1 F1800 X122.99 Y151.01 E48.68139
G1 X122.99 Y148.99 E48.74858
G1 X177.01 Y148.99 E50.54529
G1 X177.01 Y151.01 E50.61248
M204 S5000
M205 X30 Y30
G0 F3600 X177.41 Y151.41
M204 S500
M205 X20 Y20
G1 F1800 X122.59 Y151.41 E52.4358
G1 X122.59 Y148.59 E52.52959
G1 X177.41 Y148.59 E54.35291
G1 X177.41 Y151.41 E54.44671
M204 S5000
M205 X30 Y30
G0 F3600 X177.81 Y151.81
M204 S500
M205 X20 Y20
G1 F1800 X122.19 Y151.81 E56.29663
G1 X122.19 Y148.19 E56.41704
G1 X177.81 Y148.19 E58.26696
G1 X177.81 Y151.81 E58.38737
M204 S5000
M205 X30 Y30
G0 F3600 X178.21 Y152.21
M204 S500
M205 X20 Y20
G1 F1800 X121.79 Y152.21 E60.2639
G1 X121.79 Y147.79 E60.41091
G1 X178.21 Y147.79 E62.28745
G1 X178.21 Y152.21 E62.43446
M204 S5000
M205 X30 Y30
G0 F3600 X178.61 Y152.61
M204 S500
M205 X20 Y20
G1 F1800 X121.39 Y152.61 E64.3376
G1 X121.39 Y147.39 E64.51122
G1 X178.61 Y147.39 E66.41437
G1 X178.61 Y152.61 E66.58799
M204 S5000
M205 X30 Y30
G0 F3600 X179.01 Y153.01
M204 S500
M205 X20 Y20
G1 F1800 X120.99 Y153.01 E68.51774
G1 X120.99 Y146.99 E68.71796
G1 X179.01 Y146.99 E70.64772
G1 X179.01 Y153.01 E70.84794
M204 S5000
M205 X30 Y30
G0 F3600 X179.41 Y153.41
M204 S500
M205 X20 Y20
G1 F1800 X120.59 Y153.41 E72.8043
G1 X120.59 Y146.59 E73.03114
G1 X179.41 Y146.59 E74.9875
G1 X179.41 Y153.41 E75.21433
M204 S5000
M205 X30 Y30
G0 F3600 X179.81 Y153.81
M204 S500
M205 X20 Y20
G1 F1800 X120.19 Y153.81 E77.1973
G1 X120.19 Y146.19 E77.45075
G1 X179.81 Y146.19 E79.43371
G1 X179.81 Y153.81 E79.68716
M204 S5000
M205 X30 Y30
G0 F3600 X180.21 Y154.21
M204 S500
M205 X20 Y20
G1 F1800 X119.79 Y154.21 E81.69673
G1 X119.79 Y145.79 E81.97678
G1 X180.21 Y145.79 E83.98636
G1 X180.21 Y154.21 E84.26641
M204 S5000
M205 X30 Y30
G0 F3600 X180.61 Y154.61
M204 S500
M205 X20 Y20
G1 F1800 X119.39 Y154.61 E86.3026
G1 X119.39 Y145.39 E86.60926
G1 X180.61 Y145.39 E88.64544
G1 X180.61 Y154.61 E88.9521
M204 S5000
M205 X30 Y30
G0 F3600 X181.33 Y155.33
G0 X181.4 Y155.4
;TIME_ELAPSED:100.667459
;LAYER:1
M140 S65
M106 S255
G0 F5400 X181.4 Y155.4 Z0.4
M204 S500
M205 X20 Y20
;TYPE:WALL-INNER
G1 F2700 X118.6 Y155.4 E91.04084
G1 X118.6 Y144.6 E91.40005
G1 X181.4 Y144.6 E93.48878
G1 X181.4 Y155.4 E93.84799
M204 S5000
M205 X30 Y30
G0 F5400 X181.8 Y155.8
M204 S500
M205 X20 Y20
;TYPE:WALL-OUTER
G1 F1800 X118.2 Y155.8 E95.96334
G1 X118.2 Y144.2 E96.34915
G1 X181.8 Y144.2 E98.4645
G1 X181.8 Y155.8 E98.85032
M204 S5000
M205 X30 Y30
G0 F5400 X181.6 Y155.8
G0 X181.33 Y155.33
G0 X181.01 Y155.01
M204 S500
M205 X20 Y20
;TYPE:SKIN
G1 F1800 X118.99 Y155.01 E100.91311
G1 X118.99 Y144.99 E101.24638
G1 X181.01 Y144.99 E103.30917
G1 X181.01 Y155.01 E103.64244
M204 S5000
M205 X30 Y30
G0 F5400 X176.21 Y150.21
M204 S500
M205 X20 Y20
G1 F1800 X123.79 Y150.21 E105.38593
G1 X123.79 Y149.79 E105.3999
G1 X176.21 Y149.79 E107.1434
G1 X176.21 Y150.21 E107.15737
M204 S5000
M205 X30 Y30
G0 F5400 X176.61 Y150.61
M204 S500
M205 X20 Y20
G1 F1800 X123.39 Y150.61 E108.92747
G1 X123.39 Y149.39 E108.96805
G1 X176.61 Y149.39 E110.73815
G1 X176.61 Y150.61 E110.77873
M204 S5000
M205 X30 Y30
G0 F5400 X177.01 Y151.01
M204 S500
M205 X20 Y20
G1 F1800 X122.99 Y151.01 E112.57544
G1 X122.99 Y148.99 E112.64263
G1 X177.01 Y148.99 E114.43934
G1 X177.01 Y151.01 E114.50653
M204 S5000
M205 X30 Y30
G0 F5400 X177.41 Y151.41
M204 S500
M205 X20 Y20
G1 F1800 X122.59 Y151.41 E116.32985
G1 X122.59 Y148.59 E116.42364
G1 X177.41 Y148.59 E118.24696
G1 X177.41 Y151.41 E118.34076
M204 S5000
M205 X30 Y30
G0 F5400 X177.81 Y151.81
M204 S500
M205 X20 Y20
G1 F1800 X122.19 Y151.81 E120.19068
G1 X122.19 Y148.19 E120.31109
G1 X177.81 Y148.19 E122.16101
G1 X177.81 Y151.81 E122.28142
M204 S5000
M205 X30 Y30
G0 F5400 X178.21 Y152.21
M204 S500
M205 X20 Y20
G1 F1800 X121.79 Y152.21 E124.15795
G1 X121.79 Y147.79 E124.30496
G1 X178.21 Y147.79 E126.1815
G1 X178.21 Y152.21 E126.32851
M204 S5000
M205 X30 Y30
G0 F5400 X178.61 Y152.61
M204 S500
M205 X20 Y20
G1 F1800 X121.39 Y152.61 E128.23165
G1 X121.39 Y147.39 E128.40527
G1 X178.61 Y147.39 E130.30842
G1 X178.61 Y152.61 E130.48204
M204 S5000
M205 X30 Y30
G0 F5400 X179.01 Y153.01
M204 S500
M205 X20 Y20
G1 F1800 X120.99 Y153.01 E132.41179
G1 X120.99 Y146.99 E132.61201
G1 X179.01 Y146.99 E134.54177
G1 X179.01 Y153.01 E134.74199
M204 S5000
M205 X30 Y30
G0 F5400 X179.41 Y153.41
M204 S500
M205 X20 Y20
G1 F1800 X120.59 Y153.41 E136.69835
G1 X120.59 Y146.59 E136.92519
G1 X179.41 Y146.59 E138.88155
G1 X179.41 Y153.41 E139.10838
M204 S5000
M205 X30 Y30
G0 F5400 X179.81 Y153.81
M204 S500
M205 X20 Y20
G1 F1800 X120.19 Y153.81 E141.09135
G1 X120.19 Y146.19 E141.3448
G1 X179.81 Y146.19 E143.32776
G1 X179.81 Y153.81 E143.58121
M204 S5000
M205 X30 Y30
G0 F5400 X180.21 Y154.21
M204 S500
M205 X20 Y20
G1 F1800 X119.79 Y154.21 E145.59078
G1 X119.79 Y145.79 E145.87083
G1 X180.21 Y145.79 E147.88041
G1 X180.21 Y154.21 E148.16046
M204 S5000
M205 X30 Y30
G0 F5400 X180.61 Y154.61
M204 S500
M205 X20 Y20
G1 F1800 X119.39 Y154.61 E150.19665
G1 X119.39 Y145.39 E150.50331
G1 X180.61 Y145.39 E152.53949
G1 X180.61 Y154.61 E152.84615
M204 S5000
M205 X30 Y30
G0 F5400 X181.33 Y155.33
G0 X181.4 Y155.4
;TIME_ELAPSED:164.601028
;LAYER:2
G0 F7200 X181.4 Y155.4 Z0.6
M204 S500
M205 X20 Y20
;TYPE:WALL-INNER
G1 F3600 X118.6 Y155.4 E154.93489
G1 X118.6 Y144.6 E155.2941
G1 X181.4 Y144.6 E157.38283
G1 X181.4 Y155.4 E157.74204
M204 S5000
M205 X30 Y30
G0 F7200 X181.8 Y155.8
M204 S500
M205 X20 Y20
;TYPE:WALL-OUTER
G1 F1800 X118.2 Y155.8 E159.85739
G1 X118.2 Y144.2 E160.2432
G1 X181.8 Y144.2 E162.35855
G1 X181.8 Y155.8 E162.74437
M204 S5000
M205 X30 Y30
G0 F7200 X181.6 Y155.8
G0 X181.33 Y155.33
G0 X181.01 Y155.01
M204 S500
M205 X20 Y20
;TYPE:SKIN
G1 F1800 X118.99 Y155.01 E164.80716
G1 X118.99 Y144.99 E165.14043
G1 X181.01 Y144.99 E167.20322
G1 X181.01 Y155.01 E167.53649
M204 S5000
M205 X30 Y30
G0 F7200 X176.21 Y150.21
M204 S500
M205 X20 Y20
G1 F1800 X123.79 Y150.21 E169.27998
G1 X123.79 Y149.79 E169.29395
G1 X176.21 Y149.79 E171.03745
G1 X176.21 Y150.21 E171.05142
M204 S5000
M205 X30 Y30
G0 F7200 X176.61 Y150.61
M204 S500
M205 X20 Y20
G1 F1800 X123.39 Y150.61 E172.82152
G1 X123.39 Y149.39 E172.8621
G1 X176.61 Y149.39 E174.6322
G1 X176.61 Y150.61 E174.67278
M204 S5000
M205 X30 Y30
G0 F7200 X177.01 Y151.01
M204 S500
M205 X20 Y20
G1 F1800 X122.99 Y151.01 E176.46949
G1 X122.99 Y148.99 E176.53668
G1 X177.01 Y148.99 E178.33339
G1 X177.01 Y151.01 E178.40058
M204 S5000
M205 X30 Y30
G0 F7200 X177.41 Y151.41
M204 S500
M205 X20 Y20
G1 F1800 X122.59 Y151.41 E180.2239
G1 X122.59 Y148.59 E180.31769
G1 X177.41 Y148.59 E182.14101
G1 X177.41 Y151.41 E182.23481
M204 S5000
M205 X30 Y30
G0 F7200 X177.81 Y151.81
M204 S500
M205 X20 Y20
G1 F1800 X122.19 Y151.81 E184.08473
G1 X122.19 Y148.19 E184.20514
G1 X177.81 Y148.19 E186.05506
G1 X177.81 Y151.81 E186.17547
M204 S5000
M205 X30 Y30
G0 F7200 X178.21 Y152.21
M204 S500
M205 X20 Y20
G1 F1800 X121.79 Y152.21 E188.052
G1 X121.79 Y147.79 E188.19901
G1 X178.21 Y147.79 E190.07555
G1 X178.21 Y152.21 E190.22256
M204 S5000
M205 X30 Y30
G0 F7200 X178.61 Y152.61
M204 S500
M205 X20 Y20
G1 F1800 X121.39 Y152.61 E192.1257
G1 X121.39 Y147.39 E192.29932
G1 X178.61 Y147.39 E194.20247
G1 X178.61 Y152.61 E194.37608
M204 S5000
M205 X30 Y30
