;FLAVOR:Marlin
;TIME:3093
;Filament used: 3.34593m
;Layer height: 0.2
;Generated with Cura_SteamEngine 3.4.1
M190 S65
M104 S210
M109 S210
M82 ;absolute extrusion mode
G28 ;Home
G1 Z15.0 F6000 ;Move the platform down 15mm
;Prime the extruder
G92 E0
G1 F200 E3
G92 E0
G92 E0
G1 F2400 E-5
;LAYER_COUNT:21
;LAYER:0
M107
M204 S5000
M205 X30 Y30
G0 F3600 X101.003 Y115.017 Z0.2
M204 S500
M205 X20 Y20
;TYPE:SKIRT
G1 F2400 E0
G1 F1800 X101.585 Y114.602 E0.02377
G1 X102.21 Y114.253 E0.04758
G1 X102.87 Y113.977 E0.07138
G1 X103.556 Y113.776 E0.09515
G1 X104.261 Y113.653 E0.11896
G1 X105.009 Y113.609 E0.14388
G1 X194.991 Y113.61 E3.13669
G1 X195.705 Y113.65 E3.16048
G1 X196.41 Y113.769 E3.18426
G1 X197.098 Y113.967 E3.20807
G1 X197.759 Y114.24 E3.23185
G1 X198.386 Y114.585 E3.25566
G1 X198.97 Y114.997 E3.27943
G1 X199.504 Y115.472 E3.3032
G1 X199.983 Y116.004 E3.32701
G1 X200.398 Y116.586 E3.35078
G1 X200.747 Y117.211 E3.37459
G1 X201.023 Y117.871 E3.39839
G1 X201.224 Y118.557 E3.42216
G1 X201.347 Y119.262 E3.44596
G1 X201.391 Y120.01 E3.47089
G1 X201.391 Y179.991 E5.46586
G1 X201.351 Y180.705 E5.48965
G1 X201.232 Y181.41 E5.51343
G1 X201.034 Y182.098 E5.53724
G1 X200.761 Y182.759 E5.56102
G1 X200.417 Y183.386 E5.58481
G1 X200.004 Y183.97 E5.6086
G1 X199.529 Y184.504 E5.63237
G1 X198.997 Y184.983 E5.65618
G1 X198.415 Y185.398 E5.67996
G1 X197.79 Y185.747 E5.70377
G1 X197.13 Y186.023 E5.72756
G1 X196.444 Y186.224 E5.75133
G1 X195.739 Y186.347 E5.77514
G1 X194.991 Y186.391 E5.80006
G1 X105.009 Y186.391 E8.79287
G1 X104.295 Y186.351 E8.81666
G1 X103.59 Y186.232 E8.84044
G1 X102.902 Y186.034 E8.86425
G1 X102.241 Y185.761 E8.88804
G1 X101.614 Y185.417 E8.91182
G1 X101.03 Y185.004 E8.93561
G1 X100.496 Y184.529 E8.95938
G1 X100.017 Y183.997 E8.98319
G1 X99.602 Y183.415 E9.00697
G1 X99.253 Y182.79 E9.03078
G1 X98.977 Y182.13 E9.05457
G1 X98.776 Y181.444 E9.07835
G1 X98.653 Y180.739 E9.10215
G1 X98.609 Y179.991 E9.12707
G1 X98.609 Y120.009 E11.12208
G1 X98.649 Y119.295 E11.14586
G1 X98.768 Y118.59 E11.16964
G1 X98.966 Y117.902 E11.19346
G1 X99.239 Y117.241 E11.21724
G1 X99.583 Y116.614 E11.24103
G1 X99.996 Y116.03 E11.26482
G1 X100.471 Y115.496 E11.28859
G1 X101.003 Y115.017 E11.3124
M204 S5000
M205 X30 Y30
G0 F3600 X101.393 Y115.221
M204 S500
M205 X20 Y20
G1 F1800 X101.968 Y114.836 E11.33542
G1 X102.585 Y114.521 E11.35846
G1 X103.233 Y114.278 E11.38147
G1 X103.906 Y114.111 E11.40454
G1 X104.592 Y114.023 E11.42754
G1 X105.009 Y114.009 E11.44142
G1 X194.991 Y114.01 E14.43423
G1 X195.682 Y114.05 E14.45725
G1 X196.365 Y114.169 E14.48031
G1 X197.028 Y114.367 E14.50333
G1 X197.665 Y114.639 E14.52636
G1 X198.266 Y114.983 E14.5494
G1 X198.824 Y115.394 E14.57245
G1 X199.33 Y115.866 E14.59546
G1 X199.779 Y116.394 E14.61851
G1 X200.164 Y116.97 E14.64156
G1 X200.479 Y117.586 E14.66457
G1 X200.722 Y118.234 E14.68759
G1 X200.889 Y118.907 E14.71065
G1 X200.977 Y119.594 E14.73369
G1 X200.991 Y120.01 E14.74753
G1 X200.991 Y179.991 E16.74251
G1 X200.951 Y180.682 E16.76553
G1 X200.832 Y181.365 E16.78859
G1 X200.634 Y182.028 E16.8116
G1 X200.362 Y182.665 E16.83464
G1 X200.018 Y183.266 E16.85767
G1 X199.607 Y183.824 E16.88072
G1 X199.135 Y184.33 E16.90373
G1 X198.607 Y184.779 E16.92679
G1 X198.032 Y185.164 E16.9498
G1 X197.415 Y185.479 E16.97284
G1 X196.767 Y185.722 E16.99586
G1 X196.094 Y185.889 E17.01892
G1 X195.408 Y185.977 E17.04193
G1 X194.991 Y185.991 E17.05581
G1 X105.009 Y185.991 E20.04862
G1 X104.318 Y185.951 E20.07164
G1 X103.635 Y185.832 E20.0947
G1 X102.972 Y185.634 E20.11771
G1 X102.335 Y185.362 E20.14075
G1 X101.734 Y185.018 E20.16378
G1 X101.176 Y184.607 E20.18683
G1 X100.67 Y184.135 E20.20985
G1 X100.221 Y183.607 E20.2329
G1 X99.836 Y183.032 E20.25592
G1 X99.521 Y182.415 E20.27896
G1 X99.278 Y181.767 E20.30198
G1 X99.111 Y181.094 E20.32504
G1 X99.023 Y180.408 E20.34804
G1 X99.009 Y179.991 E20.36192
G1 X99.009 Y120.009 E22.35693
G1 X99.049 Y119.318 E22.37995
G1 X99.168 Y118.635 E22.40301
G1 X99.366 Y117.972 E22.42602
G1 X99.638 Y117.335 E22.44906
G1 X99.982 Y116.734 E22.47209
G1 X100.393 Y116.176 E22.49514
G1 X100.865 Y115.67 E22.51816
G1 X101.393 Y115.221 E22.54121
M204 S5000
M205 X30 Y30
G0 F3600 X101.258 Y115.851
M204 S500
M205 X20 Y20
G1 F1800 X101.78 Y115.433 E22.56345
G1 X102.349 Y115.081 E22.58571
G1 X102.956 Y114.799 E22.60797
G1 X103.592 Y114.591 E22.63022
G1 X104.248 Y114.461 E22.65247
G1 X105.009 Y114.409 E22.67784
G1 X194.991 Y114.41 E25.67065
G1 X195.659 Y114.45 E25.69291
G1 X196.317 Y114.569 E25.71515
G1 X196.957 Y114.766 E25.73742
G1 X197.568 Y115.038 E25.75966
G1 X198.142 Y115.381 E25.7819
G1 X198.672 Y115.79 E25.80417
G1 X199.149 Y116.259 E25.82642
G1 X199.567 Y116.782 E25.84869
G1 X199.919 Y117.35 E25.87091
G1 X200.201 Y117.957 E25.89317
G1 X200.409 Y118.593 E25.91543
G1 X200.539 Y119.249 E25.93767
G1 X200.591 Y120.01 E25.96304
G1 X200.591 Y179.991 E27.95802
G1 X200.551 Y180.659 E27.98028
G1 X200.432 Y181.317 E28.00252
G1 X200.235 Y181.957 E28.02479
G1 X199.963 Y182.568 E28.04703
G1 X199.62 Y183.142 E28.06927
G1 X199.211 Y183.672 E28.09154
G1 X198.742 Y184.149 E28.11379
G1 X198.22 Y184.567 E28.13603
G1 X197.651 Y184.919 E28.15829
G1 X197.044 Y185.201 E28.18055
G1 X196.408 Y185.409 E28.2028
G1 X195.752 Y185.539 E28.22505
G1 X194.991 Y185.591 E28.25042
G1 X105.009 Y185.591 E31.24323
G1 X104.341 Y185.551 E31.26549
G1 X103.683 Y185.432 E31.28773
G1 X103.043 Y185.235 E31.31
G1 X102.432 Y184.963 E31.33224
G1 X101.858 Y184.62 E31.35448
G1 X101.328 Y184.211 E31.37675
G1 X100.851 Y183.742 E31.399
G1 X100.433 Y183.22 E31.42124
G1 X100.081 Y182.651 E31.4435
G1 X99.799 Y182.044 E31.46576
G1 X99.591 Y181.408 E31.48801
G1 X99.461 Y180.752 E31.51026
G1 X99.409 Y179.991 E31.53563
G1 X99.409 Y120.009 E33.53063
G1 X99.449 Y119.341 E33.55289
G1 X99.568 Y118.683 E33.57513
G1 X99.765 Y118.043 E33.5974
G1 X100.037 Y117.432 E33.61965
G1 X100.38 Y116.858 E33.64189
G1 X100.789 Y116.328 E33.66416
G1 X101.258 Y115.851 E33.68641
M204 S5000
M205 X30 Y30
G0 F3600 X101.649 Y116.04
M204 S500
M205 X20 Y20
G1 F1800 X102.166 Y115.655 E33.70784
G1 X102.727 Y115.336 E33.72931
G1 X103.323 Y115.09 E33.75075
G1 X103.944 Y114.919 E33.77218
G1 X104.582 Y114.827 E33.79362
G1 X105.009 Y114.809 E33.80783
G1 X194.991 Y114.81 E36.80065
G1 X195.634 Y114.85 E36.82207
G1 X196.268 Y114.969 E36.84353
G1 X196.882 Y115.166 E36.86498
G1 X197.467 Y115.437 E36.88642
G1 X198.014 Y115.779 E36.90788
G1 X198.514 Y116.185 E36.9293
G1 X198.96 Y116.651 E36.95075
G1 X199.345 Y117.167 E36.97216
G1 X199.664 Y117.728 E36.99363
G1 X199.91 Y118.324 E37.01507
G1 X200.081 Y118.945 E37.0365
G1 X200.173 Y119.583 E37.05794
G1 X200.191 Y120.01 E37.07215
G1 X200.191 Y179.991 E39.06713
G1 X200.151 Y180.634 E39.08856
G1 X200.032 Y181.268 E39.11001
G1 X199.835 Y181.882 E39.13146
G1 X199.564 Y182.467 E39.1529
G1 X199.222 Y183.014 E39.17436
G1 X198.816 Y183.514 E39.19578
G1 X198.351 Y183.96 E39.21721
G1 X197.834 Y184.345 E39.23865
G1 X197.273 Y184.664 E39.26011
G1 X196.677 Y184.91 E39.28156
G1 X196.056 Y185.081 E39.30298
G1 X195.418 Y185.173 E39.32442
G1 X194.991 Y185.191 E39.33864
G1 X105.009 Y185.191 E42.33145
G1 X104.366 Y185.151 E42.35288
G1 X103.732 Y185.032 E42.37433
G1 X103.118 Y184.835 E42.39578
G1 X102.533 Y184.564 E42.41722
G1 X101.986 Y184.222 E42.43868
G1 X101.486 Y183.816 E42.4601
G1 X101.04 Y183.351 E42.48153
G1 X100.655 Y182.834 E42.50297
G1 X100.336 Y182.273 E42.52444
G1 X100.09 Y181.677 E42.54588
G1 X99.919 Y181.056 E42.56731
G1 X99.827 Y180.418 E42.58874
G1 X99.809 Y179.991 E42.60296
G1 X99.809 Y120.009 E44.59797
G1 X99.849 Y119.366 E44.6194
G1 X99.968 Y118.732 E44.64085
G1 X100.165 Y118.118 E44.6623
G1 X100.436 Y117.533 E44.68374
G1 X100.778 Y116.986 E44.7052
G1 X101.184 Y116.486 E44.72662
G1 X101.649 Y116.04 E44.74805
M204 S5000
M205 X30 Y30
G1 F2400 E39.74805
G0 F3600 X105.614 Y119.335
G0 X105.614 Y120.614
G0 X109.33 Y128.33
G0 X109.4 Y128.4
M204 S500
M205 X20 Y20
;TYPE:WALL-INNER
G1 F2400 E44.74805
G1 F1800 X109.4 Y144.6 E45.28687
G1 X128.9 Y144.6 E45.93544
G1 X128.9 Y128.4 E46.47425
G1 X109.4 Y128.4 E47.12282
M204 S5000
M205 X30 Y30
G0 F3600 X109.33 Y128.33
G0 X109.33 Y148.33
G0 X109.4 Y148.4
M204 S500
M205 X20 Y20
G1 F1800 X109.4 Y175.6 E48.0275
G1 X156.6 Y175.6 E49.59738
G1 X156.6 Y148.4 E50.50205
G1 X109.4 Y148.4 E52.07193
M204 S5000
M205 X30 Y30
G0 F3600 X109.33 Y148.33
G0 X128.928 Y144.628
G0 X128.931 Y137.86
G0 X131.578 Y134.646
G0 X131.652 Y134.712
M204 S500
M205 X20 Y20
G1 F1800 X131.077 Y135.546 E52.10563
G1 X130.718 Y136.494 E52.13934
G1 X130.596 Y137.5 E52.17305
G1 X130.718 Y138.506 E52.20675
G1 X131.077 Y139.454 E52.24047
G1 X131.652 Y140.288 E52.27416
G1 X132.412 Y140.961 E52.30792
G1 X133.309 Y141.431 E52.34161
G1 X134.293 Y141.674 E52.37532
G1 X135.307 Y141.674 E52.40904
G1 X136.291 Y141.431 E52.44275
G1 X137.188 Y140.961 E52.47643
G1 X137.948 Y140.288 E52.5102
G1 X138.523 Y139.454 E52.54389
G1 X138.882 Y138.506 E52.57761
G1 X139.004 Y137.5 E52.61131
G1 X138.882 Y136.494 E52.64502
G1 X138.523 Y135.546 E52.67873
G1 X137.948 Y134.712 E52.71243
G1 X137.188 Y134.039 E52.74619
G1 X136.291 Y133.569 E52.77987
G1 X135.307 Y133.326 E52.81358
G1 X134.293 Y133.326 E52.84731
G1 X133.309 Y133.569 E52.88102
G1 X132.412 Y134.039 E52.9147
G1 X131.652 Y134.712 E52.94846
M204 S5000
M205 X30 Y30
G0 F3600 X131.578 Y134.646
G0 X132.39 Y134.007
G0 X133.295 Y133.532
G0 X133.857 Y133.394
G0 X170.33 Y127.33
G0 X170.4 Y127.4
M204 S500
M205 X20 Y20
G1 F1800 X170.4 Y175.6 E54.5516
G1 X188.6 Y175.6 E55.15694
G1 X188.6 Y127.4 E56.76008
G1 X170.4 Y127.4 E57.36541
M204 S5000
M205 X30 Y30
G0 F3600 X170.33 Y127.33
G0 X161.448 Y153.249
G0 X160.33 Y168.33
G0 X160.4 Y168.4
M204 S500
M205 X20 Y20
G1 F1800 X160.4 Y175.6 E57.60488
G1 X168.6 Y175.6 E57.87762
G1 X168.6 Y168.4 E58.11709
G1 X166.88 Y168.4 E58.1743
G1 X166.824 Y168.4 E58.17616
G1 X166.439 Y168.4 E58.18897
G1 X166.824 Y168.059 E58.19803
G1 X166.855 Y168.013 E58.19976
G1 X167.249 Y167.443 E58.2228
G1 X167.514 Y166.742 E58.24773
G1 X167.602 Y166.015 E58.27208
G1 X167.509 Y165.244 E58.29791
G1 X167.249 Y164.557 E58.32235
G1 X166.824 Y163.941 E58.34724
G1 X166.264 Y163.445 E58.37212
G1 X165.774 Y163.187 E58.39054
G1 X165.602 Y163.097 E58.39699
G1 X165.558 Y163.087 E58.39849
G1 X165.207 Y163 E58.41052
G1 X165.558 Y162.914 E58.41338
G1 X165.602 Y162.903
G1 X165.774 Y162.813 E58.41836
G1 X166.264 Y162.555 E58.43678
G1 X166.824 Y162.059 E58.46166
G1 X167.249 Y161.443 E58.48656
G1 X167.514 Y160.742 E58.51148
G1 X167.602 Y160.015 E58.53584
G1 X167.509 Y159.244 E58.56167
G1 X167.249 Y158.557 E58.5861
G1 X166.824 Y157.941 E58.61099
G1 X166.264 Y157.445 E58.63587
G1 X165.774 Y157.187 E58.65429
G1 X165.602 Y157.097 E58.66075
G1 X165.558 Y157.087 E58.66225
G1 X165.207 Y157 E58.67427
G1 X165.558 Y156.914 E58.67713
G1 X165.602 Y156.903
G1 X165.774 Y156.813 E58.68212
G1 X166.264 Y156.555 E58.70054
G1 X166.824 Y156.059 E58.72542
G1 X167.249 Y155.443 E58.75031
G1 X167.514 Y154.742 E58.77523
G1 X167.602 Y154.015 E58.79959
G1 X167.509 Y153.244 E58.82542
G1 X167.249 Y152.557 E58.84985
G1 X166.824 Y151.941 E58.87474
G1 X166.264 Y151.445 E58.89962
G1 X165.602 Y151.097 E58.9245
G1 X164.873 Y150.918 E58.94947
G1 X164.127 Y150.918 E58.97428
G1 X163.398 Y151.097 E58.99924
G1 X162.736 Y151.445 E59.02412
G1 X162.176 Y151.941 E59.049
G1 X161.751 Y152.557 E59.07389
G1 X161.486 Y153.258 E59.09882
G1 X161.396 Y154 E59.12368
G1 X161.486 Y154.742 E59.14854
G1 X161.751 Y155.443 E59.17346
G1 X162.176 Y156.059 E59.19836
G1 X162.736 Y156.555 E59.22324
G1 X163.226 Y156.813 E59.24165
G1 X163.398 Y156.903 E59.24811
G1 X163.442 Y156.913 E59.24961
G1 X163.793 Y157 E59.26164
G1 X163.442 Y157.086 E59.2645
G1 X163.398 Y157.097
G1 X163.226 Y157.187 E59.26948
G1 X162.736 Y157.445 E59.2879
G1 X162.176 Y157.941 E59.31278
G1 X161.751 Y158.557 E59.33767
G1 X161.486 Y159.258 E59.3626
G1 X161.396 Y160 E59.38746
G1 X161.486 Y160.742 E59.41232
G1 X161.751 Y161.443 E59.43724
G1 X162.176 Y162.059 E59.46214
G1 X162.736 Y162.555 E59.48702
G1 X163.226 Y162.813 E59.50544
G1 X163.398 Y162.903 E59.51189
G1 X163.442 Y162.913 E59.51339
G1 X163.793 Y163 E59.52542
G1 X163.442 Y163.086 E59.52828
G1 X163.398 Y163.097
G1 X163.226 Y163.187 E59.53326
G1 X162.736 Y163.445 E59.55168
G1 X162.176 Y163.941 E59.57656
G1 X161.751 Y164.557 E59.60145
G1 X161.486 Y165.258 E59.62638
G1 X161.396 Y166 E59.65124
G1 X161.486 Y166.742 E59.6761
G1 X161.751 Y167.443 E59.70103
G1 X162.145 Y168.013 E59.72407
G1 X162.176 Y168.059 E59.72592
G1 X162.561 Y168.4 E59.74302
G1 X162.176 Y168.4 E59.74779
G1 X162.12 Y168.4 E59.74954
G1 X160.4 Y168.4 E59.80674
M204 S5000
M205 X30 Y30
G0 F3600 X160.33 Y168.33
G0 X160.372 Y175.628
G0 X194.33 Y179.33
G0 X194.4 Y179.4
M204 S500
M205 X20 Y20
G1 F1800 X105.6 Y179.4 E62.76024
G1 X105.6 Y120.6 E64.71594
G1 X194.4 Y120.6 E67.66944
G1 X194.4 Y179.4 E69.62514
M204 S5000
M205 X30 Y30
G0 F3600 X194.8 Y179.8
M204 S500
M205 X20 Y20
;TYPE:WALL-OUTER
G1 F1800 X105.2 Y179.8 E72.60524
G1 X105.2 Y120.2 E74.58755
G1 X194.8 Y120.2 E77.56766
G1 X194.8 Y179.8 E79.54996
M204 S5000
M205 X30 Y30
G0 F3600 X194.6 Y179.8
G0 X194.33 Y179.33
G0 X170.372 Y175.628
G0 X170.37 Y173.08
G0 X167.585 Y165.165
G0 X167.118 Y165.34
M204 S500
M205 X20 Y20
G1 F1800 X166.892 Y164.744 E79.57116
G1 X166.522 Y164.208 E79.59282
G1 X166.035 Y163.777 E79.61445
G1 X165.459 Y163.474 E79.6361
G1 X164.825 Y163.318 E79.65782
G1 X164.175 Y163.318 E79.67943
G1 X163.541 Y163.474 E79.70115
G1 X162.965 Y163.777 E79.7228
G1 X162.478 Y164.208 E79.74443
G1 X162.108 Y164.744 E79.76609
G1 X161.877 Y165.354 E79.78778
G1 X161.799 Y166 E79.80943
G1 X161.877 Y166.646 E79.83107
G1 X162.108 Y167.256 E79.85276
G1 X162.478 Y167.792 E79.87443
G1 X162.965 Y168.223 E79.89606
G1 X163.316 Y168.408 E79.90925
G1 X163.541 Y168.526 E79.9177
G1 X164.175 Y168.682 E79.93942
G1 X164.825 Y168.682 E79.96104
G1 X165.459 Y168.526 E79.98275
G1 X165.684 Y168.408 E79.9912
G1 X166.035 Y168.223 E80.0044
G1 X166.522 Y167.792 E80.02603
G1 X166.892 Y167.256 E80.04769
G1 X167.123 Y166.646 E80.06939
G1 X167.199 Y166.015 E80.09053
G1 X167.118 Y165.34 E80.11314
M204 S5000
M205 X30 Y30
G0 F3600 X167.048 Y165.153
G0 X167.515 Y164.977
G0 X167.629 Y160.512
G0 X167.585 Y159.165
G0 X167.118 Y159.34
M204 S500
M205 X20 Y20
G1 F1800 X166.892 Y158.744 E80.13434
G1 X166.522 Y158.208 E80.156
G1 X166.035 Y157.777 E80.17763
G1 X165.459 Y157.474 E80.19928
G1 X164.825 Y157.318 E80.22099
G1 X164.175 Y157.318 E80.24261
G1 X163.541 Y157.474 E80.26433
G1 X162.965 Y157.777 E80.28598
G1 X162.478 Y158.208 E80.30761
G1 X162.108 Y158.744 E80.32927
G1 X161.877 Y159.354 E80.35096
G1 X161.799 Y160 E80.37261
G1 X161.877 Y160.646 E80.39425
G1 X162.108 Y161.256 E80.41594
G1 X162.478 Y161.792 E80.4376
G1 X162.965 Y162.223 E80.45923
G1 X163.541 Y162.526 E80.48088
G1 X164.175 Y162.682 E80.5026
G1 X164.825 Y162.682 E80.52422
G1 X165.459 Y162.526 E80.54593
G1 X166.035 Y162.223 E80.56758
G1 X166.522 Y161.792 E80.58921
G1 X166.892 Y161.256 E80.61087
G1 X167.123 Y160.646 E80.63257
G1 X167.199 Y160.015 E80.65371
G1 X167.118 Y159.34 E80.67632
M204 S5000
M205 X30 Y30
G0 F3600 X167.048 Y159.153
G0 X167.515 Y158.977
G0 X167.629 Y154.512
G0 X167.585 Y153.165
G0 X167.118 Y153.34
M204 S500
M205 X20 Y20
G1 F1800 X166.892 Y152.744 E80.69752
G1 X166.522 Y152.208 E80.71918
G1 X166.035 Y151.777 E80.74081
G1 X165.459 Y151.474 E80.76246
G1 X164.825 Y151.318 E80.78417
G1 X164.175 Y151.318 E80.80579
G1 X163.541 Y151.474 E80.82751
G1 X162.965 Y151.777 E80.84915
G1 X162.478 Y152.208 E80.87078
G1 X162.108 Y152.744 E80.89245
G1 X161.877 Y153.354 E80.91414
G1 X161.799 Y154 E80.93578
G1 X161.877 Y154.646 E80.95743
G1 X162.108 Y155.256 E80.97912
G1 X162.478 Y155.792 E81.00078
G1 X162.965 Y156.223 E81.02241
G1 X163.541 Y156.526 E81.04406
G1 X164.175 Y156.682 E81.06578
G1 X164.825 Y156.682 E81.08739
G1 X165.459 Y156.526 E81.10911
G1 X166.035 Y156.223 E81.13076
G1 X166.522 Y155.792 E81.15239
G1 X166.892 Y155.256 E81.17405
G1 X167.123 Y154.646 E81.19574
G1 X167.199 Y154.015 E81.21688
G1 X167.118 Y153.34 E81.2395
M204 S5000
M205 X30 Y30
G0 F3600 X167.048 Y153.153
G0 X167.515 Y152.977
G0 X167.642 Y154.015
G0 X168.628 Y168.372
G0 X168.628 Y175.628
