;FLAVOR:Marlin
;TIME:1622
;Filament used: 3.1732m
;Layer height: 0.2
;Generated with Cura_SteamEngine 3.4.1
M190 S65
M104 S200
M109 S200
M82 ;absolute extrusion mode
G28 ;Home
G1 Z15.0 F6000 ;Move the platform down 15mm
;Prime the extruder
G92 E0
G1 F200 E3
G92 E0
G92 E0
G1 F2400 E-5
;LAYER_COUNT:63
;LAYER:0
M107
M204 S5000
M205 X30 Y30
G0 F3600 X124.263 Y124.999 Z0.2
M204 S500
M205 X20 Y20
;TYPE:SKIRT
G1 F2400 E0
G1 F4500 X126.524 Y122.863 E0.10345
G1 X127.047 Y122.419 E0.12627
G1 X129.582 Y120.493 E0.23216
G1 X130.155 Y120.105 E0.25518
G1 X132.888 Y118.461 E0.36125
G1 X133.501 Y118.136 E0.38433
G1 X136.406 Y116.793 E0.49078
G1 X137.046 Y116.538 E0.51369
G1 X140.028 Y115.532 E0.61837
G1 X140.69 Y115.347 E0.64123
G1 X143.841 Y114.649 E0.74857
G1 X144.625 Y114.526 E0.77496
G1 X148.395 Y114.171 E0.90091
G1 X149.128 Y114.144 E0.92531
G1 X152.34 Y114.211 E1.03216
G1 X153.019 Y114.262 E1.05481
G1 X156.122 Y114.659 E1.15886
G1 X156.711 Y114.762 E1.17874
G1 X159.309 Y115.345 E1.2673
G1 X159.951 Y115.525 E1.28948
G1 X162.922 Y116.526 E1.39375
G1 X163.558 Y116.779 E1.41652
G1 X166.474 Y118.123 E1.52331
G1 X167.173 Y118.499 E1.54971
G1 X170.417 Y120.515 E1.67674
G1 X171.023 Y120.942 E1.7014
G1 X173.561 Y122.961 E1.80927
G1 X174.068 Y123.411 E1.83181
G1 X176.272 Y125.582 E1.93471
G1 X176.742 Y126.098 E1.95792
G1 X178.79 Y128.611 E2.06575
G1 X179.15 Y129.098 E2.08589
G1 X180.648 Y131.34 E2.17557
G1 X180.986 Y131.907 E2.19753
G1 X182.421 Y134.624 E2.29973
G1 X182.706 Y135.241 E2.32233
G1 X183.889 Y138.205 E2.42848
G1 X184.112 Y138.866 E2.45168
G1 X184.966 Y141.945 E2.55795
G1 X185.114 Y142.618 E2.58087
G1 X185.631 Y145.765 E2.68694
G1 X185.707 Y146.455 E2.71003
G1 X185.881 Y149.648 E2.81639
G1 X185.879 Y150.365 E2.84024
G1 X185.687 Y153.692 E2.95108
G1 X185.611 Y154.377 E2.974
G1 X185.095 Y157.466 E3.07816
G1 X184.948 Y158.127 E3.10069
G1 X184.113 Y161.129 E3.20432
G1 X183.886 Y161.8 E3.22788
G1 X182.648 Y164.881 E3.33832
G1 X182.35 Y165.518 E3.36171
G1 X180.832 Y168.351 E3.46861
G1 X180.473 Y168.942 E3.49161
G1 X178.692 Y171.545 E3.59651
G1 X178.285 Y172.078 E3.61882
G1 X176.307 Y174.403 E3.72035
G1 X175.825 Y174.91 E3.74361
G1 X173.399 Y177.2 E3.85457
G1 X172.86 Y177.655 E3.87803
G1 X170.311 Y179.578 E3.98423
G1 X169.738 Y179.964 E4.00721
G1 X167.003 Y181.597 E4.11316
G1 X166.383 Y181.923 E4.13646
G1 X163.439 Y183.269 E4.24413
G1 X162.809 Y183.517 E4.26664
G1 X159.901 Y184.49 E4.36864
G1 X159.245 Y184.671 E4.39127
G1 X156.15 Y185.352 E4.49667
G1 X155.375 Y185.474 E4.52277
G1 X151.606 Y185.829 E4.64868
G1 X150.873 Y185.856 E4.67307
G1 X147.66 Y185.789 E4.77996
G1 X146.981 Y185.738 E4.80261
G1 X143.878 Y185.341 E4.90666
G1 X143.289 Y185.238 E4.92654
G1 X140.691 Y184.655 E5.0151
G1 X140.049 Y184.475 E5.03728
G1 X137.078 Y183.474 E5.14155
G1 X136.353 Y183.179 E5.16759
G1 X132.895 Y181.52 E5.29515
G1 X132.332 Y181.215 E5.31645
G1 X130.037 Y179.816 E5.40584
G1 X129.478 Y179.433 E5.42838
G1 X126.95 Y177.498 E5.53427
G1 X126.418 Y177.042 E5.55757
G1 X124.063 Y174.791 E5.66593
G1 X123.592 Y174.291 E5.68877
G1 X121.579 Y171.904 E5.79263
G1 X121.169 Y171.361 E5.81526
G1 X119.42 Y168.772 E5.91918
G1 X119.068 Y168.186 E5.94191
G1 X117.583 Y165.384 E6.04739
G1 X117.304 Y164.784 E6.06939
G1 X116.357 Y162.439 E6.15351
G1 X116.148 Y161.838 E6.17467
G1 X115.037 Y158.039 E6.30632
G1 X114.86 Y157.254 E6.33309
G1 X114.352 Y154.078 E6.44006
G1 X114.281 Y153.402 E6.46267
G1 X114.119 Y150.311 E6.56562
G1 X114.12 Y149.627 E6.58837
G1 X114.293 Y146.461 E6.69383
G1 X114.382 Y145.69 E6.71964
G1 X115.037 Y142.006 E6.84409
G1 X115.184 Y141.367 E6.8659
G1 X115.953 Y138.676 E6.95899
G1 X116.167 Y138.053 E6.9809
G1 X117.298 Y135.232 E7.08198
G1 X117.582 Y134.618 E7.10448
G1 X119.063 Y131.822 E7.20972
G1 X119.404 Y131.252 E7.23181
G1 X120.805 Y129.164 E7.31544
G1 X121.015 Y128.87 E7.32746
G1 X121.83 Y127.792 E7.37241
G1 X122.085 Y127.476 E7.38591
G1 X123.808 Y125.475 E7.47374
G1 X124.263 Y124.999 E7.49564
M204 S5000
M205 X30 Y30
G0 F3600 X124.538 Y125.29
M204 S500
M205 X20 Y20
G1 F4500 X126.799 Y123.154 E7.59909
G1 X127.289 Y122.737 E7.62049
G1 X129.824 Y120.811 E7.72638
G1 X130.361 Y120.448 E7.74794
G1 X133.094 Y118.804 E7.85402
G1 X133.669 Y118.499 E7.87567
G1 X136.574 Y117.156 E7.98211
G1 X137.174 Y116.917 E8.0036
G1 X140.156 Y115.911 E8.10827
G1 X140.776 Y115.738 E8.12968
G1 X143.927 Y115.04 E8.23702
G1 X144.663 Y114.924 E8.2618
G1 X148.433 Y114.569 E8.38775
G1 X149.12 Y114.544 E8.41061
G1 X152.332 Y114.611 E8.51747
G1 X152.968 Y114.659 E8.53868
G1 X156.071 Y115.056 E8.64273
G1 X156.624 Y115.153 E8.6614
G1 X159.222 Y115.736 E8.74996
G1 X159.824 Y115.904 E8.77075
G1 X162.795 Y116.905 E8.87502
G1 X163.391 Y117.142 E8.89636
G1 X166.307 Y118.486 E9.00315
G1 X166.962 Y118.839 E9.0279
G1 X170.206 Y120.855 E9.15493
G1 X170.774 Y121.256 E9.17805
G1 X173.312 Y123.275 E9.28592
G1 X173.788 Y123.695 E9.30703
G1 X175.992 Y125.866 E9.40993
G1 X176.432 Y126.351 E9.43171
G1 X178.48 Y128.864 E9.53953
G1 X178.818 Y129.321 E9.55844
G1 X180.316 Y131.563 E9.64812
G1 X180.632 Y132.094 E9.66867
G1 X182.067 Y134.811 E9.77087
G1 X182.335 Y135.389 E9.79206
G1 X183.518 Y138.353 E9.89821
G1 X183.727 Y138.973 E9.91997
G1 X184.581 Y142.052 E10.02624
G1 X184.72 Y142.683 E10.04773
G1 X185.237 Y145.83 E10.15381
G1 X185.307 Y146.477 E10.17545
G1 X185.481 Y149.67 E10.28181
G1 X185.48 Y150.342 E10.30416
G1 X185.288 Y153.669 E10.415
G1 X185.216 Y154.312 E10.43652
G1 X184.7 Y157.401 E10.54068
G1 X184.563 Y158.02 E10.56177
G1 X183.728 Y161.022 E10.66541
G1 X183.514 Y161.651 E10.68751
G1 X182.276 Y164.732 E10.79794
G1 X181.998 Y165.329 E10.81985
G1 X180.48 Y168.162 E10.92675
G1 X180.143 Y168.716 E10.94831
G1 X178.362 Y171.319 E11.05322
G1 X177.98 Y171.819 E11.07414
G1 X176.002 Y174.144 E11.17567
G1 X175.551 Y174.619 E11.19746
G1 X173.125 Y176.909 E11.30842
G1 X172.62 Y177.336 E11.33041
G1 X170.071 Y179.259 E11.43661
G1 X169.533 Y179.621 E11.45818
G1 X166.798 Y181.254 E11.56413
G1 X166.217 Y181.559 E11.58595
G1 X163.273 Y182.905 E11.69362
G1 X162.682 Y183.138 E11.71475
G1 X159.774 Y184.111 E11.81674
G1 X159.159 Y184.281 E11.83796
G1 X156.064 Y184.962 E11.94337
G1 X155.338 Y185.076 E11.96781
G1 X151.569 Y185.431 E12.09372
G1 X150.881 Y185.456 E12.11662
G1 X147.668 Y185.389 E12.22351
G1 X147.032 Y185.341 E12.24472
G1 X143.929 Y184.944 E12.34877
G1 X143.376 Y184.847 E12.36744
G1 X140.778 Y184.264 E12.456
G1 X140.176 Y184.096 E12.47679
G1 X137.205 Y183.095 E12.58106
G1 X136.526 Y182.819 E12.60544
G1 X133.068 Y181.16 E12.733
G1 X132.54 Y180.873 E12.75299
G1 X130.245 Y179.474 E12.84239
G1 X129.721 Y179.115 E12.86351
G1 X127.193 Y177.18 E12.9694
G1 X126.694 Y176.753 E12.99124
G1 X124.339 Y174.502 E13.0996
G1 X123.898 Y174.033 E13.12101
G1 X121.885 Y171.646 E13.22486
G1 X121.5 Y171.137 E13.24609
G1 X119.751 Y168.548 E13.35001
G1 X119.422 Y167.999 E13.3713
G1 X117.937 Y165.197 E13.47677
G1 X117.675 Y164.634 E13.49742
G1 X116.728 Y162.289 E13.58154
G1 X116.532 Y161.726 E13.60137
G1 X115.421 Y157.927 E13.73301
G1 X115.255 Y157.191 E13.75811
G1 X114.747 Y154.015 E13.86509
G1 X114.68 Y153.381 E13.88629
G1 X114.518 Y150.29 E13.98924
G1 X114.519 Y149.649 E14.01056
G1 X114.692 Y146.483 E14.11602
G1 X114.776 Y145.76 E14.14023
G1 X115.431 Y142.076 E14.26468
G1 X115.569 Y141.477 E14.28512
G1 X116.338 Y138.786 E14.37821
G1 X116.538 Y138.202 E14.39874
G1 X117.669 Y135.381 E14.49983
G1 X117.936 Y134.806 E14.52091
G1 X119.417 Y132.01 E14.62615
G1 X119.737 Y131.475 E14.64688
G1 X121.138 Y129.387 E14.73051
G1 X121.334 Y129.112 E14.74175
G1 X122.149 Y128.034 E14.78669
G1 X122.388 Y127.737 E14.79937
G1 X124.111 Y125.736 E14.8872
G1 X124.538 Y125.29 E14.90774
M204 S5000
M205 X30 Y30
G0 F3600 X124.812 Y125.58
M204 S500
M205 X20 Y20
G1 F4500 X127.073 Y123.444 E15.01119
G1 X127.531 Y123.056 E15.03115
G1 X130.066 Y121.13 E15.13704
G1 X130.567 Y120.79 E15.15718
G1 X133.3 Y119.146 E15.26326
G1 X133.837 Y118.862 E15.28346
G1 X136.742 Y117.519 E15.38991
G1 X137.302 Y117.296 E15.40996
G1 X140.284 Y116.29 E15.51463
G1 X140.863 Y116.129 E15.53462
G1 X144.014 Y115.431 E15.64196
G1 X144.7 Y115.323 E15.66506
G1 X148.47 Y114.968 E15.79101
G1 X149.112 Y114.944 E15.81237
G1 X152.324 Y115.011 E15.91923
G1 X152.918 Y115.055 E15.93904
G1 X156.021 Y115.452 E16.04309
G1 X156.536 Y115.543 E16.06048
G1 X159.134 Y116.126 E16.14904
G1 X159.696 Y116.283 E16.16845
G1 X162.667 Y117.284 E16.27272
G1 X163.223 Y117.505 E16.29262
G1 X166.139 Y118.849 E16.39941
G1 X166.751 Y119.179 E16.42254
G1 X169.995 Y121.195 E16.54957
G1 X170.525 Y121.569 E16.57115
G1 X173.063 Y123.588 E16.67901
G1 X173.507 Y123.98 E16.69871
G1 X175.711 Y126.151 E16.80161
G1 X176.122 Y126.603 E16.82193
G1 X178.17 Y129.116 E16.92975
G1 X178.485 Y129.543 E16.9474
G1 X179.983 Y131.785 E17.03708
G1 X180.279 Y132.281 E17.0563
G1 X181.714 Y134.998 E17.15849
G1 X181.963 Y135.537 E17.17824
G1 X183.146 Y138.501 E17.28439
G1 X183.341 Y139.08 E17.30471
G1 X184.195 Y142.159 E17.41098
G1 X184.325 Y142.748 E17.43104
G1 X184.842 Y145.895 E17.53712
G1 X184.908 Y146.498 E17.55729
G1 X185.082 Y149.691 E17.66365
G1 X185.081 Y150.319 E17.68454
G1 X184.889 Y153.646 E17.79538
G1 X184.821 Y154.246 E17.81546
G1 X184.305 Y157.335 E17.91962
G1 X184.177 Y157.913 E17.93931
G1 X183.342 Y160.915 E18.04295
G1 X183.143 Y161.502 E18.06357
G1 X181.905 Y164.583 E18.174
G1 X181.645 Y165.14 E18.19445
G1 X180.127 Y167.973 E18.30135
G1 X179.813 Y168.49 E18.32147
G1 X178.032 Y171.093 E18.42637
G1 X177.675 Y171.56 E18.44592
G1 X175.697 Y173.885 E18.54745
G1 X175.276 Y174.328 E18.56778
G1 X172.85 Y176.618 E18.67873
G1 X172.379 Y177.017 E18.69927
G1 X169.83 Y178.94 E18.80547
G1 X169.328 Y179.277 E18.82558
G1 X166.593 Y180.91 E18.93152
G1 X166.05 Y181.195 E18.95192
G1 X163.106 Y182.541 E19.05959
G1 X162.555 Y182.759 E19.0793
G1 X159.647 Y183.732 E19.18129
G1 X159.073 Y183.89 E19.20109
G1 X155.978 Y184.571 E19.30649
G1 X155.3 Y184.677 E19.32931
G1 X151.531 Y185.032 E19.45523
G1 X150.889 Y185.056 E19.47659
G1 X147.676 Y184.989 E19.58348
G1 X147.082 Y184.945 E19.60329
G1 X143.979 Y184.548 E19.70734
G1 X143.464 Y184.457 E19.72474
G1 X140.866 Y183.874 E19.81329
G1 X140.304 Y183.717 E19.8327
G1 X137.333 Y182.716 E19.93698
G1 X136.699 Y182.458 E19.95974
G1 X133.241 Y180.799 E20.08731
G1 X132.748 Y180.532 E20.10595
G1 X130.453 Y179.133 E20.19535
G1 X129.964 Y178.798 E20.21507
G1 X127.436 Y176.863 E20.32095
G1 X126.971 Y176.464 E20.34133
G1 X124.616 Y174.213 E20.44968
G1 X124.204 Y173.775 E20.46968
G1 X122.191 Y171.388 E20.57354
G1 X121.832 Y170.913 E20.59334
G1 X120.083 Y168.324 E20.69726
G1 X119.775 Y167.811 E20.71716
G1 X118.29 Y165.009 E20.82263
G1 X118.045 Y164.484 E20.8419
G1 X117.098 Y162.139 E20.92602
G1 X116.916 Y161.614 E20.9445
G1 X115.805 Y157.815 E21.07615
G1 X115.65 Y157.127 E21.0996
G1 X115.142 Y153.951 E21.20658
G1 X115.08 Y153.36 E21.22635
G1 X114.918 Y150.269 E21.32929
G1 X114.918 Y149.67 E21.34922
G1 X115.091 Y146.504 E21.45468
G1 X115.169 Y145.83 E21.47724
G1 X115.824 Y142.146 E21.60169
G1 X115.954 Y141.587 E21.62078
G1 X116.723 Y138.896 E21.71387
G1 X116.909 Y138.351 E21.73302
G1 X118.04 Y135.53 E21.83411
G1 X118.289 Y134.993 E21.8538
G1 X119.77 Y132.197 E21.95903
G1 X120.069 Y131.698 E21.97838
G1 X121.47 Y129.61 E22.06201
G1 X121.653 Y129.353 E22.0725
G1 X122.468 Y128.275 E22.11745
G1 X122.691 Y127.998 E22.12928
G1 X124.414 Y125.997 E22.21711
G1 X124.812 Y125.58 E22.23628
M204 S5000
M205 X30 Y30
G0 F3600 X125.087 Y125.871
M204 S500
M205 X20 Y20
G1 F4500 X127.348 Y123.735 E22.33973
G1 X127.773 Y123.374 E22.35828
G1 X130.308 Y121.448 E22.46417
G1 X130.774 Y121.133 E22.48288
G1 X133.507 Y119.489 E22.58895
G1 X134.005 Y119.225 E22.6077
G1 X136.91 Y117.882 E22.71415
G1 X137.43 Y117.675 E22.73276
G1 X140.412 Y116.669 E22.83744
G1 X140.949 Y116.519 E22.85598
G1 X144.1 Y115.821 E22.96332
G1 X144.738 Y115.721 E22.9848
G1 X148.508 Y115.366 E23.11075
G1 X149.103 Y115.344 E23.13055
G1 X152.315 Y115.411 E23.23741
G1 X152.867 Y115.452 E23.25582
G1 X155.97 Y115.849 E23.35986
G1 X156.449 Y115.933 E23.37604
G1 X159.047 Y116.516 E23.4646
G1 X159.568 Y116.662 E23.48259
G1 X162.539 Y117.663 E23.58687
G1 X163.056 Y117.868 E23.60537
G1 X165.972 Y119.212 E23.71216
G1 X166.54 Y119.518 E23.73362
G1 X169.784 Y121.534 E23.86065
G1 X170.276 Y121.882 E23.88069
G1 X172.814 Y123.901 E23.98856
G1 X173.226 Y124.265 E24.00685
G1 X175.43 Y126.436 E24.10974
G1 X175.812 Y126.856 E24.12863
G1 X177.86 Y129.369 E24.23645
G1 X178.153 Y129.765 E24.25283
G1 X179.651 Y132.007 E24.34252
G1 X179.925 Y132.467 E24.36032
G1 X181.36 Y135.184 E24.46252
G1 X181.592 Y135.685 E24.48089
G1 X182.775 Y138.649 E24.58703
G1 X182.956 Y139.187 E24.60591
G1 X183.81 Y142.266 E24.71218
G1 X183.93 Y142.813 E24.73081
G1 X184.447 Y145.96 E24.83688
G1 X184.508 Y146.52 E24.85562
G1 X184.682 Y149.713 E24.96198
G1 X184.681 Y150.296 E24.98137
G1 X184.489 Y153.623 E25.09221
G1 X184.427 Y154.18 E25.11085
G1 X183.911 Y157.269 E25.21501
G1 X183.792 Y157.805 E25.23327
G1 X182.957 Y160.807 E25.33691
G1 X182.772 Y161.353 E25.35608
G1 X181.534 Y164.434 E25.46652
G1 X181.292 Y164.951 E25.48551
G1 X179.774 Y167.784 E25.59241
G1 X179.483 Y168.264 E25.61108
G1 X177.702 Y170.867 E25.71598
G1 X177.371 Y171.301 E25.73413
G1 X175.393 Y173.626 E25.83566
G1 X175.001 Y174.037 E25.85455
G1 X172.575 Y176.327 E25.96551
G1 X172.138 Y176.697 E25.98456
G1 X169.589 Y178.62 E26.09076
G1 X169.123 Y178.934 E26.10945
G1 X166.388 Y180.567 E26.21539
G1 X165.884 Y180.831 E26.23432
G1 X162.94 Y182.177 E26.34198
G1 X162.428 Y182.379 E26.36029
G1 X159.52 Y183.352 E26.46228
G1 X158.987 Y183.5 E26.48068
G1 X155.892 Y184.181 E26.58608
G1 X155.263 Y184.279 E26.60726
G1 X151.494 Y184.634 E26.73317
G1 X150.898 Y184.656 E26.753
G1 X147.685 Y184.589 E26.85989
G1 X147.133 Y184.548 E26.8783
G1 X144.03 Y184.151 E26.98235
G1 X143.551 Y184.067 E26.99852
G1 X140.953 Y183.484 E27.08708
G1 X140.432 Y183.338 E27.10508
G1 X137.461 Y182.337 E27.20935
G1 X136.872 Y182.097 E27.23051
G1 X133.414 Y180.438 E27.35807
G1 X132.956 Y180.19 E27.3754
G1 X130.661 Y178.791 E27.46479
G1 X130.207 Y178.48 E27.48309
G1 X127.679 Y176.545 E27.58898
G1 X127.247 Y176.175 E27.6079
G1 X124.892 Y173.924 E27.71625
G1 X124.51 Y173.517 E27.73482
G1 X122.497 Y171.13 E27.83867
G1 X122.163 Y170.689 E27.85707
G1 X120.414 Y168.1 E27.96099
G1 X120.128 Y167.624 E27.97946
G1 X118.643 Y164.822 E28.08493
G1 X118.416 Y164.334 E28.10283
G1 X117.469 Y161.989 E28.18695
G1 X117.3 Y161.502 E28.20409
G1 X116.189 Y157.703 E28.33574
G1 X116.045 Y157.064 E28.35753
G1 X115.537 Y153.888 E28.46451
G1 X115.479 Y153.339 E28.48287
G1 X115.317 Y150.248 E28.58581
G1 X115.318 Y149.692 E28.60431
G1 X115.491 Y146.526 E28.70977
G1 X115.563 Y145.9 E28.73072
G1 X116.218 Y142.216 E28.85518
G1 X116.338 Y141.697 E28.87289
G1 X117.107 Y139.006 E28.96598
G1 X117.28 Y138.5 E28.98377
G1 X118.411 Y135.679 E29.08485
G1 X118.643 Y135.18 E29.10316
G1 X120.124 Y132.384 E29.20839
G1 X120.401 Y131.921 E29.22634
G1 X121.802 Y129.833 E29.30997
G1 X121.972 Y129.594 E29.31972
G1 X122.787 Y128.516 E29.36467
G1 X122.995 Y128.259 E29.37567
G1 X124.718 Y126.258 E29.46349
G1 X125.087 Y125.871 E29.48128
M204 S5000
M205 X30 Y30
G1 F2400 E24.48128
G0 F3600 X128.146 Y129.213
G0 X129.029 Y130.143
G0 X141.282 Y149.313
G0 X141.194 Y149.36
M204 S500
M205 X20 Y20
;TYPE:WALL-INNER
G1 F2400 E29.48128
G1 F4500 X141.006 Y149.095 E29.49209
G1 X140.769 Y148.885 E29.50262
G1 X140.482 Y148.735 E29.51339
G1 X140.164 Y148.655 E29.52429
G1 X139.836 Y148.655 E29.5352
G1 X139.519 Y148.735 E29.54608
G1 X139.23 Y148.885 E29.55691
G1 X138.986 Y149.102 E29.56777
G1 X138.801 Y149.37 E29.5786
G1 X138.685 Y149.676 E29.58948
G1 X138.645 Y150 E29.60034
G1 X138.685 Y150.324 E29.6112
G1 X138.801 Y150.63 E29.62208
G1 X138.986 Y150.898 E29.63292
G1 X139.23 Y151.115 E29.64378
G1 X139.519 Y151.265 E29.65461
G1 X139.836 Y151.345 E29.66548
G1 X140.164 Y151.345 E29.67639
G1 X140.481 Y151.265 E29.68726
G1 X140.77 Y151.115 E29.69809
G1 X141.014 Y150.898 E29.70895
G1 X141.199 Y150.63 E29.71978
G1 X141.315 Y150.324 E29.73067
G1 X141.354 Y150.006 E29.74132
G1 X141.311 Y149.667 E29.75269
G1 X141.194 Y149.36 E29.76362
M204 S5000
M205 X30 Y30
