;FLAVOR:Marlin
;TIME:984
;Filament used: 1.00332m
;Layer height: 0.2
;Generated with Cura_SteamEngine 3.4.1
M190 S65
M104 S210
M109 S210
M82 ;absolute extrusion mode
G28 ;Home
G1 Z15.0 F6000 ;Move the platform down 15mm
;Prime the extruder
G92 E0
G1 F200 E3
G92 E0
G92 E0
G1 F2400 E-5
;LAYER_COUNT:11
;LAYER:0
M107
M204 S5000
M205 X30 Y30
G0 F3600 X129.183 Y129.246 Z0.2
M204 S500
M205 X20 Y20
;TYPE:SKIRT
G1 F2400 E0
G1 F1800 X130.892 Y127.665 E0.07743
G1 X131.45 Y127.205 E0.10149
G1 X133.694 Y125.557 E0.19409
G1 X134.295 Y125.165 E0.21795
G1 X136.404 Y123.954 E0.29884
G1 X136.985 Y123.658 E0.32053
G1 X139.105 Y122.713 E0.39773
G1 X139.732 Y122.473 E0.42006
G1 X142.048 Y121.72 E0.50106
G1 X142.592 Y121.569 E0.51983
G1 X144.439 Y121.144 E0.58287
G1 X145.054 Y121.034 E0.60365
G1 X147.392 Y120.732 E0.68206
G1 X148.046 Y120.681 E0.70388
G1 X150.393 Y120.62 E0.78196
G1 X151.048 Y120.637 E0.80376
G1 X153.423 Y120.819 E0.88298
G1 X154.082 Y120.904 E0.90508
G1 X156.413 Y121.329 E0.98389
G1 X157.116 Y121.498 E1.00794
G1 X159.728 Y122.287 E1.09869
G1 X160.36 Y122.515 E1.12104
G1 X162.448 Y123.394 E1.19639
G1 X163.033 Y123.676 E1.21799
G1 X165.071 Y124.789 E1.29522
G1 X165.621 Y125.127 E1.31669
G1 X167.563 Y126.458 E1.395
G1 X168.061 Y126.836 E1.41579
G1 X169.709 Y128.22 E1.48737
G1 X170.174 Y128.652 E1.50848
G1 X171.818 Y130.337 E1.58678
G1 X172.227 Y130.799 E1.6073
G1 X173.283 Y132.114 E1.6634
G1 X173.587 Y132.524 E1.68037
G1 X174.912 Y134.474 E1.75878
G1 X175.25 Y135.031 E1.78045
G1 X176.38 Y137.124 E1.85957
G1 X176.665 Y137.724 E1.88166
G1 X177.552 Y139.875 E1.95905
G1 X177.706 Y140.29 E1.97377
G1 X178.08 Y141.411 E2.01307
G1 X178.227 Y141.921 E2.03073
G1 X178.78 Y144.191 E2.10843
G1 X178.896 Y144.79 E2.12873
G1 X179.205 Y146.927 E2.20054
G1 X179.265 Y147.576 E2.22222
G1 X179.365 Y149.967 E2.30182
G1 X179.359 Y150.633 E2.32397
G1 X179.211 Y153.005 E2.40301
G1 X179.134 Y153.667 E2.42518
G1 X178.732 Y156.059 E2.50586
G1 X178.591 Y156.699 E2.52765
G1 X177.979 Y158.919 E2.60424
G1 X177.788 Y159.5 E2.62459
G1 X177.029 Y161.489 E2.69539
G1 X176.774 Y162.069 E2.71647
G1 X175.709 Y164.199 E2.79567
G1 X175.385 Y164.773 E2.8176
G1 X174.129 Y166.747 E2.89541
G1 X173.748 Y167.282 E2.91726
G1 X172.267 Y169.154 E2.99665
G1 X171.829 Y169.653 E3.01873
G1 X170.181 Y171.342 E3.09722
G1 X169.702 Y171.785 E3.11892
G1 X167.891 Y173.297 E3.19739
G1 X167.363 Y173.693 E3.21934
G1 X165.384 Y175.025 E3.29868
G1 X164.816 Y175.366 E3.32072
G1 X162.741 Y176.47 E3.39889
G1 X162.151 Y176.746 E3.42056
G1 X159.983 Y177.63 E3.49843
G1 X159.359 Y177.848 E3.52041
G1 X157.065 Y178.517 E3.59989
G1 X156.346 Y178.682 E3.62443
G1 X153.588 Y179.151 E3.71748
G1 X152.888 Y179.231 E3.74091
G1 X150.509 Y179.37 E3.82017
G1 X149.895 Y179.376 E3.84059
G1 X147.748 Y179.295 E3.91205
G1 X147.121 Y179.241 E3.93298
G1 X145.191 Y178.977 E3.99777
G1 X145.153 Y178.975 E3.99904
G1 X145.072 Y178.961 E4.00177
G1 X144.965 Y178.946 E4.00537
G1 X144.966 Y178.942 E4.0055
G1 X144.279 Y178.82 E4.02871
G1 X141.578 Y178.144 E4.12132
G1 X140.927 Y177.943 E4.14398
G1 X138.763 Y177.149 E4.22065
G1 X138.188 Y176.906 E4.24141
G1 X136.187 Y175.941 E4.3153
G1 X135.601 Y175.619 E4.33754
G1 X133.541 Y174.345 E4.4181
G1 X133.001 Y173.971 E4.43994
G1 X131.131 Y172.53 E4.51846
G1 X130.636 Y172.108 E4.5401
G1 X128.94 Y170.502 E4.61779
G1 X128.491 Y170.03 E4.63945
G1 X126.976 Y168.27 E4.71669
G1 X126.595 Y167.783 E4.73726
G1 X125.338 Y166 E4.80982
G1 X124.997 Y165.46 E4.83106
G1 X123.857 Y163.442 E4.90815
G1 X123.535 Y162.789 E4.93236
G1 X122.439 Y160.2 E5.02587
G1 X122.214 Y159.579 E5.04784
G1 X121.576 Y157.496 E5.1203
G1 X121.425 Y156.908 E5.14049
G1 X120.998 Y154.826 E5.21118
G1 X120.893 Y154.107 E5.23534
G1 X120.64 Y151.261 E5.33038
G1 X120.616 Y150.563 E5.35361
G1 X120.664 Y148.222 E5.43148
G1 X120.711 Y147.571 E5.45319
G1 X120.998 Y145.241 E5.53127
G1 X121.103 Y144.632 E5.55183
G1 X121.577 Y142.504 E5.62434
G1 X121.749 Y141.881 E5.64584
G1 X122.493 Y139.637 E5.72447
G1 X122.735 Y139.018 E5.74657
G1 X123.718 Y136.84 E5.82605
G1 X124.018 Y136.256 E5.84789
G1 X125.197 Y134.228 E5.92591
G1 X125.531 Y133.713 E5.94632
G1 X126.765 Y131.994 E6.01671
G1 X127.155 Y131.503 E6.03756
G1 X128.72 Y129.721 E6.11644
G1 X129.183 Y129.246 E6.1385
M204 S5000
M205 X30 Y30
G0 F3600 X129.455 Y129.54
M204 S500
M205 X20 Y20
G1 F1800 X131.164 Y127.959 E6.21594
G1 X131.686 Y127.527 E6.23847
G1 X133.93 Y125.879 E6.33108
G1 X134.494 Y125.512 E6.35346
G1 X136.603 Y124.301 E6.43434
G1 X137.148 Y124.024 E6.45468
G1 X139.268 Y123.079 E6.53188
G1 X139.856 Y122.853 E6.55283
G1 X142.172 Y122.1 E6.63383
G1 X142.682 Y121.959 E6.65143
G1 X144.529 Y121.534 E6.71446
G1 X145.105 Y121.43 E6.73393
G1 X147.443 Y121.128 E6.81234
G1 X148.056 Y121.081 E6.83279
G1 X150.403 Y121.02 E6.91088
G1 X151.017 Y121.036 E6.9313
G1 X153.392 Y121.218 E7.01053
G1 X154.01 Y121.297 E7.03125
G1 X156.341 Y121.722 E7.11006
G1 X157 Y121.881 E7.13261
G1 X159.612 Y122.67 E7.22336
G1 X160.205 Y122.884 E7.24433
G1 X162.293 Y123.763 E7.31968
G1 X162.841 Y124.027 E7.33991
G1 X164.879 Y125.14 E7.41714
G1 X165.395 Y125.457 E7.43728
G1 X167.337 Y126.788 E7.51559
G1 X167.804 Y127.142 E7.53508
G1 X169.452 Y128.526 E7.60666
G1 X169.888 Y128.931 E7.62645
G1 X171.532 Y130.616 E7.70475
G1 X171.915 Y131.049 E7.72398
G1 X172.971 Y132.364 E7.78007
G1 X173.256 Y132.749 E7.796
G1 X174.581 Y134.699 E7.87442
G1 X174.898 Y135.221 E7.89473
G1 X176.028 Y137.314 E7.97384
G1 X176.295 Y137.877 E7.99456
G1 X177.182 Y140.028 E8.07195
G1 X177.327 Y140.416 E8.08573
G1 X177.701 Y141.537 E8.12503
G1 X177.839 Y142.016 E8.14161
G1 X178.392 Y144.286 E8.21932
G1 X178.5 Y144.847 E8.23832
G1 X178.809 Y146.984 E8.31014
G1 X178.866 Y147.592 E8.33045
G1 X178.966 Y149.983 E8.41004
G1 X178.959 Y150.608 E8.43083
G1 X178.811 Y152.98 E8.50988
G1 X178.74 Y153.6 E8.53063
G1 X178.338 Y155.992 E8.61131
G1 X178.205 Y156.593 E8.63178
G1 X177.593 Y158.813 E8.70837
G1 X177.415 Y159.357 E8.72741
G1 X176.656 Y161.346 E8.79822
G1 X176.417 Y161.89 E8.81798
G1 X175.352 Y164.02 E8.89719
G1 X175.047 Y164.558 E8.91776
G1 X173.791 Y166.532 E8.99558
G1 X173.434 Y167.034 E9.01606
G1 X171.953 Y168.906 E9.09546
G1 X171.542 Y169.373 E9.11615
G1 X169.894 Y171.062 E9.19463
G1 X169.445 Y171.478 E9.21499
G1 X167.634 Y172.99 E9.29346
G1 X167.139 Y173.362 E9.31405
G1 X165.16 Y174.694 E9.3934
G1 X164.628 Y175.013 E9.41403
G1 X162.553 Y176.117 E9.4922
G1 X162 Y176.376 E9.51251
G1 X159.832 Y177.26 E9.59039
G1 X159.247 Y177.464 E9.61099
G1 X156.953 Y178.133 E9.69047
G1 X156.279 Y178.288 E9.71347
G1 X153.521 Y178.757 E9.80652
G1 X152.865 Y178.832 E9.82848
G1 X150.486 Y178.971 E9.90774
G1 X149.91 Y178.977 E9.9269
G1 X147.763 Y178.896 E9.99836
G1 X147.176 Y178.845 E10.01796
G1 X145.02 Y178.55 E10.09033
G1 X145.02 Y178.549 E10.09037
G1 X144.868 Y178.533 E10.09545
G1 X144.376 Y178.431 E10.11216
G1 X141.675 Y177.755 E10.20477
G1 X141.065 Y177.568 E10.22599
G1 X138.901 Y176.774 E10.30266
G1 X138.362 Y176.545 E10.32214
G1 X136.361 Y175.58 E10.39602
G1 X135.811 Y175.279 E10.41688
G1 X133.751 Y174.005 E10.49744
G1 X133.245 Y173.655 E10.5179
G1 X131.375 Y172.214 E10.59642
G1 X130.912 Y171.818 E10.61668
G1 X129.216 Y170.212 E10.69437
G1 X128.794 Y169.769 E10.71472
G1 X127.279 Y168.009 E10.79196
G1 X126.922 Y167.552 E10.81125
G1 X125.665 Y165.769 E10.88381
G1 X125.345 Y165.263 E10.90372
G1 X124.205 Y163.245 E10.98081
G1 X123.904 Y162.633 E11.00349
G1 X122.808 Y160.044 E11.097
G1 X122.596 Y159.462 E11.1176
G1 X121.958 Y157.379 E11.19006
G1 X121.817 Y156.827 E11.20901
G1 X121.39 Y154.745 E11.2797
G1 X121.292 Y154.071 E11.30235
G1 X121.039 Y151.225 E11.39738
G1 X121.016 Y150.571 E11.41915
G1 X121.064 Y148.23 E11.49703
G1 X121.108 Y147.619 E11.5174
G1 X121.395 Y145.289 E11.59548
G1 X121.494 Y144.719 E11.61472
G1 X121.968 Y142.591 E11.68724
G1 X122.129 Y142.007 E11.70738
G1 X122.873 Y139.763 E11.78602
G1 X123.099 Y139.183 E11.80672
G1 X124.082 Y137.005 E11.8862
G1 X124.364 Y136.457 E11.90669
G1 X125.543 Y134.429 E11.98472
G1 X125.856 Y133.946 E12.00386
G1 X127.09 Y132.227 E12.07424
G1 X127.456 Y131.767 E12.09379
G1 X129.021 Y129.985 E12.17267
G1 X129.455 Y129.54 E12.19335
M204 S5000
M205 X30 Y30
G0 F3600 X129.726 Y129.833
M204 S500
M205 X20 Y20
G1 F1800 X131.435 Y128.252 E12.27078
G1 X131.923 Y127.849 E12.29183
G1 X134.167 Y126.201 E12.38443
G1 X134.693 Y125.859 E12.4053
G1 X136.802 Y124.648 E12.48619
G1 X137.311 Y124.389 E12.50518
G1 X139.431 Y123.444 E12.58238
G1 X139.979 Y123.233 E12.60191
G1 X142.295 Y122.48 E12.68291
G1 X142.771 Y122.349 E12.69933
G1 X144.618 Y121.924 E12.76237
G1 X145.157 Y121.827 E12.78058
G1 X147.495 Y121.525 E12.85899
G1 X148.067 Y121.481 E12.87807
G1 X150.414 Y121.42 E12.95616
G1 X150.987 Y121.434 E12.97523
G1 X153.362 Y121.616 E13.05445
G1 X153.938 Y121.691 E13.07377
G1 X156.269 Y122.116 E13.15258
G1 X156.884 Y122.264 E13.17362
G1 X159.496 Y123.053 E13.26437
G1 X160.05 Y123.253 E13.28396
G1 X162.138 Y124.132 E13.35931
G1 X162.649 Y124.378 E13.37817
G1 X164.687 Y125.491 E13.45541
G1 X165.169 Y125.787 E13.47422
G1 X167.111 Y127.118 E13.55252
G1 X167.546 Y127.449 E13.5707
G1 X169.194 Y128.833 E13.64228
G1 X169.601 Y129.21 E13.66073
G1 X171.245 Y130.895 E13.73903
G1 X171.603 Y131.3 E13.75701
G1 X172.659 Y132.615 E13.81311
G1 X172.925 Y132.974 E13.82797
G1 X174.25 Y134.924 E13.90638
G1 X174.546 Y135.411 E13.92533
G1 X175.676 Y137.504 E14.00445
G1 X175.925 Y138.029 E14.02377
G1 X176.812 Y140.18 E14.10116
G1 X176.947 Y140.543 E14.11404
G1 X177.321 Y141.664 E14.15334
G1 X177.45 Y142.111 E14.16882
G1 X178.003 Y144.381 E14.24653
G1 X178.104 Y144.905 E14.26428
G1 X178.413 Y147.042 E14.33609
G1 X178.466 Y147.609 E14.35503
G1 X178.566 Y150 E14.43463
G1 X178.56 Y150.583 E14.45402
G1 X178.412 Y152.955 E14.53307
G1 X178.346 Y153.534 E14.55245
G1 X177.944 Y155.926 E14.63312
G1 X177.82 Y156.486 E14.6522
G1 X177.208 Y158.706 E14.72879
G1 X177.041 Y159.215 E14.74661
G1 X176.282 Y161.204 E14.81742
G1 X176.059 Y161.711 E14.83584
G1 X174.994 Y163.841 E14.91504
G1 X174.71 Y164.343 E14.93423
G1 X173.454 Y166.317 E15.01205
G1 X173.121 Y166.785 E15.03115
G1 X171.64 Y168.657 E15.11054
G1 X171.256 Y169.094 E15.12989
G1 X169.608 Y170.783 E15.20838
G1 X169.189 Y171.171 E15.22737
G1 X167.378 Y172.683 E15.30584
G1 X166.916 Y173.03 E15.32506
G1 X164.937 Y174.362 E15.4044
G1 X164.44 Y174.66 E15.42367
G1 X162.365 Y175.764 E15.50185
G1 X161.849 Y176.005 E15.52079
G1 X159.681 Y176.889 E15.59866
G1 X159.135 Y177.08 E15.6179
G1 X156.841 Y177.749 E15.69738
G1 X156.212 Y177.894 E15.71885
G1 X153.454 Y178.363 E15.8119
G1 X152.842 Y178.432 E15.83238
G1 X150.463 Y178.571 E15.91164
G1 X149.925 Y178.577 E15.92954
G1 X147.778 Y178.496 E16.001
G1 X147.23 Y178.448 E16.01929
G1 X145.288 Y178.182 E16.08449
G1 X145.258 Y178.181 E16.08548
G1 X145.186 Y178.168 E16.08792
G1 X145.074 Y178.153 E16.09168
G1 X145.075 Y178.149 E16.09181
G1 X144.473 Y178.043 E16.11214
G1 X141.772 Y177.367 E16.20475
G1 X141.203 Y177.192 E16.22455
G1 X139.039 Y176.398 E16.30122
G1 X138.535 Y176.185 E16.31942
G1 X136.534 Y175.22 E16.3933
G1 X136.021 Y174.939 E16.41276
G1 X133.961 Y173.665 E16.49332
G1 X133.489 Y173.338 E16.51242
G1 X131.619 Y171.897 E16.59094
G1 X131.187 Y171.527 E16.60986
G1 X129.491 Y169.921 E16.68754
G1 X129.097 Y169.508 E16.70653
G1 X127.582 Y167.748 E16.78377
G1 X127.249 Y167.322 E16.80175
G1 X125.992 Y165.539 E16.87431
G1 X125.693 Y165.066 E16.89292
G1 X124.553 Y163.048 E16.97001
G1 X124.272 Y162.477 E16.99118
G1 X123.176 Y159.888 E17.08468
G1 X122.979 Y159.345 E17.1039
G1 X122.341 Y157.262 E17.17635
G1 X122.209 Y156.747 E17.19404
G1 X121.782 Y154.665 E17.26473
G1 X121.69 Y154.036 E17.28587
G1 X121.437 Y151.19 E17.3809
G1 X121.416 Y150.579 E17.40123
G1 X121.464 Y148.238 E17.47911
G1 X121.505 Y147.668 E17.49812
G1 X121.792 Y145.338 E17.5762
G1 X121.884 Y144.805 E17.59419
G1 X122.358 Y142.677 E17.6667
G1 X122.509 Y142.133 E17.68548
G1 X123.253 Y139.889 E17.76411
G1 X123.464 Y139.347 E17.78346
G1 X124.447 Y137.169 E17.86293
G1 X124.71 Y136.658 E17.88205
G1 X125.889 Y134.63 E17.96007
G1 X126.181 Y134.179 E17.97794
G1 X127.415 Y132.46 E18.04832
G1 X127.756 Y132.031 E18.06655
G1 X129.321 Y130.249 E18.14543
G1 X129.726 Y129.833 E18.16474
M204 S5000
M205 X30 Y30
G0 F3600 X129.998 Y130.127
M204 S500
M205 X20 Y20
G1 F1800 X131.707 Y128.546 E18.24217
G1 X132.16 Y128.172 E18.26171
G1 X134.404 Y126.524 E18.35431
G1 X134.893 Y126.206 E18.37371
G1 X137.002 Y124.995 E18.4546
G1 X137.474 Y124.754 E18.47223
G1 X139.594 Y123.809 E18.54943
G1 X140.103 Y123.614 E18.56756
G1 X142.419 Y122.861 E18.64856
G1 X142.861 Y122.738 E18.66382
G1 X144.708 Y122.313 E18.72685
G1 X145.208 Y122.224 E18.74374
G1 X147.546 Y121.922 E18.82215
G1 X148.077 Y121.881 E18.83987
G1 X150.424 Y121.82 E18.91795
G1 X150.956 Y121.833 E18.93565
G1 X153.331 Y122.015 E19.01488
G1 X153.867 Y122.084 E19.03285
G1 X156.198 Y122.509 E19.11166
G1 X156.769 Y122.647 E19.1312
G1 X159.381 Y123.436 E19.22195
G1 X159.895 Y123.621 E19.24012
G1 X161.983 Y124.5 E19.31547
G1 X162.457 Y124.729 E19.33298
G1 X164.495 Y125.842 E19.41021
G1 X164.943 Y126.117 E19.4277
G1 X166.885 Y127.448 E19.506
G1 X167.289 Y127.755 E19.52288
G1 X168.937 Y129.139 E19.59446
G1 X169.315 Y129.49 E19.61161
G1 X170.959 Y131.175 E19.68991
G1 X171.291 Y131.55 E19.70657
G1 X172.347 Y132.865 E19.76266
G1 X172.594 Y133.198 E19.77645
G1 X173.919 Y135.148 E19.85487
G1 X174.194 Y135.601 E19.87249
G1 X175.324 Y137.694 E19.9516
G1 X175.555 Y138.182 E19.96956
G1 X176.442 Y140.333 E20.04695
G1 X176.568 Y140.669 E20.05888
G1 X176.942 Y141.79 E20.09819
G1 X177.061 Y142.205 E20.11255
G1 X177.614 Y144.475 E20.19026
G1 X177.708 Y144.962 E20.20675
G1 X178.017 Y147.099 E20.27857
G1 X178.066 Y147.626 E20.29617
G1 X178.166 Y150.017 E20.37577
G1 X178.161 Y150.558 E20.39376
G1 X178.013 Y152.93 E20.47281
G1 X177.951 Y153.468 E20.49082
G1 X177.549 Y155.86 E20.5715
G1 X177.434 Y156.38 E20.58921
G1 X176.822 Y158.6 E20.6658
G1 X176.667 Y159.072 E20.68232
G1 X175.908 Y161.061 E20.75313
G1 X175.701 Y161.533 E20.77027
G1 X174.636 Y163.663 E20.84948
G1 X174.372 Y164.128 E20.86726
G1 X173.116 Y166.102 E20.94508
G1 X172.807 Y166.537 E20.96283
G1 X171.326 Y168.409 E21.04222
G1 X170.97 Y168.815 E21.06018
G1 X169.322 Y170.504 E21.13867
G1 X168.933 Y170.864 E21.1563
G1 X167.122 Y172.376 E21.23476
G1 X166.693 Y172.698 E21.25261
G1 X164.714 Y174.03 E21.33195
G1 X164.252 Y174.307 E21.34986
G1 X162.177 Y175.411 E21.42804
G1 X161.698 Y175.635 E21.44563
G1 X159.53 Y176.519 E21.5235
G1 X159.023 Y176.696 E21.54136
G1 X156.729 Y177.365 E21.62084
G1 X156.145 Y177.499 E21.64077
G1 X153.387 Y177.968 E21.73381
G1 X152.818 Y178.033 E21.75286
G1 X150.439 Y178.172 E21.83212
G1 X149.94 Y178.177 E21.84872
G1 X147.793 Y178.096 E21.92018
G1 X147.284 Y178.052 E21.93717
G1 X145.128 Y177.757 E22.00955
G1 X145.128 Y177.756 E22.00958
G1 X144.974 Y177.74 E22.01473
G1 X144.57 Y177.655 E22.02846
G1 X141.869 Y176.979 E22.12107
G1 X141.341 Y176.817 E22.13944
G1 X139.177 Y176.023 E22.21611
G1 X138.709 Y175.825 E22.23301
G1 X136.708 Y174.86 E22.3069
G1 X136.232 Y174.599 E22.32495
G1 X134.172 Y173.325 E22.40551
G1 X133.733 Y173.021 E22.42327
G1 X131.863 Y171.58 E22.50179
G1 X131.462 Y171.237 E22.51934
G1 X129.766 Y169.631 E22.59703
G1 X129.4 Y169.247 E22.61468
G1 X127.885 Y167.487 E22.69191
G1 X127.576 Y167.091 E22.70862
G1 X126.319 Y165.308 E22.78118
G1 X126.041 Y164.87 E22.79843
G1 X124.901 Y162.852 E22.87552
G1 X124.64 Y162.321 E22.8952
G1 X123.544 Y159.732 E22.98871
G1 X123.361 Y159.228 E23.00654
G1 X122.723 Y157.145 E23.079
G1 X122.601 Y156.667 E23.09541
G1 X122.174 Y154.585 E23.1661
G1 X122.088 Y154 E23.18576
G1 X121.835 Y151.154 E23.2808
G1 X121.816 Y150.587 E23.29966
G1 X121.864 Y148.246 E23.37754
G1 X121.902 Y147.717 E23.39518
G1 X122.189 Y145.387 E23.47326
G1 X122.274 Y144.892 E23.48997
G1 X122.748 Y142.764 E23.56248
G1 X122.888 Y142.259 E23.57991
G1 X123.632 Y140.015 E23.65854
G1 X123.828 Y139.512 E23.6765
G1 X124.811 Y137.334 E23.75597
G1 X125.055 Y136.859 E23.77374
G1 X126.234 Y134.831 E23.85176
G1 X126.506 Y134.413 E23.86834
G1 X127.74 Y132.694 E23.93873
G1 X128.057 Y132.295 E23.95567
G1 X129.622 Y130.513 E24.03456
