;FLAVOR:Marlin
;TIME:1932
;Filament used: 1.3977m
;Layer height: 0.2
;Generated with Cura_SteamEngine 3.4.1
M190 S65
M104 S210
M109 S210
M82 ;absolute extrusion mode
G28 ;Home
G1 Z15.0 F6000 ;Move the platform down 15mm
;Prime the extruder
G92 E0
G1 F200 E3
G92 E0
G92 E0
G1 F2400 E-5
;LAYER_COUNT:151
;LAYER:0
M107
M204 S5000
M205 X30 Y30
G0 F3600 X122.97 Y135.495 Z0.2
M204 S500
M205 X20 Y20
;TYPE:SKIRT
G1 F2400 E0
G1 F1800 X123.502 Y135.016 E0.02381
G1 X124.084 Y134.601 E0.04758
G1 X124.709 Y134.252 E0.07139
G1 X125.369 Y133.976 E0.09519
G1 X126.055 Y133.775 E0.11896
G1 X126.76 Y133.652 E0.14277
G1 X127.508 Y133.608 E0.16769
G1 X172.492 Y133.609 E1.66386
G1 X173.206 Y133.649 E1.68765
G1 X173.912 Y133.768 E1.71146
G1 X174.599 Y133.966 E1.73524
G1 X175.26 Y134.239 E1.75902
G1 X175.887 Y134.584 E1.78283
G1 X176.471 Y134.996 E1.8066
G1 X177.005 Y135.472 E1.83039
G1 X177.484 Y136.004 E1.8542
G1 X177.899 Y136.586 E1.87798
G1 X178.248 Y137.21 E1.90176
G1 X178.524 Y137.87 E1.92555
G1 X178.725 Y138.556 E1.94933
G1 X178.848 Y139.261 E1.97313
G1 X178.892 Y140.009 E1.99805
G1 X178.892 Y159.99 E2.66262
G1 X178.852 Y160.704 E2.6864
G1 X178.733 Y161.409 E2.71019
G1 X178.535 Y162.097 E2.734
G1 X178.262 Y162.758 E2.75778
G1 X177.918 Y163.385 E2.78157
G1 X177.505 Y163.969 E2.80536
G1 X177.03 Y164.503 E2.82913
G1 X176.498 Y164.982 E2.85294
G1 X175.916 Y165.397 E2.87671
G1 X175.291 Y165.746 E2.90052
G1 X174.631 Y166.022 E2.92432
G1 X173.945 Y166.223 E2.94809
G1 X173.24 Y166.346 E2.9719
G1 X172.492 Y166.39 E2.99682
G1 X127.508 Y166.39 E4.49299
G1 X126.794 Y166.35 E4.51678
G1 X126.089 Y166.231 E4.54056
G1 X125.401 Y166.033 E4.56437
G1 X124.74 Y165.76 E4.58815
G1 X124.113 Y165.416 E4.61194
G1 X123.529 Y165.003 E4.63573
G1 X122.995 Y164.528 E4.6595
G1 X122.516 Y163.996 E4.68331
G1 X122.101 Y163.414 E4.70709
G1 X121.752 Y162.789 E4.7309
G1 X121.476 Y162.129 E4.75469
G1 X121.275 Y161.443 E4.77846
G1 X121.152 Y160.738 E4.80227
G1 X121.108 Y159.99 E4.82719
G1 X121.108 Y140.008 E5.49179
G1 X121.148 Y139.294 E5.51558
G1 X121.267 Y138.589 E5.53936
G1 X121.465 Y137.901 E5.56317
G1 X121.738 Y137.24 E5.58696
G1 X122.082 Y136.613 E5.61074
G1 X122.495 Y136.029 E5.63453
G1 X122.97 Y135.495 E5.6583
M204 S5000
M205 X30 Y30
G0 F3600 X123.364 Y135.669
M204 S500
M205 X20 Y20
G1 F1800 X123.892 Y135.22 E5.68136
G1 X124.467 Y134.835 E5.70437
G1 X125.084 Y134.52 E5.72741
G1 X125.732 Y134.277 E5.75043
G1 X126.405 Y134.11 E5.77349
G1 X127.091 Y134.022 E5.7965
G1 X127.508 Y134.008 E5.81037
G1 X172.492 Y134.009 E7.30655
G1 X173.184 Y134.049 E7.3296
G1 X173.866 Y134.168 E7.35263
G1 X174.53 Y134.366 E7.37568
G1 X175.166 Y134.638 E7.39868
G1 X175.767 Y134.982 E7.42171
G1 X176.325 Y135.393 E7.44476
G1 X176.831 Y135.865 E7.46778
G1 X177.28 Y136.393 E7.49083
G1 X177.665 Y136.969 E7.51387
G1 X177.98 Y137.585 E7.53689
G1 X178.223 Y138.233 E7.5599
G1 X178.39 Y138.906 E7.58297
G1 X178.478 Y139.593 E7.606
G1 X178.492 Y140.009 E7.61985
G1 X178.492 Y159.99 E8.28442
G1 X178.452 Y160.681 E8.30744
G1 X178.333 Y161.364 E8.3305
G1 X178.135 Y162.027 E8.35351
G1 X177.863 Y162.664 E8.37655
G1 X177.519 Y163.265 E8.39958
G1 X177.108 Y163.823 E8.42263
G1 X176.636 Y164.329 E8.44565
G1 X176.108 Y164.778 E8.4687
G1 X175.533 Y165.163 E8.49172
G1 X174.916 Y165.478 E8.51476
G1 X174.268 Y165.721 E8.53778
G1 X173.595 Y165.888 E8.56084
G1 X172.909 Y165.976 E8.58384
G1 X172.492 Y165.99 E8.59772
G1 X127.508 Y165.99 E10.09389
G1 X126.817 Y165.95 E10.11691
G1 X126.134 Y165.831 E10.13997
G1 X125.471 Y165.633 E10.16299
G1 X124.834 Y165.361 E10.18602
G1 X124.233 Y165.017 E10.20906
G1 X123.675 Y164.606 E10.23211
G1 X123.169 Y164.134 E10.25512
G1 X122.72 Y163.606 E10.27817
G1 X122.335 Y163.031 E10.30119
G1 X122.02 Y162.414 E10.32423
G1 X121.777 Y161.766 E10.34725
G1 X121.61 Y161.093 E10.37031
G1 X121.522 Y160.407 E10.39332
G1 X121.508 Y159.99 E10.40719
G1 X121.508 Y140.008 E11.0718
G1 X121.548 Y139.317 E11.09482
G1 X121.667 Y138.634 E11.11788
G1 X121.865 Y137.971 E11.14089
G1 X122.137 Y137.334 E11.16393
G1 X122.481 Y136.733 E11.18696
G1 X122.892 Y136.175 E11.21001
G1 X123.364 Y135.669 E11.23303
M204 S5000
M205 X30 Y30
G0 F3600 X123.757 Y135.85
M204 S500
M205 X20 Y20
G1 F1800 X124.279 Y135.432 E11.25527
G1 X124.848 Y135.08 E11.27752
G1 X125.455 Y134.798 E11.29978
G1 X126.091 Y134.59 E11.32204
G1 X126.747 Y134.46 E11.34428
G1 X127.508 Y134.408 E11.36965
G1 X172.492 Y134.409 E12.86583
G1 X173.16 Y134.449 E12.88808
G1 X173.818 Y134.568 E12.91032
G1 X174.458 Y134.765 E12.93259
G1 X175.069 Y135.037 E12.95484
G1 X175.643 Y135.38 E12.97708
G1 X176.173 Y135.789 E12.99935
G1 X176.65 Y136.258 E13.0216
G1 X177.068 Y136.781 E13.04386
G1 X177.42 Y137.349 E13.06609
G1 X177.702 Y137.956 E13.08835
G1 X177.91 Y138.592 E13.11061
G1 X178.04 Y139.248 E13.13285
G1 X178.092 Y140.009 E13.15822
G1 X178.092 Y159.99 E13.82279
G1 X178.052 Y160.658 E13.84505
G1 X177.933 Y161.316 E13.86729
G1 X177.736 Y161.956 E13.88956
G1 X177.464 Y162.567 E13.9118
G1 X177.121 Y163.141 E13.93404
G1 X176.712 Y163.671 E13.95631
G1 X176.243 Y164.148 E13.97856
G1 X175.721 Y164.566 E14.0008
G1 X175.152 Y164.918 E14.02306
G1 X174.545 Y165.2 E14.04532
G1 X173.909 Y165.408 E14.06757
G1 X173.253 Y165.538 E14.08982
G1 X172.492 Y165.59 E14.11519
G1 X127.508 Y165.59 E15.61136
G1 X126.84 Y165.55 E15.63362
G1 X126.182 Y165.431 E15.65586
G1 X125.542 Y165.234 E15.67813
G1 X124.931 Y164.962 E15.70037
G1 X124.357 Y164.619 E15.72262
G1 X123.827 Y164.21 E15.74488
G1 X123.35 Y163.741 E15.76713
G1 X122.932 Y163.219 E15.78937
G1 X122.58 Y162.65 E15.81163
G1 X122.298 Y162.043 E15.83389
G1 X122.09 Y161.407 E15.85614
G1 X121.96 Y160.751 E15.87839
G1 X121.908 Y159.99 E15.90376
G1 X121.908 Y140.008 E16.56836
G1 X121.948 Y139.34 E16.59062
G1 X122.067 Y138.682 E16.61286
G1 X122.264 Y138.042 E16.63513
G1 X122.536 Y137.431 E16.65738
G1 X122.879 Y136.857 E16.67962
G1 X123.288 Y136.327 E16.70188
G1 X123.757 Y135.85 E16.72413
M204 S5000
M205 X30 Y30
G0 F3600 X123.683 Y136.485
M204 S500
M205 X20 Y20
G1 F1800 X124.148 Y136.039 E16.74556
G1 X124.665 Y135.654 E16.767
G1 X125.226 Y135.335 E16.78847
G1 X125.822 Y135.089 E16.80991
G1 X126.443 Y134.918 E16.83133
G1 X127.081 Y134.826 E16.85277
G1 X127.508 Y134.808 E16.86699
G1 X172.492 Y134.809 E18.36316
G1 X173.136 Y134.849 E18.38462
G1 X173.769 Y134.968 E18.40605
G1 X174.383 Y135.165 E18.42749
G1 X174.968 Y135.436 E18.44894
G1 X175.515 Y135.778 E18.47039
G1 X176.015 Y136.184 E18.49181
G1 X176.461 Y136.65 E18.51327
G1 X176.846 Y137.167 E18.53471
G1 X177.165 Y137.727 E18.55614
G1 X177.411 Y138.323 E18.57759
G1 X177.582 Y138.944 E18.59901
G1 X177.674 Y139.582 E18.62045
G1 X177.692 Y140.009 E18.63467
G1 X177.692 Y159.99 E19.29924
G1 X177.652 Y160.633 E19.32066
G1 X177.533 Y161.267 E19.34212
G1 X177.336 Y161.881 E19.36357
G1 X177.065 Y162.466 E19.38501
G1 X176.723 Y163.013 E19.40647
G1 X176.317 Y163.513 E19.42789
G1 X175.852 Y163.959 E19.44932
G1 X175.335 Y164.344 E19.47076
G1 X174.774 Y164.663 E19.49222
G1 X174.178 Y164.909 E19.51367
G1 X173.557 Y165.08 E19.53509
G1 X172.919 Y165.172 E19.55653
G1 X172.492 Y165.19 E19.57075
G1 X127.508 Y165.19 E21.06692
G1 X126.865 Y165.15 E21.08835
G1 X126.231 Y165.031 E21.1098
G1 X125.617 Y164.834 E21.13125
G1 X125.032 Y164.563 E21.15269
G1 X124.485 Y164.221 E21.17415
G1 X123.985 Y163.815 E21.19557
G1 X123.539 Y163.35 E21.217
G1 X123.154 Y162.833 E21.23844
G1 X122.835 Y162.272 E21.25991
G1 X122.589 Y161.676 E21.28135
G1 X122.418 Y161.055 E21.30277
G1 X122.326 Y160.417 E21.32421
G1 X122.308 Y159.99 E21.33843
G1 X122.308 Y140.008 E22.00303
G1 X122.348 Y139.365 E22.02446
G1 X122.467 Y138.731 E22.04592
G1 X122.664 Y138.117 E22.06736
G1 X122.935 Y137.532 E22.08881
G1 X123.277 Y136.985 E22.11026
G1 X123.683 Y136.485 E22.13169
M204 S5000
M205 X30 Y30
G1 F2400 E17.13169
G0 F3600 X126.834 Y140.613
G0 X128.113 Y140.613
G0 X140.229 Y151.372
M204 S500
M205 X20 Y20
;TYPE:WALL-INNER
G1 F2400 E22.13169
G1 F1800 X139.118 Y152.485 E22.18399
G1 X138.712 Y154.002 E22.23622
G1 X139.118 Y155.521 E22.28852
G1 X140.229 Y156.632 E22.34078
G1 X141.748 Y157.039 E22.39308
G1 X143.266 Y156.632 E22.44535
G1 X144.378 Y155.521 E22.49763
G1 X144.784 Y154.002 E22.54993
G1 X144.378 Y152.484 E22.60219
G1 X143.266 Y151.372 E22.6545
G1 X141.748 Y150.966 E22.70676
G1 X140.229 Y151.372 E22.75906
M204 S5000
M205 X30 Y30
G0 F3600 X144.378 Y147.518
M204 S500
M205 X20 Y20
G1 F1800 X144.784 Y145.999 E22.81135
G1 X144.378 Y144.48 E22.86365
G1 X143.265 Y143.369 E22.91595
G1 X141.748 Y142.963 E22.96818
G1 X140.229 Y143.369 E23.02048
G1 X139.118 Y144.48 E23.07274
G1 X138.712 Y145.999 E23.12503
G1 X139.118 Y147.518 E23.17733
G1 X140.229 Y148.629 E23.22959
G1 X141.748 Y149.035 E23.28188
G1 X143.265 Y148.629 E23.33411
G1 X144.378 Y147.518 E23.38642
M204 S5000
M205 X30 Y30
G0 F3600 X148.92 Y152.306
G0 X150.117 Y152.627
G0 X151.769 Y152.631
M204 S500
M205 X20 Y20
G1 F1800 X152.88 Y151.518 E23.43872
G1 X153.286 Y150.001 E23.49096
G1 X152.88 Y148.483 E23.54322
G1 X151.769 Y147.37 E23.59552
G1 X150.25 Y146.964 E23.64782
G1 X148.732 Y147.37 E23.70008
G1 X147.62 Y148.482 E23.75239
G1 X147.214 Y150.001 E23.80468
G1 X147.62 Y151.519 E23.85695
G1 X148.732 Y152.631 E23.90925
G1 X150.25 Y153.037 E23.96152
G1 X151.769 Y152.631 E24.01381
M204 S5000
M205 X30 Y30
G0 F3600 X158.252 Y151.34
G0 X159.771 Y151.372
M204 S500
M205 X20 Y20
G1 F1800 X158.252 Y150.966 E24.06611
G1 X156.734 Y151.372 E24.11837
G1 X155.622 Y152.484 E24.17068
G1 X155.216 Y154.002 E24.22294
G1 X155.622 Y155.521 E24.27524
G1 X156.734 Y156.632 E24.32752
G1 X158.252 Y157.039 E24.37979
G1 X159.771 Y156.632 E24.43209
G1 X160.882 Y155.521 E24.48435
G1 X161.288 Y154.002 E24.53665
G1 X160.882 Y152.485 E24.58888
G1 X159.771 Y151.372 E24.64118
M204 S5000
M205 X30 Y30
G0 F3600 X155.947 Y147.331
G0 X155.626 Y146.133
G0 X155.622 Y144.48
M204 S500
M205 X20 Y20
G1 F1800 X155.216 Y145.999 E24.69348
G1 X155.622 Y147.518 E24.74578
G1 X156.735 Y148.629 E24.79808
G1 X158.252 Y149.035 E24.85031
G1 X159.771 Y148.629 E24.90261
G1 X160.882 Y147.518 E24.95487
G1 X161.288 Y145.999 E25.00716
G1 X160.882 Y144.48 E25.05946
G1 X159.771 Y143.369 E25.11171
G1 X158.252 Y142.963 E25.16401
G1 X156.735 Y143.369 E25.21624
G1 X155.622 Y144.48 E25.26855
M204 S5000
M205 X30 Y30
G0 F3600 X155.59 Y145.999
G0 X155.947 Y147.331
G0 X156.825 Y148.206
G0 X171.501 Y158.999
M204 S500
M205 X20 Y20
G1 F1800 X128.499 Y158.999 E26.6988
G1 X128.499 Y140.999 E27.29748
G1 X171.501 Y140.999 E28.72773
G1 X171.501 Y158.999 E29.32642
M204 S5000
M205 X30 Y30
G0 F3600 X171.901 Y159.399
M204 S500
M205 X20 Y20
G1 F1800 X128.099 Y159.399 E30.78328
G1 X128.099 Y140.599 E31.40857
G1 X171.901 Y140.599 E32.86543
G1 X171.901 Y159.399 E33.49072
M204 S5000
M205 X30 Y30
G0 F3600 X171.831 Y159.329
G0 X159.614 Y151.645
G0 X159.564 Y151.731
M204 S500
M205 X20 Y20
G1 F1800 X158.252 Y151.38 E33.53589
G1 X156.941 Y151.731 E33.58103
G1 X155.981 Y152.691 E33.62619
G1 X155.63 Y154.002 E33.67133
G1 X155.981 Y155.314 E33.7165
G1 X156.941 Y156.273 E33.76163
G1 X158.252 Y156.625 E33.80678
G1 X159.564 Y156.273 E33.85196
G1 X160.523 Y155.314 E33.89707
G1 X160.874 Y154.002 E33.94224
G1 X160.523 Y152.692 E33.98735
G1 X159.564 Y151.731 E34.0325
M204 S5000
M205 X30 Y30
G0 F3600 X159.614 Y151.645
G0 X155.947 Y147.331
G0 X155.59 Y145.999
G0 X155.895 Y144.637
G0 X155.981 Y144.687
M204 S500
M205 X20 Y20
G1 F1800 X155.63 Y145.999 E34.07767
G1 X155.981 Y147.311 E34.12285
G1 X156.942 Y148.27 E34.168
G1 X158.252 Y148.621 E34.21311
G1 X159.564 Y148.27 E34.25828
G1 X160.523 Y147.311 E34.30339
G1 X160.874 Y145.999 E34.34856
G1 X160.523 Y144.687 E34.39373
G1 X159.564 Y143.728 E34.43884
G1 X158.252 Y143.377 E34.48401
G1 X156.942 Y143.728 E34.52912
G1 X155.981 Y144.687 E34.57428
M204 S5000
M205 X30 Y30
G0 F3600 X155.895 Y144.637
G0 X152.555 Y151.33
G0 X151.612 Y152.358
G0 X151.562 Y152.272
M204 S500
M205 X20 Y20
G1 F1800 X152.521 Y151.311 E34.61943
G1 X152.872 Y150.001 E34.66454
G1 X152.521 Y148.69 E34.70968
G1 X151.562 Y147.729 E34.75483
G1 X150.25 Y147.378 E34.80001
G1 X148.939 Y147.729 E34.84515
G1 X147.979 Y148.689 E34.8903
G1 X147.628 Y150.001 E34.93547
G1 X147.979 Y151.312 E34.98061
G1 X148.939 Y152.272 E35.02577
G1 X150.25 Y152.623 E35.07091
G1 X151.562 Y152.272 E35.11608
M204 S5000
M205 X30 Y30
G0 F3600 X151.612 Y152.358
G0 X150.25 Y152.663
G0 X148.92 Y152.306
G0 X144.105 Y147.361
G0 X144.019 Y147.311
M204 S500
M205 X20 Y20
G1 F1800 X144.37 Y145.999 E35.16125
G1 X144.019 Y144.687 E35.20642
G1 X143.058 Y143.728 E35.25158
G1 X141.748 Y143.377 E35.29669
G1 X140.436 Y143.728 E35.34186
G1 X139.477 Y144.687 E35.38697
G1 X139.126 Y145.999 E35.43214
G1 X139.477 Y147.311 E35.47731
G1 X140.436 Y148.27 E35.52242
G1 X141.748 Y148.621 E35.56759
G1 X143.058 Y148.27 E35.6127
G1 X144.019 Y147.311 E35.65786
M204 S5000
M205 X30 Y30
G0 F3600 X144.105 Y147.361
G0 X140.386 Y151.645
G0 X140.436 Y151.731
M204 S500
M205 X20 Y20
G1 F1800 X139.477 Y152.692 E35.70301
G1 X139.126 Y154.002 E35.74812
G1 X139.477 Y155.314 E35.79329
G1 X140.436 Y156.273 E35.8384
G1 X141.748 Y156.625 E35.88358
G1 X143.059 Y156.273 E35.92873
G1 X144.019 Y155.314 E35.97386
G1 X144.37 Y154.002 E36.01903
G1 X144.019 Y152.691 E36.06417
G1 X143.059 Y151.731 E36.10933
G1 X141.748 Y151.38 E36.15447
G1 X140.436 Y151.731 E36.19964
M204 S5000
M205 X30 Y30
G0 F3600 X140.386 Y151.645
G0 X139.443 Y152.673
G0 X139.086 Y154.002
G0 X139.443 Y155.333
G0 X140.416 Y156.307
G0 X141.619 Y156.693
G0 X141.748 Y156.211
M204 S500
M205 X20 Y20
;TYPE:WALL-OUTER
G1 F1800 X142.852 Y155.914 E36.23766
G1 X143.66 Y155.107 E36.27565
G1 X143.956 Y154.002 E36.31369
G1 X143.66 Y152.898 E36.35171
G1 X142.852 Y152.09 E36.38972
G1 X141.748 Y151.794 E36.42773
G1 X140.643 Y152.09 E36.46578
G1 X139.836 Y152.899 E36.50379
G1 X139.54 Y154.002 E36.54177
G1 X139.836 Y155.107 E36.57982
G1 X140.643 Y155.914 E36.61778
G1 X141.748 Y156.211 E36.65583
M204 S5000
M205 X30 Y30
G0 F3600 X141.941 Y156.16
G0 X142.069 Y156.642
G0 X143.079 Y156.307
G0 X144.053 Y155.334
G0 X144.41 Y154.002
G0 X144.142 Y147.233
G0 X143.66 Y147.104
M204 S500
M205 X20 Y20
G1 F1800 X143.956 Y145.999 E36.69388
G1 X143.66 Y144.894 E36.73193
G1 X142.851 Y144.087 E36.76994
G1 X141.748 Y143.791 E36.80792
G1 X140.643 Y144.087 E36.84597
G1 X139.836 Y144.894 E36.88393
G1 X139.54 Y145.999 E36.92198
G1 X139.836 Y147.104 E36.96002
G1 X140.643 Y147.911 E36.99798
G1 X141.748 Y148.207 E37.03603
G1 X142.851 Y147.911 E37.07401
G1 X143.66 Y147.104 E37.11202
M204 S5000
M205 X30 Y30
G0 F3600 X143.711 Y146.911
G0 X144.194 Y147.041
G0 X147.945 Y151.331
G0 X148.92 Y152.306
G0 X150.25 Y152.663
G0 X151.707 Y152.267
G0 X151.355 Y151.913
M204 S500
M205 X20 Y20
G1 F1800 X152.162 Y151.104 E37.15003
G1 X152.458 Y150.001 E37.18801
G1 X152.162 Y148.897 E37.22603
G1 X151.355 Y148.088 E37.26403
G1 X150.25 Y147.792 E37.30208
G1 X149.146 Y148.088 E37.3401
G1 X148.338 Y148.896 E37.3781
G1 X148.042 Y150.001 E37.41615
G1 X148.338 Y151.105 E37.45417
G1 X149.146 Y151.913 E37.49217
G1 X150.25 Y152.209 E37.53019
G1 X151.355 Y151.913 E37.56824
M204 S5000
M205 X30 Y30
G0 F3600 X151.496 Y151.772
G0 X151.848 Y152.125
G0 X156.921 Y156.307
G0 X158.123 Y156.693
G0 X158.252 Y156.211
M204 S500
M205 X20 Y20
G1 F1800 X159.357 Y155.914 E37.60629
G1 X160.164 Y155.107 E37.64425
G1 X160.46 Y154.002 E37.6823
G1 X160.164 Y152.899 E37.72028
G1 X159.357 Y152.09 E37.75829
G1 X158.252 Y151.794 E37.79634
G1 X157.148 Y152.09 E37.83435
G1 X156.34 Y152.898 E37.87236
G1 X156.044 Y154.002 E37.91038
G1 X156.34 Y155.107 E37.94843
G1 X157.148 Y155.914 E37.98641
G1 X158.252 Y156.211 E38.02443
M204 S5000
M205 X30 Y30
G0 F3600 X158.445 Y156.16
G0 X158.572 Y156.642
G0 X158.252 Y156.665
G0 X156.921 Y156.307
G0 X155.947 Y155.334
G0 X155.59 Y154.002
G0 X155.59 Y145.999
G0 X155.858 Y144.765
G0 X156.34 Y144.894
M204 S500
M205 X20 Y20
G1 F1800 X156.044 Y145.999 E38.06248
G1 X156.34 Y147.104 E38.10053
G1 X157.149 Y147.911 E38.13853
G1 X158.252 Y148.207 E38.17652
G1 X159.357 Y147.911 E38.21457
G1 X160.164 Y147.104 E38.25253
G1 X160.46 Y145.999 E38.29057
G1 X160.164 Y144.894 E38.32862
G1 X159.357 Y144.087 E38.36658
G1 X158.252 Y143.791 E38.40463
G1 X157.149 Y144.087 E38.44261
