;FLAVOR:Marlin
;TIME:1506
;Filament used: 0.835484m
;Layer height: 0.2
;Generated with Cura_SteamEngine 3.4.1
M190 S65
M104 S210
M109 S210
M82 ;absolute extrusion mode
G28 ;Home
G1 Z15.0 F6000 ;Move the platform down 15mm
;Prime the extruder
G92 E0
G1 F200 E3
G92 E0
G92 E0
G1 F2400 E-5
;LAYER_COUNT:151
;LAYER:0
M107
M204 S5000
M205 X30 Y30
G0 F3600 X129.813 Y135.175 Z0.2
M204 S500
M205 X20 Y20
;TYPE:SKIRT
G1 F2400 E0
G1 F1800 X130.379 Y134.737 E0.0238
G1 X130.99 Y134.365 E0.0476
G1 X131.638 Y134.063 E0.07137
G1 X132.316 Y133.836 E0.09515
G1 X133.016 Y133.686 E0.11897
G1 X134.009 Y133.608 E0.15209
G1 X165.991 Y133.609 E1.21582
G1 X166.705 Y133.649 E1.23961
G1 X167.411 Y133.768 E1.26342
G1 X168.098 Y133.966 E1.2872
G1 X168.759 Y134.239 E1.31098
G1 X169.386 Y134.584 E1.33479
G1 X169.97 Y134.996 E1.35856
G1 X170.505 Y135.472 E1.38238
G1 X170.983 Y136.004 E1.40616
G1 X171.398 Y136.586 E1.42994
G1 X171.747 Y137.21 E1.45372
G1 X172.023 Y137.87 E1.47751
G1 X172.224 Y138.556 E1.50129
G1 X172.347 Y139.261 E1.52509
G1 X172.391 Y140.009 E1.55001
G1 X172.391 Y159.992 E2.21465
G1 X172.351 Y160.706 E2.23843
G1 X172.232 Y161.411 E2.26221
G1 X172.034 Y162.099 E2.28603
G1 X171.761 Y162.76 E2.30981
G1 X171.417 Y163.387 E2.3336
G1 X171.004 Y163.971 E2.35739
G1 X170.529 Y164.505 E2.38116
G1 X169.997 Y164.984 E2.40497
G1 X169.415 Y165.399 E2.42874
G1 X168.79 Y165.748 E2.45255
G1 X168.13 Y166.024 E2.47635
G1 X167.444 Y166.225 E2.50012
G1 X166.739 Y166.348 E2.52392
G1 X165.986 Y166.392 E2.54901
G1 X134 Y166.369 E3.61287
G1 X133.286 Y166.329 E3.63666
G1 X132.581 Y166.209 E3.66044
G1 X131.894 Y166.011 E3.68422
G1 X131.233 Y165.737 E3.70802
G1 X130.606 Y165.392 E3.73182
G1 X130.023 Y164.979 E3.75559
G1 X129.488 Y164.503 E3.7794
G1 X129.011 Y163.971 E3.80317
G1 X128.595 Y163.389 E3.82696
G1 X128.247 Y162.764 E3.85076
G1 X127.972 Y162.104 E3.87454
G1 X127.771 Y161.417 E3.89834
G1 X127.697 Y161.053 E3.9107
G1 X126.744 Y155.508 E4.09783
G1 X126.158 Y152.776 E4.19076
G1 X126.047 Y152.069 E4.21457
G1 X126.015 Y151.429 E4.23588
G1 X126.017 Y148.513 E4.33287
G1 X126.057 Y147.798 E4.35668
G1 X126.126 Y147.34 E4.37209
G1 X127.718 Y138.831 E4.66001
G1 X127.889 Y138.136 E4.68382
G1 X128.136 Y137.465 E4.7076
G1 X128.456 Y136.826 E4.73137
G1 X128.846 Y136.226 E4.75517
G1 X129.3 Y135.673 E4.77897
G1 X129.813 Y135.175 E4.80275
M204 S5000
M205 X30 Y30
G0 F3600 X130.176 Y135.392
M204 S500
M205 X20 Y20
G1 F1800 X130.734 Y134.981 E4.8258
G1 X131.335 Y134.637 E4.84883
G1 X131.972 Y134.365 E4.87186
G1 X132.635 Y134.167 E4.89488
G1 X133.318 Y134.048 E4.91794
G1 X134.009 Y134.008 E4.94096
G1 X165.991 Y134.009 E6.00468
G1 X166.683 Y134.049 E6.02774
G1 X167.365 Y134.168 E6.05076
G1 X168.029 Y134.366 E6.07381
G1 X168.665 Y134.638 E6.09682
G1 X169.266 Y134.982 E6.11985
G1 X169.824 Y135.393 E6.1429
G1 X170.33 Y135.865 E6.16591
G1 X170.779 Y136.393 E6.18897
G1 X171.164 Y136.969 E6.21201
G1 X171.48 Y137.585 E6.23504
G1 X171.722 Y138.233 E6.25804
G1 X171.889 Y138.906 E6.28111
G1 X171.977 Y139.593 E6.30414
G1 X171.991 Y140.009 E6.31799
G1 X171.991 Y159.992 E6.98262
G1 X171.951 Y160.683 E7.00565
G1 X171.832 Y161.366 E7.0287
G1 X171.634 Y162.029 E7.05172
G1 X171.362 Y162.666 E7.07476
G1 X171.018 Y163.267 E7.09779
G1 X170.607 Y163.825 E7.12084
G1 X170.135 Y164.331 E7.14385
G1 X169.607 Y164.78 E7.16691
G1 X169.032 Y165.165 E7.18992
G1 X168.415 Y165.48 E7.21296
G1 X167.767 Y165.723 E7.23598
G1 X167.094 Y165.89 E7.25904
G1 X166.408 Y165.978 E7.28205
G1 X165.987 Y165.992 E7.29606
G1 X134.001 Y165.969 E8.35992
G1 X133.309 Y165.929 E8.38297
G1 X132.627 Y165.809 E8.406
G1 X131.964 Y165.611 E8.42902
G1 X131.327 Y165.338 E8.45207
G1 X130.726 Y164.994 E8.4751
G1 X130.169 Y164.583 E8.49812
G1 X129.663 Y164.11 E8.52116
G1 X129.215 Y163.582 E8.54419
G1 X128.83 Y163.006 E8.56723
G1 X128.515 Y162.389 E8.59028
G1 X128.273 Y161.741 E8.61328
G1 X128.092 Y160.985 E8.63914
G1 X127.142 Y155.453 E8.82583
G1 X126.549 Y152.692 E8.91975
G1 X126.443 Y152.008 E8.94277
G1 X126.415 Y151.429 E8.96205
G1 X126.417 Y148.513 E9.05904
G1 X126.457 Y147.822 E9.08206
G1 X126.519 Y147.414 E9.09579
G1 X128.111 Y138.905 E9.38371
G1 X128.278 Y138.232 E9.40677
G1 X128.521 Y137.584 E9.42979
G1 X128.836 Y136.967 E9.45283
G1 X129.221 Y136.392 E9.47585
G1 X129.67 Y135.864 E9.4989
G1 X130.176 Y135.392 E9.52191
M204 S5000
M205 X30 Y30
G0 F3600 X130.538 Y135.614
M204 S500
M205 X20 Y20
G1 F1800 X131.086 Y135.231 E9.54415
G1 X131.677 Y134.917 E9.56641
G1 X132.301 Y134.675 E9.58867
G1 X132.949 Y134.509 E9.61092
G1 X133.612 Y134.422 E9.63316
G1 X134.009 Y134.408 E9.64637
G1 X165.991 Y134.409 E10.7101
G1 X166.659 Y134.449 E10.73235
G1 X167.317 Y134.568 E10.75459
G1 X167.957 Y134.765 E10.77687
G1 X168.568 Y135.037 E10.79911
G1 X169.143 Y135.38 E10.82138
G1 X169.672 Y135.789 E10.84362
G1 X170.149 Y136.258 E10.86587
G1 X170.567 Y136.781 E10.88814
G1 X170.919 Y137.349 E10.91036
G1 X171.201 Y137.956 E10.93262
G1 X171.409 Y138.592 E10.95488
G1 X171.539 Y139.248 E10.97712
G1 X171.591 Y140.009 E11.00249
G1 X171.591 Y159.992 E11.66713
G1 X171.551 Y160.66 E11.68939
G1 X171.432 Y161.318 E11.71163
G1 X171.235 Y161.958 E11.7339
G1 X170.963 Y162.569 E11.75614
G1 X170.62 Y163.143 E11.77838
G1 X170.211 Y163.673 E11.80065
G1 X169.742 Y164.15 E11.8229
G1 X169.22 Y164.568 E11.84514
G1 X168.651 Y164.92 E11.8674
G1 X168.044 Y165.202 E11.88966
G1 X167.408 Y165.41 E11.91191
G1 X166.752 Y165.54 E11.93416
G1 X165.987 Y165.592 E11.95966
G1 X134.001 Y165.569 E13.02352
G1 X133.333 Y165.529 E13.04578
G1 X132.675 Y165.409 E13.06802
G1 X132.036 Y165.211 E13.09027
G1 X131.425 Y164.939 E13.11252
G1 X130.85 Y164.596 E13.13479
G1 X130.321 Y164.187 E13.15703
G1 X129.844 Y163.717 E13.1793
G1 X129.427 Y163.194 E13.20155
G1 X129.075 Y162.625 E13.2238
G1 X128.793 Y162.018 E13.24606
G1 X128.586 Y161.382 E13.26831
G1 X128.486 Y160.917 E13.28413
G1 X127.534 Y155.375 E13.47115
G1 X126.94 Y152.608 E13.56528
G1 X126.839 Y151.947 E13.58752
G1 X126.815 Y151.429 E13.60477
G1 X126.817 Y148.513 E13.70175
G1 X126.857 Y147.845 E13.72401
G1 X126.913 Y147.487 E13.73606
G1 X128.505 Y138.978 E14.02399
G1 X128.667 Y138.329 E14.04623
G1 X128.905 Y137.704 E14.06848
G1 X129.216 Y137.112 E14.09072
G1 X129.596 Y136.561 E14.11298
G1 X130.038 Y136.059 E14.13523
G1 X130.538 Y135.614 E14.15749
M204 S5000
M205 X30 Y30
G0 F3600 X130.406 Y136.259
M204 S500
M205 X20 Y20
G1 F1800 X130.897 Y135.842 E14.17892
G1 X131.437 Y135.489 E14.20037
G1 X132.016 Y135.205 E14.22182
G1 X132.625 Y134.995 E14.24325
G1 X133.256 Y134.863 E14.26469
G1 X134.009 Y134.808 E14.2898
G1 X165.991 Y134.809 E15.35353
G1 X166.635 Y134.849 E15.37499
G1 X167.268 Y134.968 E15.39641
G1 X167.882 Y135.165 E15.41786
G1 X168.467 Y135.436 E15.4393
G1 X169.014 Y135.778 E15.46076
G1 X169.514 Y136.184 E15.48218
G1 X169.96 Y136.65 E15.50363
G1 X170.345 Y137.167 E15.52507
G1 X170.664 Y137.727 E15.54651
G1 X170.91 Y138.323 E15.56795
G1 X171.081 Y138.945 E15.58941
G1 X171.173 Y139.583 E15.61085
G1 X171.191 Y140.009 E15.62503
G1 X171.191 Y159.992 E16.28967
G1 X171.151 Y160.635 E16.3111
G1 X171.032 Y161.269 E16.33255
G1 X170.835 Y161.883 E16.354
G1 X170.564 Y162.468 E16.37544
G1 X170.222 Y163.015 E16.3969
G1 X169.816 Y163.515 E16.41832
G1 X169.351 Y163.961 E16.43975
G1 X168.834 Y164.346 E16.46119
G1 X168.273 Y164.665 E16.48265
G1 X167.677 Y164.911 E16.5041
G1 X167.056 Y165.082 E16.52552
G1 X166.418 Y165.174 E16.54696
G1 X165.987 Y165.192 E16.56131
G1 X134.001 Y165.169 E17.62517
G1 X133.358 Y165.129 E17.6466
G1 X132.724 Y165.009 E17.66806
G1 X132.111 Y164.812 E17.68947
G1 X131.526 Y164.54 E17.71093
G1 X130.979 Y164.198 E17.73239
G1 X130.479 Y163.791 E17.75383
G1 X130.034 Y163.326 E17.77524
G1 X129.649 Y162.808 E17.7967
G1 X129.331 Y162.248 E17.81812
G1 X129.085 Y161.652 E17.83957
G1 X128.88 Y160.849 E17.86713
G1 X127.926 Y155.297 E18.0545
G1 X127.331 Y152.524 E18.14883
G1 X127.235 Y151.887 E18.17025
G1 X127.215 Y151.429 E18.1855
G1 X127.217 Y148.513 E18.28249
G1 X127.306 Y147.561 E18.31429
G1 X128.898 Y139.052 E18.60221
G1 X129.055 Y138.427 E18.62365
G1 X129.289 Y137.826 E18.6451
G1 X129.595 Y137.259 E18.66653
G1 X129.969 Y136.734 E18.68796
G1 X130.406 Y136.259 E18.70943
M204 S5000
M205 X30 Y30
G0 F3600 X133.1 Y148.432
M204 S500
M205 X20 Y20
;TYPE:SUPPORT
G1 F1800 X133.1 Y151.547 E18.81304
G1 X132.605 Y151.313 E18.83125
G1 X132.607 Y148.639 E18.92019
G1 X133.1 Y148.432 E18.93797
M204 S5000
M205 X30 Y30
G0 F3600 X132.94 Y149.296
M204 S500
M205 X20 Y20
G1 F1800 X132.767 Y149.296 E18.94372
M204 S5000
M205 X30 Y30
G1 F2400 E13.94372
G0 F3600 X133.335 Y149.296
G0 X134.62 Y149.296
G0 X147.447 Y146.449
M204 S500
M205 X20 Y20
;TYPE:WALL-INNER
G1 F2400 E18.94372
G1 F1800 X146.361 Y148.078 E19.00884
G1 X145.978 Y150 E19.07402
G1 X146.361 Y151.922 E19.13921
G1 X147.447 Y153.551 E19.20432
G1 X149.078 Y154.64 E19.26955
G1 X151 Y155.023 E19.33473
G1 X152.923 Y154.64 E19.39995
G1 X154.552 Y153.551 E19.46512
G1 X155.641 Y151.922 E19.5303
G1 X156.023 Y150 E19.59547
G1 X155.641 Y148.078 E19.66065
G1 X154.552 Y146.449 E19.72582
G1 X152.923 Y145.36 E19.79099
G1 X151 Y144.977 E19.85621
G1 X149.078 Y145.36 E19.92139
G1 X147.447 Y146.449 E19.98662
M204 S5000
M205 X30 Y30
G0 F3600 X149.219 Y145.701
G0 X151 Y145.345
G0 X152.782 Y145.701
G0 X154.292 Y146.709
G0 X165 Y158.801
M204 S500
M205 X20 Y20
G1 F1800 X165 Y159.001 E19.99327
G1 X164.8 Y159.001 E19.99758
G1 X135 Y158.999 E20.98873
G1 X135 Y140.999 E21.58741
G1 X165 Y140.999 E22.58522
G1 X165 Y158.801 E23.17731
M204 S5000
M205 X30 Y30
G0 F3600 X165.4 Y159.201
M204 S500
M205 X20 Y20
G1 F1800 X165.4 Y159.401 E23.18397
G1 X165.2 Y159.401 E23.18827
G1 X134.6 Y159.399 E24.20603
G1 X134.6 Y140.599 E24.83132
G1 X165.4 Y140.599 E25.85574
G1 X165.4 Y159.201 E26.47444
M204 S5000
M205 X30 Y30
G0 F3600 X165.3 Y159.201
G0 X154.292 Y146.709
G0 X152.782 Y145.701
G0 X151 Y145.345
G0 X149.219 Y145.701
G0 X147.666 Y146.667
G0 X147.736 Y146.737
M204 S500
M205 X20 Y20
G1 F1800 X146.738 Y148.234 E26.53428
G1 X146.386 Y150 E26.59417
G1 X146.738 Y151.766 E26.65407
G1 X147.736 Y153.263 E26.71391
G1 X149.234 Y154.263 E26.77381
G1 X151 Y154.615 E26.83371
G1 X152.767 Y154.263 E26.89363
G1 X154.264 Y153.263 E26.95351
G1 X155.264 Y151.766 E27.01339
G1 X155.615 Y150 E27.07327
G1 X155.264 Y148.234 E27.13316
G1 X154.264 Y146.737 E27.19304
G1 X152.767 Y145.737 E27.25291
G1 X151 Y145.385 E27.31284
G1 X149.234 Y145.737 E27.37273
G1 X147.736 Y146.737 E27.43264
M204 S5000
M205 X30 Y30
G0 F3600 X148.025 Y147.025
M204 S500
M205 X20 Y20
;TYPE:WALL-OUTER
G1 F1800 X147.115 Y148.39 E27.4872
G1 X146.794 Y150 E27.5418
G1 X147.115 Y151.61 E27.59641
G1 X148.025 Y152.975 E27.65097
G1 X149.39 Y153.886 E27.70555
G1 X151 Y154.207 E27.76016
G1 X152.611 Y153.886 E27.81479
G1 X153.976 Y152.975 E27.86938
G1 X154.887 Y151.61 E27.92396
G1 X155.207 Y150 E27.97855
G1 X154.887 Y148.39 E28.03315
G1 X153.976 Y147.025 E28.08773
G1 X152.611 Y146.114 E28.14232
G1 X151 Y145.793 E28.19695
G1 X149.39 Y146.114 E28.25155
G1 X148.025 Y147.025 E28.30614
M204 S5000
M205 X30 Y30
G0 F3600 X147.915 Y147.191
G0 X147.499 Y146.913
G0 X147.708 Y146.709
G0 X149.219 Y145.701
G0 X151 Y145.345
G0 X152.782 Y145.701
G0 X154.292 Y146.709
G0 X165.33 Y159.331
G0 X165.8 Y159.601
M204 S500
M205 X20 Y20
G1 F1800 X165.8 Y159.801 E28.31279
G1 X165.6 Y159.801 E28.3171
G1 X134.2 Y159.799 E29.36146
G1 X134.2 Y140.199 E30.01336
G1 X165.8 Y140.199 E31.06438
G1 X165.8 Y159.601 E31.7097
M204 S5000
M205 X30 Y30
G0 F3600 X165.8 Y159.801
G0 X165.33 Y159.331
G0 X164.61 Y158.611
M204 S500
M205 X20 Y20
;TYPE:SKIN
G1 F1800 X135.39 Y158.609 E32.68156
G1 X135.39 Y141.389 E33.2543
G1 X164.61 Y141.389 E34.22616
G1 X164.61 Y158.611 E34.79896
M204 S5000
M205 X30 Y30
G0 F3600 X156.008 Y152.074
M204 S500
M205 X20 Y20
G1 F1800 X156.421 Y150 E34.8693
G1 X156.008 Y147.926 E34.93964
G1 X154.833 Y146.168 E35.00996
G1 X153.075 Y144.993 E35.08029
G1 X151 Y144.579 E35.15067
G1 X148.926 Y144.993 E35.22101
G1 X147.166 Y146.168 E35.2914
G1 X145.994 Y147.926 E35.36167
G1 X145.58 Y150 E35.43201
G1 X145.994 Y152.074 E35.50235
G1 X147.166 Y153.832 E35.57263
G1 X148.926 Y155.007 E35.64301
G1 X151 Y155.421 E35.71335
G1 X153.075 Y155.007 E35.78373
G1 X154.833 Y153.832 E35.85406
G1 X156.008 Y152.074 E35.92439
M204 S5000
M205 X30 Y30
G0 F3600 X152.782 Y154.299
G0 X151 Y154.655
G0 X149.219 Y154.299
G0 X140.59 Y148.426
M204 S500
M205 X20 Y20
G1 F1800 X140.59 Y146.589 E35.98549
G1 X140.957 Y146.589 E35.99769
G1 X140.59 Y148.426 E36.06
M204 S5000
M205 X30 Y30
G0 F3600 X140.684 Y150
M204 S500
M205 X20 Y20
G1 F1800 X141.444 Y153.81 E36.18922
G1 X140.19 Y153.809 E36.23093
G1 X140.19 Y146.189 E36.48437
G1 X141.444 Y146.189 E36.52608
G1 X140.684 Y150 E36.65533
M204 S5000
M205 X30 Y30
G0 F3600 X141.092 Y150
M204 S500
M205 X20 Y20
G1 F1800 X141.848 Y153.79 E36.78387
G1 X142.128 Y154.21 E36.80065
G1 X139.79 Y154.209 E36.87842
G1 X139.79 Y145.789 E37.15847
G1 X142.129 Y145.789 E37.23626
G1 X141.848 Y146.21 E37.2531
G1 X141.092 Y150 E37.38164
M204 S5000
M205 X30 Y30
G0 F3600 X141.5 Y150
M204 S500
M205 X20 Y20
G1 F1800 X142.225 Y153.634 E37.50489
G1 X142.875 Y154.61 E37.54389
G1 X139.39 Y154.609 E37.6598
G1 X139.39 Y145.389 E37.96646
G1 X142.876 Y145.389 E38.0824
G1 X142.225 Y146.366 E38.12145
G1 X141.5 Y150 E38.2447
M204 S5000
M205 X30 Y30
G0 F3600 X141.908 Y150
M204 S500
M205 X20 Y20
G1 F1800 X142.602 Y153.478 E38.36266
G1 X143.623 Y155.01 E38.42389
G1 X138.99 Y155.009 E38.57799
G1 X138.99 Y144.989 E38.91125
G1 X143.624 Y144.989 E39.06538
G1 X142.602 Y146.522 E39.12666
G1 X141.908 Y150 E39.24462
M204 S5000
M205 X30 Y30
G0 F3600 X142.316 Y150
M204 S500
M205 X20 Y20
G1 F1800 X142.979 Y153.322 E39.35729
G1 X144.371 Y155.41 E39.44075
G1 X138.59 Y155.409 E39.63303
G1 X138.59 Y144.589 E39.99291
G1 X144.371 Y144.589 E40.18518
G1 X142.979 Y146.678 E40.26868
G1 X142.316 Y150 E40.38135
M204 S5000
M205 X30 Y30
G0 F3600 X142.724 Y150
M204 S500
M205 X20 Y20
G1 F1800 X143.356 Y153.166 E40.48872
G1 X145.119 Y155.81 E40.59442
G1 X138.19 Y155.809 E40.82488
G1 X138.19 Y144.189 E41.21136
G1 X145.119 Y144.189 E41.44182
G1 X143.356 Y146.834 E41.54755
G1 X142.724 Y150 E41.65493
M204 S5000
M205 X30 Y30
G0 F3600 X143.132 Y150
M204 S500
M205 X20 Y20
G1 F1800 X143.733 Y153.01 E41.75702
G1 X145.433 Y155.56 E41.85895
G1 X146.406 Y156.21 E41.89787
G1 X137.79 Y156.209 E42.18444
G1 X137.79 Y143.789 E42.59753
G1 X146.408 Y143.789 E42.88416
G1 X145.433 Y144.44 E42.92316
G1 X143.733 Y146.99 E43.02509
G1 X143.132 Y150 E43.12718
M204 S5000
M205 X30 Y30
G0 F3600 X143.54 Y150
M204 S500
M205 X20 Y20
G1 F1800 X144.11 Y152.854 E43.22398
G1 X145.722 Y155.272 E43.32063
G1 X147.725 Y156.61 E43.40075
G1 X137.39 Y156.609 E43.74449
G1 X137.39 Y143.389 E44.18419
G1 X147.727 Y143.389 E44.528
G1 X145.722 Y144.728 E44.60819
G1 X144.11 Y147.146 E44.70485
G1 X143.54 Y150 E44.80165
M204 S5000
M205 X30 Y30
G0 F3600 X143.948 Y150
M204 S500
M205 X20 Y20
G1 F1800 X144.487 Y152.698 E44.89316
G1 X146.011 Y154.984 E44.98454
G1 X148.302 Y156.514 E45.07617
G1 X150.785 Y157.01 E45.16038
G1 X136.99 Y157.009 E45.61921
G1 X136.99 Y142.989 E46.08551
G1 X150.79 Y142.989 E46.5445
G1 X148.302 Y143.486 E46.62889
G1 X146.011 Y145.016 E46.72052
G1 X144.487 Y147.302 E46.8119
G1 X143.948 Y150 E46.90341
M204 S5000
M205 X30 Y30
G0 F3600 X144.356 Y150
M204 S500
M205 X20 Y20
G1 F1800 X144.864 Y152.542 E46.98963
G1 X146.3 Y154.696 E47.07573
G1 X148.458 Y156.137 E47.16204
G1 X151 Y156.645 E47.24826
G1 X153.543 Y156.137 E47.33451
G1 X155.697 Y154.696 E47.4207
G1 X157.138 Y152.542 E47.5069
G1 X157.645 Y150 E47.59311
G1 X157.138 Y147.458 E47.67932
G1 X155.697 Y145.304 E47.76552
G1 X153.543 Y143.863 E47.85171
G1 X151 Y143.355 E47.93797
G1 X148.458 Y143.863 E48.02419
G1 X146.3 Y145.304 E48.11049
G1 X144.864 Y147.458 E48.1966
G1 X144.356 Y150 E48.28281
M204 S5000
M205 X30 Y30
G0 F3600 X144.764 Y150
M204 S500
M205 X20 Y20
G1 F1800 X145.241 Y152.386 E48.36374
G1 X146.589 Y154.408 E48.44457
G1 X148.614 Y155.76 E48.52555
G1 X151 Y156.237 E48.60648
G1 X153.387 Y155.76 E48.68744
G1 X155.409 Y154.408 E48.76834
G1 X156.761 Y152.386 E48.84925
G1 X157.237 Y150 E48.93017
G1 X156.761 Y147.614 E49.01109
G1 X155.409 Y145.592 E49.09199
