;FLAVOR:Marlin
;TIME:2745
;Filament used: 2.56622m
;Layer height: 0.2
;Generated with Cura_SteamEngine 3.4.1
M190 S65
M104 S210
M109 S210
M82 ;absolute extrusion mode
G28 ;Home
G1 Z15.0 F6000 ;Move the platform down 15mm
;Prime the extruder
G92 E0
G1 F200 E3
G92 E0
G92 E0
G1 F2400 E-5
;LAYER_COUNT:166
;LAYER:0
M107
M204 S5000
M205 X30 Y30
G0 F3600 X112.862 Y138 Z0.2
M204 S500
M205 X20 Y20
;TYPE:SKIRT
G1 F2400 E0
G1 F1800 X114.443 Y136.707 E0.06793
G1 X115.021 Y136.286 E0.09171
G1 X115.487 Y136.012 E0.10969
G1 X117.181 Y135.11 E0.17353
G1 X117.83 Y134.81 E0.19731
G1 X118.338 Y134.633 E0.2152
G1 X120.198 Y134.071 E0.27982
G1 X120.893 Y133.902 E0.30361
G1 X121.362 Y133.834 E0.31938
G1 X122.585 Y133.702 E0.36029
G1 X123.026 Y133.67 E0.375
G1 X124.739 Y133.604 E0.43201
G1 X124.986 Y133.599 E0.44023
G1 X175.873 Y133.606 E2.13274
G1 X176.454 Y133.633 E2.15208
G1 X178.533 Y133.823 E2.22152
G1 X179.241 Y133.927 E2.24532
G1 X179.804 Y134.07 E2.26464
G1 X181.675 Y134.636 E2.32966
G1 X182.347 Y134.881 E2.35345
G1 X182.841 Y135.119 E2.37168
G1 X184.576 Y136.047 E2.43713
G1 X185.186 Y136.419 E2.46089
G1 X185.615 Y136.741 E2.47873
G1 X187.104 Y137.962 E2.54278
G1 X187.631 Y138.446 E2.56657
G1 X188.003 Y138.862 E2.58514
G1 X189.296 Y140.445 E2.65312
G1 X189.716 Y141.024 E2.67691
G1 X189.988 Y141.485 E2.69471
G1 X190.886 Y143.171 E2.75825
G1 X191.186 Y143.82 E2.78203
G1 X191.363 Y144.327 E2.79989
G1 X191.928 Y146.195 E2.8648
G1 X192.096 Y146.89 E2.88858
G1 X192.169 Y147.402 E2.90578
G1 X192.341 Y149.098 E2.96248
G1 X192.374 Y149.734 E2.98366
G1 X192.39 Y159.981 E3.32448
G1 X192.351 Y160.695 E3.34826
G1 X192.233 Y161.401 E3.37207
G1 X192.037 Y162.088 E3.39583
G1 X191.765 Y162.75 E3.41963
G1 X191.421 Y163.377 E3.44342
G1 X191.009 Y163.962 E3.46722
G1 X190.535 Y164.497 E3.49099
G1 X190.003 Y164.976 E3.5148
G1 X189.422 Y165.393 E3.53859
G1 X188.798 Y165.742 E3.56237
G1 X188.139 Y166.02 E3.58616
G1 X187.452 Y166.222 E3.60997
G1 X186.748 Y166.346 E3.63375
G1 X185.99 Y166.391 E3.65901
G1 X114.009 Y166.391 E6.0531
G1 X113.295 Y166.351 E6.07689
G1 X112.59 Y166.232 E6.10067
G1 X111.902 Y166.034 E6.12448
G1 X111.241 Y165.761 E6.14827
G1 X110.614 Y165.417 E6.17205
G1 X110.03 Y165.004 E6.19584
G1 X109.496 Y164.529 E6.21961
G1 X109.017 Y163.997 E6.24342
G1 X108.602 Y163.415 E6.2672
G1 X108.253 Y162.79 E6.29101
G1 X107.977 Y162.13 E6.3148
G1 X107.776 Y161.444 E6.33858
G1 X107.653 Y160.739 E6.36238
G1 X107.609 Y159.997 E6.3871
G1 X107.6 Y150.681 E6.69695
G1 X107.618 Y150.192 E6.71323
G1 X107.817 Y147.563 E6.80092
G1 X107.911 Y146.854 E6.82471
G1 X108.074 Y146.19 E6.84745
G1 X108.642 Y144.315 E6.91261
G1 X108.887 Y143.644 E6.93637
G1 X109.127 Y143.146 E6.95475
G1 X110.055 Y141.416 E7.02005
G1 X110.428 Y140.805 E7.04386
G1 X110.746 Y140.384 E7.06141
G1 X111.965 Y138.897 E7.12536
G1 X112.448 Y138.37 E7.14914
G1 X112.862 Y138 E7.1676
M204 S5000
M205 X30 Y30
G0 F3600 X113.116 Y138.309
M204 S500
M205 X20 Y20
G1 F1800 X114.697 Y137.016 E7.23553
G1 X115.257 Y136.61 E7.25854
G1 X115.675 Y136.365 E7.27465
G1 X117.369 Y135.463 E7.33849
G1 X117.998 Y135.173 E7.36152
G1 X118.454 Y135.015 E7.37758
G1 X120.314 Y134.453 E7.4422
G1 X120.987 Y134.292 E7.46522
G1 X121.405 Y134.232 E7.47926
G1 X122.628 Y134.1 E7.52018
G1 X123.041 Y134.069 E7.53395
G1 X124.754 Y134.003 E7.59097
G1 X124.986 Y133.999 E7.59868
G1 X175.873 Y134.006 E9.29119
G1 X176.418 Y134.031 E9.30934
G1 X178.497 Y134.221 E9.37878
G1 X179.182 Y134.324 E9.40181
G1 X179.688 Y134.453 E9.41918
G1 X181.559 Y135.019 E9.4842
G1 X182.21 Y135.257 E9.50725
G1 X182.652 Y135.471 E9.52358
G1 X184.387 Y136.399 E9.58903
G1 X184.978 Y136.761 E9.61208
G1 X185.362 Y137.05 E9.62806
G1 X186.851 Y138.271 E9.69211
G1 X187.36 Y138.741 E9.71515
G1 X187.693 Y139.115 E9.73181
G1 X188.986 Y140.698 E9.79979
G1 X189.392 Y141.259 E9.82282
G1 X189.635 Y141.673 E9.83879
G1 X190.533 Y143.359 E9.90232
G1 X190.822 Y143.988 E9.92535
G1 X190.98 Y144.443 E9.94137
G1 X191.545 Y146.311 E10.00628
G1 X191.707 Y146.984 E10.0293
G1 X191.771 Y147.443 E10.04471
G1 X191.943 Y149.139 E10.10141
G1 X191.974 Y149.735 E10.12126
G1 X191.99 Y159.982 E10.46208
G1 X191.951 Y160.673 E10.4851
G1 X191.833 Y161.355 E10.50812
G1 X191.637 Y162.02 E10.53118
G1 X191.365 Y162.657 E10.55421
G1 X191.022 Y163.258 E10.57723
G1 X190.612 Y163.816 E10.60026
G1 X190.141 Y164.324 E10.6233
G1 X189.614 Y164.773 E10.64633
G1 X189.039 Y165.159 E10.66936
G1 X188.423 Y165.476 E10.69241
G1 X187.775 Y165.719 E10.71542
G1 X187.103 Y165.887 E10.73846
G1 X186.416 Y165.976 E10.7615
G1 X185.99 Y165.991 E10.77568
G1 X114.009 Y165.991 E13.16978
G1 X113.318 Y165.951 E13.1928
G1 X112.635 Y165.832 E13.21586
G1 X111.972 Y165.634 E13.23887
G1 X111.335 Y165.362 E13.26191
G1 X110.734 Y165.018 E13.28494
G1 X110.176 Y164.607 E13.30799
G1 X109.67 Y164.135 E13.33101
G1 X109.221 Y163.607 E13.35406
G1 X108.836 Y163.032 E13.37707
G1 X108.521 Y162.415 E13.40012
G1 X108.278 Y161.767 E13.42313
G1 X108.111 Y161.094 E13.4462
G1 X108.023 Y160.408 E13.4692
G1 X108.009 Y159.997 E13.48288
G1 X108 Y150.681 E13.79273
G1 X108.017 Y150.222 E13.80801
G1 X108.216 Y147.593 E13.8957
G1 X108.308 Y146.907 E13.91872
G1 X108.457 Y146.306 E13.93931
G1 X109.025 Y144.431 E14.00447
G1 X109.263 Y143.781 E14.0275
G1 X109.48 Y143.335 E14.04399
G1 X110.408 Y141.605 E14.10929
G1 X110.77 Y141.014 E14.13234
G1 X111.055 Y140.637 E14.14806
G1 X112.274 Y139.15 E14.21201
G1 X112.743 Y138.641 E14.23503
G1 X113.116 Y138.309 E14.25164
M204 S5000
M205 X30 Y30
G0 F3600 X113.369 Y138.619
M204 S500
M205 X20 Y20
G1 F1800 X114.95 Y137.326 E14.31957
G1 X115.492 Y136.934 E14.34182
G1 X115.863 Y136.718 E14.3561
G1 X117.557 Y135.816 E14.41993
G1 X118.165 Y135.537 E14.44218
G1 X118.569 Y135.398 E14.45639
G1 X120.429 Y134.836 E14.52102
G1 X121.08 Y134.681 E14.54327
G1 X121.448 Y134.629 E14.55563
G1 X122.671 Y134.497 E14.59655
G1 X123.056 Y134.469 E14.60939
G1 X124.769 Y134.403 E14.6664
G1 X124.986 Y134.399 E14.67362
G1 X175.873 Y134.406 E16.36613
G1 X176.382 Y134.429 E16.38308
G1 X178.461 Y134.619 E16.45251
G1 X179.122 Y134.72 E16.47475
G1 X179.572 Y134.836 E16.49021
G1 X181.443 Y135.402 E16.55522
G1 X182.071 Y135.634 E16.57749
G1 X182.463 Y135.824 E16.59198
G1 X184.198 Y136.752 E16.65742
G1 X184.768 Y137.102 E16.67967
G1 X185.108 Y137.36 E16.69387
G1 X186.597 Y138.581 E16.75791
G1 X187.088 Y139.035 E16.78015
G1 X187.383 Y139.368 E16.79495
G1 X188.676 Y140.951 E16.86293
G1 X189.068 Y141.494 E16.88521
G1 X189.282 Y141.861 E16.89934
G1 X190.18 Y143.547 E16.96287
G1 X190.458 Y144.156 E16.98514
G1 X190.597 Y144.559 E16.99932
G1 X191.162 Y146.427 E17.06423
G1 X191.317 Y147.078 E17.08648
G1 X191.373 Y147.483 E17.10008
G1 X191.545 Y149.179 E17.15678
G1 X191.574 Y149.735 E17.1753
G1 X191.59 Y159.982 E17.51612
G1 X191.551 Y160.65 E17.53837
G1 X191.433 Y161.309 E17.56064
G1 X191.237 Y161.948 E17.58287
G1 X190.966 Y162.56 E17.60513
G1 X190.624 Y163.135 E17.62738
G1 X190.216 Y163.665 E17.64963
G1 X189.748 Y164.143 E17.67188
G1 X189.226 Y164.562 E17.69414
G1 X188.658 Y164.915 E17.71638
G1 X188.051 Y165.198 E17.73866
G1 X187.416 Y165.406 E17.76088
G1 X186.76 Y165.538 E17.78314
G1 X185.99 Y165.591 E17.80881
G1 X114.009 Y165.591 E20.20291
G1 X113.341 Y165.551 E20.22517
G1 X112.683 Y165.432 E20.24741
G1 X112.043 Y165.235 E20.26968
G1 X111.432 Y164.963 E20.29192
G1 X110.858 Y164.62 E20.31416
G1 X110.328 Y164.211 E20.33643
G1 X109.851 Y163.742 E20.35868
G1 X109.433 Y163.22 E20.38092
G1 X109.081 Y162.651 E20.40317
G1 X108.799 Y162.044 E20.42544
G1 X108.591 Y161.408 E20.44769
G1 X108.461 Y160.752 E20.46993
G1 X108.409 Y159.996 E20.49514
G1 X108.4 Y150.68 E20.80499
G1 X108.416 Y150.252 E20.81924
G1 X108.615 Y147.623 E20.90693
G1 X108.705 Y146.96 E20.92918
G1 X108.84 Y146.422 E20.94763
G1 X109.408 Y144.547 E21.01279
G1 X109.639 Y143.92 E21.03501
G1 X109.832 Y143.524 E21.04967
G1 X110.76 Y141.794 E21.11496
G1 X111.111 Y141.224 E21.13723
G1 X111.364 Y140.891 E21.15114
G1 X112.583 Y139.404 E21.21509
G1 X113.038 Y138.913 E21.23735
G1 X113.369 Y138.619 E21.25208
M204 S5000
M205 X30 Y30
G0 F3600 X113.622 Y138.929
M204 S500
M205 X20 Y20
G1 F1800 X115.203 Y137.636 E21.32001
G1 X115.726 Y137.259 E21.34145
G1 X116.051 Y137.071 E21.35394
G1 X117.745 Y136.169 E21.41777
G1 X118.332 Y135.902 E21.43922
G1 X118.685 Y135.781 E21.45163
G1 X120.545 Y135.219 E21.51626
G1 X121.491 Y135.027 E21.54836
G1 X122.714 Y134.895 E21.58928
G1 X123.072 Y134.869 E21.60122
G1 X124.785 Y134.803 E21.65823
G1 X124.986 Y134.799 E21.66492
G1 X175.873 Y134.806 E23.35743
G1 X176.345 Y134.828 E23.37314
G1 X178.424 Y135.018 E23.44258
G1 X179.061 Y135.116 E23.46402
G1 X179.457 Y135.219 E23.47762
G1 X181.328 Y135.785 E23.54264
G1 X181.932 Y136.009 E23.56407
G1 X182.275 Y136.177 E23.57677
G1 X184.01 Y137.105 E23.64221
G1 X184.558 Y137.443 E23.66363
G1 X184.854 Y137.669 E23.67601
G1 X186.343 Y138.89 E23.74006
G1 X186.815 Y139.329 E23.7615
G1 X187.073 Y139.621 E23.77446
G1 X188.366 Y141.204 E23.84244
G1 X188.742 Y141.728 E23.86389
G1 X188.929 Y142.049 E23.87625
G1 X189.827 Y143.735 E23.93978
G1 X190.094 Y144.322 E23.96123
G1 X190.214 Y144.675 E23.97363
G1 X190.779 Y146.543 E24.03854
G1 X190.927 Y147.17 E24.05997
G1 X190.975 Y147.523 E24.07182
G1 X191.147 Y149.219 E24.12851
G1 X191.174 Y149.736 E24.14573
G1 X191.19 Y159.983 E24.48655
G1 X191.151 Y160.626 E24.50798
G1 X191.033 Y161.26 E24.52943
G1 X190.837 Y161.874 E24.55086
G1 X190.567 Y162.46 E24.57232
G1 X190.226 Y163.007 E24.59376
G1 X189.82 Y163.508 E24.61521
G1 X189.356 Y163.955 E24.63664
G1 X188.839 Y164.341 E24.6581
G1 X188.279 Y164.66 E24.67953
G1 X187.684 Y164.907 E24.70096
G1 X187.063 Y165.079 E24.72239
G1 X186.425 Y165.173 E24.74384
G1 X185.99 Y165.191 E24.75832
G1 X114.009 Y165.191 E27.15242
G1 X113.366 Y165.151 E27.17385
G1 X112.732 Y165.032 E27.1953
G1 X112.118 Y164.835 E27.21675
G1 X111.533 Y164.564 E27.23819
G1 X110.986 Y164.222 E27.25965
G1 X110.486 Y163.816 E27.28107
G1 X110.04 Y163.351 E27.3025
G1 X109.655 Y162.834 E27.32394
G1 X109.336 Y162.273 E27.34541
G1 X109.09 Y161.677 E27.36685
G1 X108.919 Y161.056 E27.38827
G1 X108.827 Y160.418 E27.40971
G1 X108.809 Y159.996 E27.42376
G1 X108.8 Y150.68 E27.73361
G1 X108.815 Y150.283 E27.74683
G1 X109.014 Y147.654 E27.83452
G1 X109.102 Y147.015 E27.85597
G1 X109.222 Y146.538 E27.87233
G1 X109.79 Y144.663 E27.93749
G1 X110.015 Y144.059 E27.95893
G1 X110.185 Y143.713 E27.97175
G1 X111.113 Y141.983 E28.03705
G1 X111.452 Y141.435 E28.05848
G1 X111.674 Y141.144 E28.07065
G1 X112.893 Y139.657 E28.13461
G1 X113.331 Y139.185 E28.15602
G1 X113.622 Y138.929 E28.16891
M204 S5000
M205 X30 Y30
G1 F2400 E23.16891
G0 F3600 X116.553 Y142.373
G0 X117.367 Y143.364
G0 X124.48 Y152.632
M204 S500
M205 X20 Y20
;TYPE:WALL-INNER
G1 F2400 E28.16891
G1 F1800 X126 Y153.038 E28.22124
G1 X127.52 Y152.632 E28.27357
G1 X128.632 Y151.518 E28.32592
G1 X129.038 Y150 E28.37819
G1 X128.632 Y148.481 E28.43048
G1 X127.519 Y147.368 E28.48283
G1 X126 Y146.962 E28.53513
G1 X124.481 Y147.368 E28.58743
G1 X123.368 Y148.481 E28.63978
G1 X122.962 Y150 E28.69207
G1 X123.368 Y151.518 E28.74434
G1 X124.48 Y152.632 E28.79669
M204 S5000
M205 X30 Y30
G0 F3600 X125.848 Y152.66
G0 X145.977 Y150
M204 S500
M205 X20 Y20
G1 F1800 X146.284 Y151.539 E28.84888
G1 X147.157 Y152.843 E28.90108
G1 X148.461 Y153.716 E28.95327
G1 X150 Y154.023 E29.00547
G1 X151.539 Y153.716 E29.05766
G1 X152.843 Y152.843 E29.10986
G1 X153.716 Y151.539 E29.16205
G1 X154.023 Y150 E29.21425
G1 X153.716 Y148.461 E29.26644
G1 X152.843 Y147.157 E29.31863
G1 X151.539 Y146.284 E29.37083
G1 X150 Y145.977 E29.42302
G1 X148.461 Y146.284 E29.47522
G1 X147.157 Y147.157 E29.52741
G1 X146.284 Y148.461 E29.57961
G1 X145.977 Y150 E29.6318
M204 S5000
M205 X30 Y30
G0 F3600 X146.625 Y151.398
G0 X147.417 Y152.583
G0 X148.602 Y153.375
G0 X149.86 Y153.627
G0 X174.48 Y152.632
M204 S500
M205 X20 Y20
G1 F1800 X176 Y153.038 E29.68413
G1 X177.52 Y152.632 E29.73646
G1 X178.632 Y151.518 E29.78881
G1 X179.038 Y150 E29.84107
G1 X178.632 Y148.481 E29.89337
G1 X177.519 Y147.368 E29.94572
G1 X176 Y146.962 E29.99802
G1 X174.481 Y147.368 E30.05031
G1 X173.368 Y148.481 E30.10267
G1 X172.962 Y150 E30.15496
G1 X173.368 Y151.518 E30.20722
G1 X174.48 Y152.632 E30.25958
M204 S5000
M205 X30 Y30
G0 F3600 X173.693 Y151.33
G0 X173.336 Y150
G0 X173.657 Y148.803
G0 X177.757 Y141.171
M204 S500
M205 X20 Y20
G1 F1800 X179.444 Y141.682 E30.3182
G1 X181.004 Y142.518 E30.37707
G1 X182.363 Y143.631 E30.4355
G1 X183.484 Y145 E30.49435
G1 X184.317 Y146.556 E30.55305
G1 X184.828 Y148.244 E30.61171
G1 X185 Y149.986 E30.66993
G1 X185 Y159 E30.96974
G1 X115 Y159 E33.29794
G1 X115 Y150.016 E33.59675
G1 X115.174 Y148.244 E33.65597
G1 X115.685 Y146.556 E33.71463
G1 X116.521 Y144.996 E33.7735
G1 X117.637 Y143.634 E33.83207
G1 X118.999 Y142.518 E33.89063
G1 X120.559 Y141.682 E33.9495
G1 X122.246 Y141.171 E34.00812
G1 X123.988 Y140.999 E34.06635
G1 X176.005 Y140.999 E35.79644
G1 X177.757 Y141.171 E35.85499
M204 S5000
M205 X30 Y30
G0 F3600 X177.837 Y140.777
M204 S500
M205 X20 Y20
G1 F1800 X179.599 Y141.311 E35.91623
G1 X181.223 Y142.181 E35.9775
G1 X182.65 Y143.35 E36.03886
G1 X183.819 Y144.778 E36.10024
G1 X184.688 Y146.401 E36.16147
G1 X185.222 Y148.164 E36.22274
G1 X185.4 Y149.967 E36.283
G1 X185.4 Y159.4 E36.59674
G1 X114.6 Y159.4 E38.95156
G1 X114.6 Y149.997 E39.2643
G1 X114.78 Y148.164 E39.32556
G1 X115.314 Y146.401 E39.38683
G1 X116.184 Y144.777 E39.44811
G1 X117.353 Y143.35 E39.50946
G1 X118.78 Y142.181 E39.57082
G1 X120.404 Y141.311 E39.6321
G1 X122.166 Y140.777 E39.69333
G1 X123.969 Y140.599 E39.75359
G1 X176.024 Y140.599 E41.48495
G1 X177.837 Y140.777 E41.54554
M204 S5000
M205 X30 Y30
G0 F3600 X177.818 Y140.875
G0 X173.693 Y148.669
G0 X173.336 Y150
G0 X173.693 Y151.33
G0 X174.637 Y152.359
G0 X174.687 Y152.273
M204 S500
M205 X20 Y20
G1 F1800 X176 Y152.624 E41.59074
G1 X177.313 Y152.273 E41.63595
G1 X178.273 Y151.311 E41.68115
G1 X178.624 Y150 E41.72629
G1 X178.273 Y148.688 E41.77146
G1 X177.312 Y147.727 E41.81666
G1 X176 Y147.376 E41.86184
G1 X174.688 Y147.727 E41.90701
G1 X173.727 Y148.688 E41.95221
G1 X173.376 Y150 E41.99738
G1 X173.727 Y151.311 E42.04252
G1 X174.687 Y152.273 E42.08772
M204 S5000
M205 X30 Y30
G0 F3600 X174.637 Y152.359
G0 X150 Y153.655
G0 X148.602 Y153.375
G0 X147.417 Y152.583
G0 X146.625 Y151.398
G0 X146.285 Y150
G0 X146.385 Y150
M204 S500
M205 X20 Y20
G1 F1800 X146.661 Y151.383 E42.13463
G1 X147.445 Y152.555 E42.18153
G1 X148.617 Y153.339 E42.22843
G1 X150 Y153.615 E42.27533
G1 X151.383 Y153.339 E42.32224
G1 X152.555 Y152.555 E42.36914
G1 X153.339 Y151.383 E42.41603
G1 X153.615 Y150 E42.46294
G1 X153.339 Y148.617 E42.50985
G1 X152.555 Y147.445 E42.55675
G1 X151.383 Y146.661 E42.60364
G1 X150 Y146.385 E42.65055
G1 X148.617 Y146.661 E42.69746
G1 X147.445 Y147.445 E42.74435
G1 X146.661 Y148.617 E42.79125
G1 X146.385 Y150 E42.83816
M204 S5000
M205 X30 Y30
G0 F3600 X146.285 Y150
G0 X126 Y152.664
G0 X124.637 Y152.359
G0 X124.687 Y152.273
M204 S500
M205 X20 Y20
G1 F1800 X126 Y152.624 E42.88336
G1 X127.313 Y152.273 E42.92857
G1 X128.273 Y151.311 E42.97377
G1 X128.624 Y150 E43.01891
G1 X128.273 Y148.688 E43.06408
G1 X127.312 Y147.727 E43.10928
G1 X126 Y147.376 E43.15445
G1 X124.688 Y147.727 E43.19963
G1 X123.727 Y148.688 E43.24483
G1 X123.376 Y150 E43.29
G1 X123.727 Y151.311 E43.33514
G1 X124.687 Y152.273 E43.38034
M204 S5000
M205 X30 Y30
G0 F3600 X124.894 Y151.914
M204 S500
M205 X20 Y20
;TYPE:WALL-OUTER
G1 F1800 X126 Y152.21 E43.41842
G1 X127.106 Y151.914 E43.4565
G1 X127.914 Y151.104 E43.49456
G1 X128.21 Y150 E43.53257
G1 X127.914 Y148.895 E43.57062
G1 X127.105 Y148.086 E43.60867
G1 X126 Y147.79 E43.64672
G1 X124.895 Y148.086 E43.68477
G1 X124.086 Y148.895 E43.72282
G1 X123.79 Y150 E43.76087
G1 X124.086 Y151.104 E43.79889
G1 X124.894 Y151.914 E43.83694
M204 S5000
M205 X30 Y30
G0 F3600 X125.087 Y151.965
G0 X124.957 Y152.448
G0 X125.895 Y152.642
G0 X146.303 Y149.902
G0 X146.793 Y150
M204 S500
M205 X20 Y20
G1 F1800 X147.038 Y151.227 E43.87856
G1 X147.733 Y152.267 E43.92016
G1 X148.773 Y152.962 E43.96176
G1 X150 Y153.207 E44.00338
G1 X151.227 Y152.962 E44.04499
G1 X152.267 Y152.267 E44.0866
G1 X152.962 Y151.227 E44.1282
