;FLAVOR:Marlin
;TIME:813
;Filament used: 0.583481m
;Layer height: 0.2
;Generated with Cura_SteamEngine 3.4.1
M190 S65
M104 S210
M109 S210
M82 ;absolute extrusion mode
G28 ;Home
G1 Z15.0 F6000 ;Move the platform down 15mm
;Prime the extruder
G92 E0
G1 F200 E3
G92 E0
G92 E0
G1 F2400 E-5
;LAYER_COUNT:71
;LAYER:0
M107
M204 S5000
M205 X30 Y30
G0 F3600 X127.824 Y135.995 Z0.2
M204 S500
M205 X20 Y20
;TYPE:SKIRT
G1 F2400 E0
G1 F1800 X128.356 Y135.516 E0.02381
G1 X128.938 Y135.101 E0.04758
G1 X129.563 Y134.752 E0.07139
G1 X130.223 Y134.476 E0.09519
G1 X130.909 Y134.275 E0.11896
G1 X131.614 Y134.152 E0.14277
G1 X132.362 Y134.108 E0.16769
G1 X167.638 Y134.109 E1.34097
G1 X168.352 Y134.149 E1.36476
G1 X169.058 Y134.268 E1.38857
G1 X169.745 Y134.466 E1.41235
G1 X170.406 Y134.739 E1.43614
G1 X171.033 Y135.084 E1.45994
G1 X171.617 Y135.496 E1.48371
G1 X172.152 Y135.972 E1.50753
G1 X172.63 Y136.504 E1.53131
G1 X173.045 Y137.086 E1.55509
G1 X173.394 Y137.71 E1.57887
G1 X173.67 Y138.37 E1.60266
G1 X173.871 Y139.056 E1.62644
G1 X173.994 Y139.761 E1.65024
G1 X174.038 Y140.509 E1.67516
G1 X174.038 Y159.492 E2.30654
G1 X173.998 Y160.206 E2.33032
G1 X173.879 Y160.911 E2.3541
G1 X173.681 Y161.599 E2.37792
G1 X173.408 Y162.26 E2.4017
G1 X173.064 Y162.887 E2.42549
G1 X172.651 Y163.471 E2.44928
G1 X172.176 Y164.005 E2.47305
G1 X171.644 Y164.484 E2.49686
G1 X171.062 Y164.899 E2.52063
G1 X170.437 Y165.248 E2.54444
G1 X169.777 Y165.524 E2.56824
G1 X169.091 Y165.725 E2.59201
G1 X168.386 Y165.848 E2.61582
G1 X167.638 Y165.892 E2.64074
G1 X132.362 Y165.892 E3.81402
G1 X131.648 Y165.852 E3.83781
G1 X130.943 Y165.733 E3.86159
G1 X130.255 Y165.535 E3.8854
G1 X129.594 Y165.262 E3.90918
G1 X128.967 Y164.918 E3.93297
G1 X128.383 Y164.505 E3.95676
G1 X127.849 Y164.03 E3.98053
G1 X127.37 Y163.498 E4.00434
G1 X126.955 Y162.916 E4.02812
G1 X126.606 Y162.291 E4.05193
G1 X126.33 Y161.631 E4.07572
G1 X126.129 Y160.945 E4.0995
G1 X126.006 Y160.24 E4.1233
G1 X125.962 Y159.492 E4.14822
G1 X125.962 Y140.508 E4.77963
G1 X126.002 Y139.794 E4.80341
G1 X126.121 Y139.089 E4.82719
G1 X126.319 Y138.401 E4.85101
G1 X126.592 Y137.74 E4.87479
G1 X126.936 Y137.113 E4.89858
G1 X127.349 Y136.529 E4.92237
G1 X127.824 Y135.995 E4.94614
M204 S5000
M205 X30 Y30
G0 F3600 X128.218 Y136.169
M204 S500
M205 X20 Y20
G1 F1800 X128.746 Y135.72 E4.96919
G1 X129.321 Y135.335 E4.99221
G1 X129.938 Y135.02 E5.01525
G1 X130.586 Y134.777 E5.03827
G1 X131.259 Y134.61 E5.06133
G1 X131.945 Y134.522 E5.08433
G1 X132.362 Y134.508 E5.09821
G1 X167.638 Y134.509 E6.2715
G1 X168.33 Y134.549 E6.29455
G1 X169.012 Y134.668 E6.31758
G1 X169.676 Y134.866 E6.34062
G1 X170.312 Y135.138 E6.36363
G1 X170.913 Y135.482 E6.38666
G1 X171.471 Y135.893 E6.40971
G1 X171.977 Y136.365 E6.43273
G1 X172.426 Y136.893 E6.45578
G1 X172.811 Y137.469 E6.47882
G1 X173.127 Y138.085 E6.50185
G1 X173.369 Y138.733 E6.52486
G1 X173.536 Y139.406 E6.54792
G1 X173.624 Y140.093 E6.57095
G1 X173.638 Y140.509 E6.5848
G1 X173.638 Y159.492 E7.21618
G1 X173.598 Y160.183 E7.2392
G1 X173.479 Y160.866 E7.26226
G1 X173.281 Y161.529 E7.28527
G1 X173.009 Y162.166 E7.30831
G1 X172.665 Y162.767 E7.33134
G1 X172.254 Y163.325 E7.35439
G1 X171.782 Y163.831 E7.3774
G1 X171.254 Y164.28 E7.40046
G1 X170.679 Y164.665 E7.42347
G1 X170.062 Y164.98 E7.44651
G1 X169.414 Y165.223 E7.46953
G1 X168.741 Y165.39 E7.4926
G1 X168.055 Y165.478 E7.5156
G1 X167.638 Y165.492 E7.52948
G1 X132.362 Y165.492 E8.70276
G1 X131.671 Y165.452 E8.72578
G1 X130.988 Y165.333 E8.74884
G1 X130.325 Y165.135 E8.77185
G1 X129.688 Y164.863 E8.79489
G1 X129.087 Y164.519 E8.81792
G1 X128.529 Y164.108 E8.84097
G1 X128.023 Y163.636 E8.86399
G1 X127.574 Y163.108 E8.88704
G1 X127.189 Y162.533 E8.91006
G1 X126.874 Y161.916 E8.9331
G1 X126.631 Y161.268 E8.95612
G1 X126.464 Y160.595 E8.97918
G1 X126.376 Y159.909 E9.00218
G1 X126.362 Y159.492 E9.01606
G1 X126.362 Y140.508 E9.64747
G1 X126.402 Y139.817 E9.67049
G1 X126.521 Y139.134 E9.69355
G1 X126.719 Y138.471 E9.71656
G1 X126.991 Y137.834 E9.7396
G1 X127.335 Y137.233 E9.76263
G1 X127.746 Y136.675 E9.78568
G1 X128.218 Y136.169 E9.8087
M204 S5000
M205 X30 Y30
G0 F3600 X128.611 Y136.35
M204 S500
M205 X20 Y20
G1 F1800 X129.133 Y135.932 E9.83094
G1 X129.702 Y135.58 E9.8532
G1 X130.309 Y135.298 E9.87546
G1 X130.945 Y135.09 E9.89771
G1 X131.601 Y134.96 E9.91996
G1 X132.362 Y134.908 E9.94533
G1 X167.638 Y134.909 E11.11861
G1 X168.306 Y134.949 E11.14087
G1 X168.964 Y135.068 E11.16311
G1 X169.604 Y135.265 E11.18538
G1 X170.215 Y135.537 E11.20762
G1 X170.79 Y135.88 E11.22989
G1 X171.319 Y136.289 E11.25213
G1 X171.796 Y136.758 E11.27438
G1 X172.214 Y137.281 E11.29665
G1 X172.566 Y137.849 E11.31888
G1 X172.848 Y138.456 E11.34114
G1 X173.056 Y139.092 E11.36339
G1 X173.186 Y139.748 E11.38564
G1 X173.238 Y140.509 E11.41101
G1 X173.238 Y159.492 E12.04238
G1 X173.198 Y160.16 E12.06464
G1 X173.079 Y160.818 E12.08688
G1 X172.882 Y161.458 E12.10915
G1 X172.61 Y162.069 E12.1314
G1 X172.267 Y162.643 E12.15364
G1 X171.858 Y163.173 E12.1759
G1 X171.389 Y163.65 E12.19815
G1 X170.867 Y164.068 E12.2204
G1 X170.298 Y164.42 E12.24265
G1 X169.691 Y164.702 E12.26491
G1 X169.055 Y164.91 E12.28717
G1 X168.399 Y165.04 E12.30941
G1 X167.638 Y165.092 E12.33478
G1 X132.362 Y165.092 E13.50806
G1 X131.694 Y165.052 E13.53032
G1 X131.036 Y164.933 E13.55256
G1 X130.396 Y164.736 E13.57483
G1 X129.785 Y164.464 E13.59708
G1 X129.211 Y164.121 E13.61932
G1 X128.681 Y163.712 E13.64159
G1 X128.204 Y163.243 E13.66383
G1 X127.786 Y162.721 E13.68608
G1 X127.434 Y162.152 E13.70833
G1 X127.152 Y161.545 E13.73059
G1 X126.944 Y160.909 E13.75285
G1 X126.814 Y160.253 E13.77509
G1 X126.762 Y159.492 E13.80046
G1 X126.762 Y140.508 E14.43187
G1 X126.802 Y139.84 E14.45413
G1 X126.921 Y139.182 E14.47637
G1 X127.118 Y138.542 E14.49864
G1 X127.39 Y137.931 E14.52089
G1 X127.733 Y137.357 E14.54313
G1 X128.142 Y136.827 E14.56539
G1 X128.611 Y136.35 E14.58764
M204 S5000
M205 X30 Y30
G0 F3600 X128.537 Y136.985
M204 S500
M205 X20 Y20
G1 F1800 X129.002 Y136.539 E14.60907
G1 X129.519 Y136.154 E14.63051
G1 X130.08 Y135.835 E14.65198
G1 X130.676 Y135.589 E14.67342
G1 X131.297 Y135.418 E14.69484
G1 X131.935 Y135.326 E14.71628
G1 X132.362 Y135.308 E14.7305
G1 X167.638 Y135.309 E15.90378
G1 X168.282 Y135.349 E15.92524
G1 X168.915 Y135.468 E15.94667
G1 X169.529 Y135.665 E15.96811
G1 X170.114 Y135.936 E15.98956
G1 X170.661 Y136.278 E16.01101
G1 X171.161 Y136.684 E16.03244
G1 X171.607 Y137.15 E16.05389
G1 X171.992 Y137.667 E16.07533
G1 X172.311 Y138.227 E16.09676
G1 X172.557 Y138.823 E16.11821
G1 X172.728 Y139.445 E16.13967
G1 X172.82 Y140.082 E16.16107
G1 X172.838 Y140.509 E16.17529
G1 X172.838 Y159.492 E16.80666
G1 X172.798 Y160.135 E16.82809
G1 X172.679 Y160.769 E16.84955
G1 X172.482 Y161.383 E16.87099
G1 X172.211 Y161.968 E16.89244
G1 X171.869 Y162.515 E16.91389
G1 X171.463 Y163.015 E16.93532
G1 X170.998 Y163.461 E16.95675
G1 X170.481 Y163.846 E16.97819
G1 X169.92 Y164.165 E16.99965
G1 X169.324 Y164.411 E17.0211
G1 X168.703 Y164.582 E17.04252
G1 X168.065 Y164.674 E17.06396
G1 X167.638 Y164.692 E17.07817
G1 X132.362 Y164.692 E18.25146
G1 X131.719 Y164.652 E18.27288
G1 X131.085 Y164.533 E18.29434
G1 X130.471 Y164.336 E18.31579
G1 X129.886 Y164.065 E18.33723
G1 X129.339 Y163.723 E18.35869
G1 X128.839 Y163.317 E18.38011
G1 X128.393 Y162.852 E18.40154
G1 X128.008 Y162.335 E18.42298
G1 X127.689 Y161.774 E18.44444
G1 X127.443 Y161.178 E18.46589
G1 X127.272 Y160.557 E18.48731
G1 X127.18 Y159.919 E18.50875
G1 X127.162 Y159.492 E18.52297
G1 X127.162 Y140.508 E19.15438
G1 X127.202 Y139.865 E19.1758
G1 X127.321 Y139.231 E19.19726
G1 X127.518 Y138.617 E19.21871
G1 X127.789 Y138.032 E19.24015
G1 X128.131 Y137.485 E19.26161
G1 X128.537 Y136.985 E19.28303
M204 S5000
M205 X30 Y30
G1 F2400 E14.28303
G0 F3600 X131.688 Y141.113
G0 X132.967 Y141.113
G0 X166.647 Y158.501
M204 S500
M205 X20 Y20
;TYPE:WALL-INNER
G1 F2400 E19.28303
G1 F1800 X133.353 Y158.501 E20.39039
G1 X133.353 Y141.499 E20.95588
G1 X166.647 Y141.499 E22.06324
G1 X166.647 Y158.501 E22.62873
M204 S5000
M205 X30 Y30
G0 F3600 X167.047 Y158.901
M204 S500
M205 X20 Y20
G1 F1800 X132.953 Y158.901 E23.7627
G1 X132.953 Y141.099 E24.3548
G1 X167.047 Y141.099 E25.48877
G1 X167.047 Y158.901 E26.08087
M204 S5000
M205 X30 Y30
G0 F3600 X167.447 Y159.301
M204 S500
M205 X20 Y20
;TYPE:WALL-OUTER
G1 F1800 X132.553 Y159.301 E27.24145
G1 X132.553 Y140.699 E27.86015
G1 X167.447 Y140.699 E29.02073
G1 X167.447 Y159.301 E29.63944
M204 S5000
M205 X30 Y30
G0 F3600 X167.247 Y159.301
G0 X166.977 Y158.831
G0 X166.257 Y158.111
M204 S500
M205 X20 Y20
;TYPE:SKIN
G1 F1800 X133.743 Y158.111 E30.72086
G1 X133.743 Y141.889 E31.2604
G1 X166.257 Y141.889 E32.34182
G1 X166.257 Y158.111 E32.88137
M204 S5000
M205 X30 Y30
G0 F3600 X158.257 Y150.111
M204 S500
M205 X20 Y20
G1 F1800 X141.743 Y150.111 E33.43063
G1 X141.743 Y149.889 E33.43801
G1 X158.257 Y149.889 E33.98727
G1 X158.257 Y150.111 E33.99465
M204 S5000
M205 X30 Y30
G0 F3600 X158.657 Y150.511
M204 S500
M205 X20 Y20
G1 F1800 X141.343 Y150.511 E34.57052
G1 X141.343 Y149.489 E34.60451
G1 X158.657 Y149.489 E35.18038
G1 X158.657 Y150.511 E35.21437
M204 S5000
M205 X30 Y30
G0 F3600 X159.057 Y150.911
M204 S500
M205 X20 Y20
G1 F1800 X140.943 Y150.911 E35.81684
G1 X140.943 Y149.089 E35.87744
G1 X159.057 Y149.089 E36.47992
G1 X159.057 Y150.911 E36.54052
M204 S5000
M205 X30 Y30
G0 F3600 X159.457 Y151.311
M204 S500
M205 X20 Y20
G1 F1800 X140.543 Y151.311 E37.1696
G1 X140.543 Y148.689 E37.25681
G1 X159.457 Y148.689 E37.88589
G1 X159.457 Y151.311 E37.9731
M204 S5000
M205 X30 Y30
G0 F3600 X159.857 Y151.711
M204 S500
M205 X20 Y20
G1 F1800 X140.143 Y151.711 E38.62879
G1 X140.143 Y148.289 E38.7426
G1 X159.857 Y148.289 E39.39829
G1 X159.857 Y151.711 E39.51211
M204 S5000
M205 X30 Y30
G0 F3600 X160.257 Y152.111
M204 S500
M205 X20 Y20
G1 F1800 X139.743 Y152.111 E40.19441
G1 X139.743 Y147.889 E40.33483
G1 X160.257 Y147.889 E41.01713
G1 X160.257 Y152.111 E41.15755
M204 S5000
M205 X30 Y30
G0 F3600 X160.657 Y152.511
M204 S500
M205 X20 Y20
G1 F1800 X139.343 Y152.511 E41.86646
G1 X139.343 Y147.489 E42.03349
G1 X160.657 Y147.489 E42.7424
G1 X160.657 Y152.511 E42.90943
M204 S5000
M205 X30 Y30
G0 F3600 X161.057 Y152.911
M204 S500
M205 X20 Y20
G1 F1800 X138.943 Y152.911 E43.64495
G1 X138.943 Y147.089 E43.83859
G1 X161.057 Y147.089 E44.5741
G1 X161.057 Y152.911 E44.76774
M204 S5000
M205 X30 Y30
G0 F3600 X161.457 Y153.311
M204 S500
M205 X20 Y20
G1 F1800 X138.543 Y153.311 E45.52987
G1 X138.543 Y146.689 E45.75011
G1 X161.457 Y146.689 E46.51224
G1 X161.457 Y153.311 E46.73249
M204 S5000
M205 X30 Y30
G0 F3600 X161.857 Y153.711
M204 S500
M205 X20 Y20
G1 F1800 X138.143 Y153.711 E47.52122
G1 X138.143 Y146.289 E47.76807
G1 X161.857 Y146.289 E48.5568
G1 X161.857 Y153.711 E48.80366
M204 S5000
M205 X30 Y30
G0 F3600 X162.257 Y154.111
M204 S500
M205 X20 Y20
G1 F1800 X137.743 Y154.111 E49.619
G1 X137.743 Y145.889 E49.89246
G1 X162.257 Y145.889 E50.7078
G1 X162.257 Y154.111 E50.98127
M204 S5000
M205 X30 Y30
G0 F3600 X162.657 Y154.511
M204 S500
M205 X20 Y20
G1 F1800 X137.343 Y154.511 E51.82321
G1 X137.343 Y145.489 E52.12329
G1 X162.657 Y145.489 E52.96523
G1 X162.657 Y154.511 E53.26531
M204 S5000
M205 X30 Y30
G0 F3600 X163.057 Y154.911
M204 S500
M205 X20 Y20
G1 F1800 X136.943 Y154.911 E54.13386
G1 X136.943 Y145.089 E54.46054
G1 X163.057 Y145.089 E55.3291
G1 X163.057 Y154.911 E55.65578
M204 S5000
M205 X30 Y30
G0 F3600 X163.457 Y155.311
M204 S500
M205 X20 Y20
G1 F1800 X136.543 Y155.311 E56.55094
G1 X136.543 Y144.689 E56.90423
G1 X163.457 Y144.689 E57.7994
G1 X163.457 Y155.311 E58.15269
M204 S5000
M205 X30 Y30
G0 F3600 X163.857 Y155.711
M204 S500
M205 X20 Y20
G1 F1800 X136.143 Y155.711 E59.07446
G1 X136.143 Y144.289 E59.45435
G1 X163.857 Y144.289 E60.37613
G1 X163.857 Y155.711 E60.75602
M204 S5000
M205 X30 Y30
G0 F3600 X164.257 Y156.111
M204 S500
M205 X20 Y20
G1 F1800 X135.743 Y156.111 E61.7044
G1 X135.743 Y143.889 E62.11091
G1 X164.257 Y143.889 E63.05929
G1 X164.257 Y156.111 E63.46579
M204 S5000
M205 X30 Y30
G0 F3600 X164.657 Y156.511
M204 S500
M205 X20 Y20
G1 F1800 X135.343 Y156.511 E64.44078
G1 X135.343 Y143.489 E64.87389
G1 X164.657 Y143.489 E65.84888
G1 X164.657 Y156.511 E66.28199
M204 S5000
M205 X30 Y30
G0 F3600 X165.057 Y156.911
M204 S500
M205 X20 Y20
G1 F1800 X134.943 Y156.911 E67.28359
G1 X134.943 Y143.089 E67.74331
G1 X165.057 Y143.089 E68.74491
G1 X165.057 Y156.911 E69.20463
M204 S5000
M205 X30 Y30
G0 F3600 X165.457 Y157.311
M204 S500
M205 X20 Y20
G1 F1800 X134.543 Y157.311 E70.23283
G1 X134.543 Y142.689 E70.71916
G1 X165.457 Y142.689 E71.74737
G1 X165.457 Y157.311 E72.2337
M204 S5000
M205 X30 Y30
G0 F3600 X165.857 Y157.711
M204 S500
M205 X20 Y20
G1 F1800 X134.143 Y157.711 E73.28851
G1 X134.143 Y142.289 E73.80145
G1 X165.857 Y142.289 E74.85626
G1 X165.857 Y157.711 E75.3692
M204 S5000
M205 X30 Y30
G0 F3600 X166.647 Y158.501
;TIME_ELAPSED:87.465212
;LAYER:1
M140 S65
M106 S255
G0 F5400 X166.647 Y158.501 Z0.4
M204 S500
M205 X20 Y20
;TYPE:WALL-INNER
G1 F2700 X133.353 Y158.501 E76.47656
G1 X133.353 Y141.499 E77.04205
G1 X166.647 Y141.499 E78.14941
G1 X166.647 Y158.501 E78.7149
M204 S5000
M205 X30 Y30
G0 F5400 X167.047 Y158.901
M204 S500
M205 X20 Y20
G1 F2700 X132.953 Y158.901 E79.84887
G1 X132.953 Y141.099 E80.44097
G1 X167.047 Y141.099 E81.57494
G1 X167.047 Y158.901 E82.16703
M204 S5000
M205 X30 Y30
G0 F5400 X167.447 Y159.301
M204 S500
M205 X20 Y20
;TYPE:WALL-OUTER
G1 F1800 X132.553 Y159.301 E83.32761
G1 X132.553 Y140.699 E83.94632
G1 X167.447 Y140.699 E85.1069
G1 X167.447 Y159.301 E85.7256
M204 S5000
M205 X30 Y30
G0 F5400 X167.247 Y159.301
G0 X166.977 Y158.831
G0 X166.257 Y158.111
M204 S500
M205 X20 Y20
;TYPE:SKIN
G1 F1800 X133.743 Y158.111 E86.80702
G1 X133.743 Y141.889 E87.34657
G1 X166.257 Y141.889 E88.42799
G1 X166.257 Y158.111 E88.96753
M204 S5000
M205 X30 Y30
G0 F5400 X158.257 Y150.111
M204 S500
M205 X20 Y20
G1 F1800 X141.743 Y150.111 E89.51679
G1 X141.743 Y149.889 E89.52418
G1 X158.257 Y149.889 E90.07343
G1 X158.257 Y150.111 E90.08082
M204 S5000
M205 X30 Y30
G0 F5400 X158.657 Y150.511
M204 S500
M205 X20 Y20
G1 F1800 X141.343 Y150.511 E90.65668
G1 X141.343 Y149.489 E90.69068
G1 X158.657 Y149.489 E91.26654
G1 X158.657 Y150.511 E91.30053
M204 S5000
M205 X30 Y30
G0 F5400 X159.057 Y150.911
M204 S500
M205 X20 Y20
G1 F1800 X140.943 Y150.911 E91.90301
G1 X140.943 Y149.089 E91.96361
G1 X159.057 Y149.089 E92.56608
G1 X159.057 Y150.911 E92.62668
M204 S5000
M205 X30 Y30
G0 F5400 X159.457 Y151.311
M204 S500
M205 X20 Y20
G1 F1800 X140.543 Y151.311 E93.25576
G1 X140.543 Y148.689 E93.34297
G1 X159.457 Y148.689 E93.97205
G1 X159.457 Y151.311 E94.05926
M204 S5000
M205 X30 Y30
G0 F5400 X159.857 Y151.711
M204 S500
M205 X20 Y20
G1 F1800 X140.143 Y151.711 E94.71495
G1 X140.143 Y148.289 E94.82877
G1 X159.857 Y148.289 E95.48446
G1 X159.857 Y151.711 E95.59828
M204 S5000
M205 X30 Y30
G0 F5400 X160.257 Y152.111
M204 S500
M205 X20 Y20
G1 F1800 X139.743 Y152.111 E96.28057
G1 X139.743 Y147.889 E96.421
G1 X160.257 Y147.889 E97.1033
G1 X160.257 Y152.111 E97.24372
M204 S5000
M205 X30 Y30
G0 F5400 X160.657 Y152.511
M204 S500
M205 X20 Y20
G1 F1800 X139.343 Y152.511 E97.95263
G1 X139.343 Y147.489 E98.11966
G1 X160.657 Y147.489 E98.82857
G1 X160.657 Y152.511 E98.9956
M204 S5000
M205 X30 Y30
G0 F5400 X161.057 Y152.911
M204 S500
M205 X20 Y20
G1 F1800 X138.943 Y152.911 E99.73111
G1 X138.943 Y147.089 E99.92475
G1 X161.057 Y147.089 E100.66027
G1 X161.057 Y152.911 E100.85391
M204 S5000
M205 X30 Y30
G0 F5400 X161.457 Y153.311
M204 S500
M205 X20 Y20
G1 F1800 X138.543 Y153.311 E101.61603
G1 X138.543 Y146.689 E101.83628
G1 X161.457 Y146.689 E102.5984
G1 X161.457 Y153.311 E102.81865
M204 S5000
M205 X30 Y30
G0 F5400 X161.857 Y153.711
M204 S500
M205 X20 Y20
G1 F1800 X138.143 Y153.711 E103.60738
G1 X138.143 Y146.289 E103.85424
G1 X161.857 Y146.289 E104.64297
G1 X161.857 Y153.711 E104.88983
M204 S5000
M205 X30 Y30
G0 F5400 X162.257 Y154.111
M204 S500
M205 X20 Y20
G1 F1800 X137.743 Y154.111 E105.70517
G1 X137.743 Y145.889 E105.97863
G1 X162.257 Y145.889 E106.79397
G1 X162.257 Y154.111 E107.06743
M204 S5000
M205 X30 Y30
