;FLAVOR:Marlin
;TIME:1306
;Filament used: 1.40353m
;Layer height: 0.2
;Generated with Cura_SteamEngine 3.4.1
M190 S65
M104 S210
M109 S210
M82 ;absolute extrusion mode
G28 ;Home
G1 Z15.0 F6000 ;Move the platform down 15mm
;Prime the extruder
G92 E0
G1 F200 E3
G92 E0
G92 E0
G1 F2400 E-5
;LAYER_COUNT:71
;LAYER:0
M107
M204 S5000
M205 X30 Y30
G0 F3600 X130.971 Y130.996 Z0.2
M204 S500
M205 X20 Y20
;TYPE:SKIRT
G1 F2400 E0
G1 F1800 X131.503 Y130.517 E0.02381
G1 X132.085 Y130.102 E0.04758
G1 X132.71 Y129.753 E0.07139
G1 X133.37 Y129.477 E0.09519
G1 X134.056 Y129.276 E0.11896
G1 X134.761 Y129.153 E0.14277
G1 X135.509 Y129.109 E0.16769
G1 X164.491 Y129.11 E1.13163
G1 X165.205 Y129.15 E1.15542
G1 X165.911 Y129.269 E1.17923
G1 X166.598 Y129.467 E1.20301
G1 X167.259 Y129.74 E1.2268
G1 X167.886 Y130.085 E1.2506
G1 X168.47 Y130.497 E1.27437
G1 X169.005 Y130.973 E1.29819
G1 X169.483 Y131.505 E1.32198
G1 X169.898 Y132.087 E1.34575
G1 X170.247 Y132.711 E1.36953
G1 X170.523 Y133.371 E1.39332
G1 X170.724 Y134.058 E1.41713
G1 X170.847 Y134.762 E1.4409
G1 X170.891 Y135.51 E1.46582
G1 X170.89 Y149.495 E1.93097
G1 X170.85 Y150.21 E1.95478
G1 X170.731 Y150.915 E1.97856
G1 X170.533 Y151.602 E2.00234
G1 X170.26 Y152.263 E2.02613
G1 X169.915 Y152.89 E2.04993
G1 X169.503 Y153.474 E2.0737
G1 X169.027 Y154.009 E2.09752
G1 X168.654 Y154.355 E2.11444
G1 X164.465 Y157.944 E2.29791
G1 X160.622 Y161.633 E2.47509
G1 X158.857 Y163.475 E2.55994
G1 X154.333 Y168.682 E2.78936
G1 X153.834 Y169.195 E2.81317
G1 X153.281 Y169.649 E2.83696
G1 X152.682 Y170.039 E2.86074
G1 X152.042 Y170.359 E2.88454
G1 X151.371 Y170.606 E2.90832
G1 X150.676 Y170.776 E2.93211
G1 X149.967 Y170.868 E2.95589
G1 X149.504 Y170.885 E2.9713
G1 X135.512 Y170.891 E3.43668
G1 X134.798 Y170.851 E3.46046
G1 X134.092 Y170.732 E3.48428
G1 X133.405 Y170.535 E3.50805
G1 X132.743 Y170.263 E3.53185
G1 X132.117 Y169.918 E3.55563
G1 X131.532 Y169.506 E3.57942
G1 X130.998 Y169.03 E3.60322
G1 X130.519 Y168.499 E3.627
G1 X130.103 Y167.917 E3.6508
G1 X129.755 Y167.292 E3.67459
G1 X129.478 Y166.633 E3.69836
G1 X129.277 Y165.946 E3.72217
G1 X129.153 Y165.242 E3.74595
G1 X129.109 Y164.491 E3.77097
G1 X129.109 Y135.509 E4.73491
G1 X129.149 Y134.795 E4.7587
G1 X129.268 Y134.09 E4.78248
G1 X129.466 Y133.402 E4.80629
G1 X129.739 Y132.741 E4.83008
G1 X130.083 Y132.114 E4.85386
G1 X130.496 Y131.53 E4.87765
G1 X130.971 Y130.996 E4.90142
M204 S5000
M205 X30 Y30
G0 F3600 X131.365 Y131.17
M204 S500
M205 X20 Y20
G1 F1800 X131.893 Y130.721 E4.92448
G1 X132.468 Y130.336 E4.94749
G1 X133.085 Y130.021 E4.97053
G1 X133.733 Y129.778 E4.99355
G1 X134.406 Y129.611 E5.01661
G1 X135.092 Y129.523 E5.03962
G1 X135.509 Y129.509 E5.0535
G1 X164.491 Y129.51 E6.01744
G1 X165.183 Y129.55 E6.04049
G1 X165.865 Y129.669 E6.06352
G1 X166.529 Y129.867 E6.08657
G1 X167.165 Y130.139 E6.10957
G1 X167.766 Y130.483 E6.13261
G1 X168.324 Y130.894 E6.15566
G1 X168.83 Y131.366 E6.17867
G1 X169.279 Y131.894 E6.20172
G1 X169.664 Y132.47 E6.22477
G1 X169.98 Y133.086 E6.24779
G1 X170.222 Y133.735 E6.27083
G1 X170.389 Y134.407 E6.29386
G1 X170.477 Y135.094 E6.3169
G1 X170.491 Y135.51 E6.33074
G1 X170.49 Y149.495 E6.79589
G1 X170.45 Y150.187 E6.81894
G1 X170.331 Y150.869 E6.84197
G1 X170.133 Y151.533 E6.86501
G1 X169.861 Y152.17 E6.88805
G1 X169.517 Y152.771 E6.91108
G1 X169.106 Y153.328 E6.9341
G1 X168.394 Y154.052 E6.96788
G1 X164.183 Y157.66 E7.15232
G1 X160.338 Y161.35 E7.32956
G1 X158.568 Y163.197 E7.41465
G1 X154.031 Y168.42 E7.64476
G1 X153.547 Y168.916 E7.66781
G1 X153.01 Y169.352 E7.69081
G1 X152.425 Y169.724 E7.71387
G1 X151.802 Y170.026 E7.7369
G1 X151.148 Y170.254 E7.75993
G1 X150.473 Y170.406 E7.78295
G1 X149.504 Y170.485 E7.81528
G1 X135.512 Y170.491 E8.28066
G1 X134.82 Y170.451 E8.30371
G1 X134.138 Y170.332 E8.32674
G1 X133.474 Y170.135 E8.34978
G1 X132.837 Y169.863 E8.37281
G1 X132.236 Y169.52 E8.39583
G1 X131.678 Y169.109 E8.41888
G1 X131.172 Y168.637 E8.44189
G1 X130.723 Y168.109 E8.46495
G1 X130.338 Y167.534 E8.48796
G1 X130.022 Y166.918 E8.51099
G1 X129.779 Y166.269 E8.53404
G1 X129.612 Y165.597 E8.55707
G1 X129.524 Y164.91 E8.5801
G1 X129.509 Y164.491 E8.59405
G1 X129.509 Y135.509 E9.55799
G1 X129.549 Y134.818 E9.58102
G1 X129.668 Y134.135 E9.60407
G1 X129.866 Y133.472 E9.62709
G1 X130.138 Y132.835 E9.65013
G1 X130.482 Y132.234 E9.67316
G1 X130.893 Y131.676 E9.69621
G1 X131.365 Y131.17 E9.71922
M204 S5000
M205 X30 Y30
G0 F3600 X131.758 Y131.351
M204 S500
M205 X20 Y20
G1 F1800 X132.28 Y130.933 E9.74147
G1 X132.849 Y130.581 E9.76372
G1 X133.456 Y130.299 E9.78598
G1 X134.092 Y130.091 E9.80824
G1 X134.748 Y129.961 E9.83048
G1 X135.509 Y129.909 E9.85585
G1 X164.491 Y129.91 E10.81979
G1 X165.159 Y129.95 E10.84205
G1 X165.817 Y130.069 E10.86429
G1 X166.457 Y130.266 E10.88656
G1 X167.068 Y130.538 E10.90881
G1 X167.643 Y130.881 E10.93108
G1 X168.172 Y131.29 E10.95332
G1 X168.649 Y131.759 E10.97557
G1 X169.067 Y132.282 E10.99784
G1 X169.419 Y132.85 E11.02006
G1 X169.701 Y133.457 E11.04232
G1 X169.909 Y134.093 E11.06458
G1 X170.039 Y134.749 E11.08682
G1 X170.091 Y135.51 E11.11219
G1 X170.09 Y149.495 E11.57733
G1 X170.05 Y150.163 E11.59959
G1 X169.931 Y150.822 E11.62186
G1 X169.734 Y151.461 E11.6441
G1 X169.462 Y152.072 E11.66635
G1 X169.119 Y152.647 E11.68862
G1 X168.71 Y153.176 E11.71086
G1 X168.133 Y153.748 E11.73788
G1 X163.928 Y157.351 E11.92206
G1 X160.056 Y161.068 E12.10058
G1 X158.26 Y162.941 E12.18689
G1 X153.729 Y168.157 E12.41669
G1 X153.261 Y168.635 E12.43894
G1 X152.739 Y169.054 E12.4612
G1 X152.171 Y169.408 E12.48346
G1 X151.565 Y169.691 E12.5057
G1 X150.929 Y169.9 E12.52797
G1 X150.273 Y170.032 E12.55023
G1 X149.503 Y170.085 E12.5759
G1 X135.511 Y170.091 E13.04127
G1 X134.844 Y170.051 E13.0635
G1 X134.185 Y169.932 E13.08577
G1 X133.546 Y169.736 E13.108
G1 X132.934 Y169.464 E13.13028
G1 X132.36 Y169.121 E13.15252
G1 X131.83 Y168.713 E13.17476
G1 X131.353 Y168.244 E13.19701
G1 X130.935 Y167.722 E13.21925
G1 X130.582 Y167.153 E13.24152
G1 X130.3 Y166.546 E13.26379
G1 X130.092 Y165.91 E13.28604
G1 X129.961 Y165.254 E13.30829
G1 X129.909 Y164.491 E13.33373
G1 X129.909 Y135.509 E14.29767
G1 X129.949 Y134.841 E14.31993
G1 X130.068 Y134.183 E14.34217
G1 X130.265 Y133.543 E14.36444
G1 X130.537 Y132.932 E14.38669
G1 X130.88 Y132.358 E14.40893
G1 X131.289 Y131.828 E14.43119
G1 X131.758 Y131.351 E14.45344
M204 S5000
M205 X30 Y30
G0 F3600 X131.684 Y131.986
M204 S500
M205 X20 Y20
G1 F1800 X132.149 Y131.54 E14.47487
G1 X132.666 Y131.155 E14.49631
G1 X133.227 Y130.836 E14.51778
G1 X133.823 Y130.59 E14.53922
G1 X134.444 Y130.419 E14.56065
G1 X135.082 Y130.327 E14.58209
G1 X135.509 Y130.309 E14.5963
G1 X164.491 Y130.31 E15.56025
G1 X165.135 Y130.35 E15.58171
G1 X165.768 Y130.469 E15.60313
G1 X166.382 Y130.666 E15.62458
G1 X166.967 Y130.937 E15.64602
G1 X167.514 Y131.279 E15.66748
G1 X168.014 Y131.685 E15.6889
G1 X168.46 Y132.151 E15.71035
G1 X168.845 Y132.668 E15.73179
G1 X169.164 Y133.228 E15.75323
G1 X169.41 Y133.824 E15.77467
G1 X169.581 Y134.446 E15.79613
G1 X169.673 Y135.084 E15.81757
G1 X169.691 Y135.51 E15.83175
G1 X169.69 Y149.495 E16.29689
G1 X169.65 Y150.139 E16.31835
G1 X169.531 Y150.772 E16.33978
G1 X169.334 Y151.386 E16.36122
G1 X169.063 Y151.971 E16.38267
G1 X168.721 Y152.518 E16.40412
G1 X168.315 Y153.018 E16.42554
G1 X167.873 Y153.444 E16.44596
G1 X163.655 Y157.057 E16.63068
G1 X159.772 Y160.785 E16.80972
G1 X157.972 Y162.663 E16.89624
G1 X153.427 Y167.895 E17.12675
G1 X152.975 Y168.355 E17.1482
G1 X152.469 Y168.755 E17.16965
G1 X151.918 Y169.089 E17.19108
G1 X151.33 Y169.353 E17.21252
G1 X150.713 Y169.542 E17.23398
G1 X150.078 Y169.653 E17.25542
G1 X149.503 Y169.685 E17.27458
G1 X135.511 Y169.691 E17.73995
G1 X134.868 Y169.651 E17.76138
G1 X134.234 Y169.532 E17.78283
G1 X133.62 Y169.336 E17.80427
G1 X133.035 Y169.065 E17.82571
G1 X132.488 Y168.724 E17.84715
G1 X131.988 Y168.317 E17.8686
G1 X131.541 Y167.852 E17.89005
G1 X131.156 Y167.335 E17.91149
G1 X130.837 Y166.775 E17.93293
G1 X130.591 Y166.179 E17.95437
G1 X130.42 Y165.558 E17.97579
G1 X130.327 Y164.92 E17.99724
G1 X130.309 Y164.491 E18.01152
G1 X130.309 Y135.509 E18.97546
G1 X130.349 Y134.866 E18.99689
G1 X130.468 Y134.232 E19.01835
G1 X130.665 Y133.618 E19.03979
G1 X130.936 Y133.033 E19.06124
G1 X131.278 Y132.486 E19.08269
G1 X131.684 Y131.986 E19.10412
M204 S5000
M205 X30 Y30
G1 F2400 E14.10412
G0 F3600 X134.835 Y136.114
G0 X136.114 Y136.114
G0 X148.83 Y148.83
G0 X148.9 Y148.9
M204 S500
M205 X20 Y20
;TYPE:WALL-INNER
G1 F2400 E19.10412
G1 F1800 X148.9 Y163.9 E19.60302
G1 X136.1 Y163.9 E20.02875
G1 X136.1 Y136.1 E20.95338
G1 X163.9 Y136.1 E21.87801
G1 X163.9 Y148.9 E22.30374
G1 X148.9 Y148.9 E22.80264
M204 S5000
M205 X30 Y30
G0 F3600 X149.3 Y149.3
M204 S500
M205 X20 Y20
;TYPE:WALL-OUTER
G1 F1800 X149.3 Y164.3 E23.30155
G1 X135.7 Y164.3 E23.75388
G1 X135.7 Y135.7 E24.70512
G1 X164.3 Y135.7 E25.65636
G1 X164.3 Y149.3 E26.1087
G1 X149.3 Y149.3 E26.6076
M204 S5000
M205 X30 Y30
G0 F3600 X149.3 Y149.5
G0 X148.8 Y149.5
G0 X148.51 Y148.51
M204 S500
M205 X20 Y20
;TYPE:SKIN
G1 F1800 X148.51 Y163.51 E27.10651
G1 X136.49 Y163.51 E27.50629
G1 X136.49 Y136.49 E28.40498
G1 X163.51 Y136.49 E29.30367
G1 X163.51 Y148.51 E29.70346
G1 X148.51 Y148.51 E30.20236
M204 S5000
M205 X30 Y30
G0 F3600 X157.51 Y142.51
M204 S500
M205 X20 Y20
G1 F1800 X142.51 Y142.51 E30.70126
G1 X142.51 Y157.51 E31.20016
G1 X142.49 Y157.51 E31.20083
G1 X142.49 Y142.49 E31.70039
G1 X157.51 Y142.49 E32.19996
G1 X157.51 Y142.51 E32.20063
M204 S5000
M205 X30 Y30
G0 F3600 X157.91 Y142.91
M204 S500
M205 X20 Y20
G1 F1800 X142.91 Y142.91 E32.69953
G1 X142.91 Y157.91 E33.19843
G1 X142.09 Y157.91 E33.2257
G1 X142.09 Y142.09 E33.75188
G1 X157.91 Y142.09 E34.27806
G1 X157.91 Y142.91 E34.30533
M204 S5000
M205 X30 Y30
G0 F3600 X158.31 Y143.31
M204 S500
M205 X20 Y20
G1 F1800 X143.31 Y143.31 E34.80423
G1 X143.31 Y158.31 E35.30313
G1 X141.69 Y158.31 E35.35701
G1 X141.69 Y141.69 E35.9098
G1 X158.31 Y141.69 E36.46258
G1 X158.31 Y143.31 E36.51646
M204 S5000
M205 X30 Y30
G0 F3600 X158.71 Y143.71
M204 S500
M205 X20 Y20
G1 F1800 X143.71 Y143.71 E37.01536
G1 X143.71 Y158.71 E37.51427
G1 X141.29 Y158.71 E37.59476
G1 X141.29 Y141.29 E38.17415
G1 X158.71 Y141.29 E38.75354
G1 X158.71 Y143.71 E38.83403
M204 S5000
M205 X30 Y30
G0 F3600 X159.11 Y144.11
M204 S500
M205 X20 Y20
G1 F1800 X144.11 Y144.11 E39.33293
G1 X144.11 Y159.11 E39.83183
G1 X140.89 Y159.11 E39.93893
G1 X140.89 Y140.89 E40.54493
G1 X159.11 Y140.89 E41.15093
G1 X159.11 Y144.11 E41.25803
M204 S5000
M205 X30 Y30
G0 F3600 X159.51 Y144.51
M204 S500
M205 X20 Y20
G1 F1800 X144.51 Y144.51 E41.75693
G1 X144.51 Y159.51 E42.25583
G1 X140.49 Y159.51 E42.38954
G1 X140.49 Y140.49 E43.02214
G1 X159.51 Y140.49 E43.65475
G1 X159.51 Y144.51 E43.78846
M204 S5000
M205 X30 Y30
G0 F3600 X159.91 Y144.91
M204 S500
M205 X20 Y20
G1 F1800 X144.91 Y144.91 E44.28736
G1 X144.91 Y159.91 E44.78626
G1 X140.09 Y159.91 E44.94658
G1 X140.09 Y140.09 E45.60579
G1 X159.91 Y140.09 E46.26501
G1 X159.91 Y144.91 E46.42532
M204 S5000
M205 X30 Y30
G0 F3600 X160.31 Y145.31
M204 S500
M205 X20 Y20
G1 F1800 X145.31 Y145.31 E46.92422
G1 X145.31 Y160.31 E47.42313
G1 X139.69 Y160.31 E47.61005
G1 X139.69 Y139.69 E48.29587
G1 X160.31 Y139.69 E48.9817
G1 X160.31 Y145.31 E49.16862
M204 S5000
M205 X30 Y30
G0 F3600 X160.71 Y145.71
M204 S500
M205 X20 Y20
G1 F1800 X145.71 Y145.71 E49.66752
G1 X145.71 Y160.71 E50.16642
G1 X139.29 Y160.71 E50.37995
G1 X139.29 Y139.29 E51.09238
G1 X160.71 Y139.29 E51.80482
G1 X160.71 Y145.71 E52.01835
M204 S5000
M205 X30 Y30
G0 F3600 X161.11 Y146.11
M204 S500
M205 X20 Y20
G1 F1800 X146.11 Y146.11 E52.51725
G1 X146.11 Y161.11 E53.01615
G1 X138.89 Y161.11 E53.25629
G1 X138.89 Y138.89 E53.99533
G1 X161.11 Y138.89 E54.73437
G1 X161.11 Y146.11 E54.97451
M204 S5000
M205 X30 Y30
G0 F3600 X161.51 Y146.51
M204 S500
M205 X20 Y20
G1 F1800 X146.51 Y146.51 E55.47341
G1 X146.51 Y161.51 E55.97231
G1 X138.49 Y161.51 E56.23906
G1 X138.49 Y138.49 E57.00471
G1 X161.51 Y138.49 E57.77035
G1 X161.51 Y146.51 E58.0371
M204 S5000
M205 X30 Y30
G0 F3600 X161.91 Y146.91
M204 S500
M205 X20 Y20
G1 F1800 X146.91 Y146.91 E58.536
G1 X146.91 Y161.91 E59.0349
G1 X138.09 Y161.91 E59.32826
G1 X138.09 Y138.09 E60.12052
G1 X161.91 Y138.09 E60.91277
G1 X161.91 Y146.91 E61.20613
M204 S5000
M205 X30 Y30
G0 F3600 X162.31 Y147.31
M204 S500
M205 X20 Y20
G1 F1800 X147.31 Y147.31 E61.70503
G1 X147.31 Y162.31 E62.20393
G1 X137.69 Y162.31 E62.52389
G1 X137.69 Y137.69 E63.34276
G1 X162.31 Y137.69 E64.16162
G1 X162.31 Y147.31 E64.48158
M204 S5000
M205 X30 Y30
G0 F3600 X162.71 Y147.71
M204 S500
M205 X20 Y20
G1 F1800 X147.71 Y147.71 E64.98049
G1 X147.71 Y162.71 E65.47939
G1 X137.29 Y162.71 E65.82596
G1 X137.29 Y137.29 E66.67143
G1 X162.71 Y137.29 E67.5169
G1 X162.71 Y147.71 E67.86347
M204 S5000
M205 X30 Y30
G0 F3600 X163.11 Y148.11
M204 S500
M205 X20 Y20
G1 F1800 X148.11 Y148.11 E68.36238
G1 X148.11 Y163.11 E68.86128
G1 X136.89 Y163.11 E69.23446
G1 X136.89 Y136.89 E70.10654
G1 X163.11 Y136.89 E70.97862
G1 X163.11 Y148.11 E71.3518
M204 S5000
M205 X30 Y30
G0 F3600 X148.83 Y148.83
G0 X148.9 Y148.9
;TIME_ELAPSED:83.435270
;LAYER:1
M140 S65
M106 S255
G0 F5400 X148.9 Y148.9 Z0.4
M204 S500
M205 X20 Y20
;TYPE:WALL-INNER
G1 F2700 X148.9 Y163.9 E71.8507
G1 X136.1 Y163.9 E72.27643
G1 X136.1 Y136.1 E73.20106
G1 X163.9 Y136.1 E74.12569
G1 X163.9 Y148.9 E74.55142
G1 X148.9 Y148.9 E75.05032
M204 S5000
M205 X30 Y30
G0 F5400 X149.3 Y149.3
M204 S500
M205 X20 Y20
;TYPE:WALL-OUTER
G1 F1800 X149.3 Y164.3 E75.54923
G1 X135.7 Y164.3 E76.00156
G1 X135.7 Y135.7 E76.9528
G1 X164.3 Y135.7 E77.90404
G1 X164.3 Y149.3 E78.35638
G1 X149.3 Y149.3 E78.85528
M204 S5000
M205 X30 Y30
G0 F5400 X149.3 Y149.5
G0 X148.8 Y149.5
G0 X148.51 Y148.51
M204 S500
M205 X20 Y20
;TYPE:SKIN
G1 F1800 X148.51 Y163.51 E79.35419
G1 X136.49 Y163.51 E79.75397
G1 X136.49 Y136.49 E80.65266
G1 X163.51 Y136.49 E81.55135
G1 X163.51 Y148.51 E81.95114
G1 X148.51 Y148.51 E82.45004
M204 S5000
M205 X30 Y30
G0 F5400 X157.51 Y142.51
M204 S500
M205 X20 Y20
G1 F1800 X142.51 Y142.51 E82.94894
G1 X142.51 Y157.51 E83.44784
G1 X142.49 Y157.51 E83.44851
G1 X142.49 Y142.49 E83.94808
G1 X157.51 Y142.49 E84.44764
G1 X157.51 Y142.51 E84.44831
M204 S5000
M205 X30 Y30
G0 F5400 X157.91 Y142.91
M204 S500
M205 X20 Y20
G1 F1800 X142.91 Y142.91 E84.94721
G1 X142.91 Y157.91 E85.44611
G1 X142.09 Y157.91 E85.47339
G1 X142.09 Y142.09 E85.99956
G1 X157.91 Y142.09 E86.52574
G1 X157.91 Y142.91 E86.55301
M204 S5000
M205 X30 Y30
G0 F5400 X158.31 Y143.31
M204 S500
M205 X20 Y20
G1 F1800 X143.31 Y143.31 E87.05191
G1 X143.31 Y158.31 E87.55081
G1 X141.69 Y158.31 E87.6047
G1 X141.69 Y141.69 E88.15748
G1 X158.31 Y141.69 E88.71026
G1 X158.31 Y143.31 E88.76414
M204 S5000
M205 X30 Y30
G0 F5400 X158.71 Y143.71
M204 S500
M205 X20 Y20
G1 F1800 X143.71 Y143.71 E89.26305
G1 X143.71 Y158.71 E89.76195
G1 X141.29 Y158.71 E89.84244
G1 X141.29 Y141.29 E90.42183
G1 X158.71 Y141.29 E91.00122
G1 X158.71 Y143.71 E91.08171
M204 S5000
M205 X30 Y30
G0 F5400 X159.11 Y144.11
M204 S500
M205 X20 Y20
G1 F1800 X144.11 Y144.11 E91.58061
G1 X144.11 Y159.11 E92.07951
G1 X140.89 Y159.11 E92.18661
G1 X140.89 Y140.89 E92.79261
G1 X159.11 Y140.89 E93.39861
G1 X159.11 Y144.11 E93.50571
M204 S5000
M205 X30 Y30
G0 F5400 X159.51 Y144.51
M204 S500
M205 X20 Y20
G1 F1800 X144.51 Y144.51 E94.00461
G1 X144.51 Y159.51 E94.50351
G1 X140.49 Y159.51 E94.63722
G1 X140.49 Y140.49 E95.26983
G1 X159.51 Y140.49 E95.90243
G1 X159.51 Y144.51 E96.03614
M204 S5000
M205 X30 Y30
G0 F5400 X159.91 Y144.91
M204 S500
M205 X20 Y20
G1 F1800 X144.91 Y144.91 E96.53504
G1 X144.91 Y159.91 E97.03394
G1 X140.09 Y159.91 E97.19426
G1 X140.09 Y140.09 E97.85347
G1 X159.91 Y140.09 E98.51269
G1 X159.91 Y144.91 E98.673
M204 S5000
M205 X30 Y30
G0 F5400 X160.31 Y145.31
M204 S500
M205 X20 Y20
G1 F1800 X145.31 Y145.31 E99.1719
G1 X145.31 Y160.31 E99.67081
G1 X139.69 Y160.31 E99.85773
G1 X139.69 Y139.69 E100.54355
G1 X160.31 Y139.69 E101.22938
G1 X160.31 Y145.31 E101.4163
M204 S5000
M205 X30 Y30
G0 F5400 X160.71 Y145.71
M204 S500
M205 X20 Y20
G1 F1800 X145.71 Y145.71 E101.9152
G1 X145.71 Y160.71 E102.4141
